P3
400 225
255
164 201 255
164 201 255
164 201 255
164 201 255
164 201 255
164 201 255
164 201 255
164 201 255
164 201 255
164 201 255
164 201 255
164 201 255
164 201 255
164 201 255
164 201 255
164 201 255
164 201 255
164 201 255
164 201 255
164 201 255
164 201 255
164 201 255
164 201 255
164 201 255
164 201 255
164 201 255
164 200 255
164 200 255
164 200 255
164 200 255
164 200 255
164 200 255
164 200 255
164 200 255
164 200 255
164 200 255
164 200 255
164 200 255
164 200 255
164 200 255
164 200 255
163 200 255
163 200 255
163 200 255
163 200 255
163 200 255
163 200 255
163 200 255
163 200 255
163 200 255
163 200 255
163 200 255
163 200 255
163 200 255
163 200 255
163 200 255
163 200 255
163 200 255
163 200 255
163 200 255
163 200 255
163 200 255
163 200 255
163 200 255
163 200 255
163 200 255
163 200 255
163 200 255
163 200 255
163 200 255
163 200 255
163 200 255
163 200 255
163 200 255
163 200 255
163 200 255
163 200 255
163 200 255
163 200 255
163 200 255
162 200 255
162 200 255
162 200 255
162 200 255
162 200 255
162 200 255
162 200 255
162 200 255
162 200 255
162 200 255
162 200 255
162 200 255
162 200 255
162 199 255
162 199 255
162 199 255
162 199 255
162 199 255
162 199 255
162 199 255
162 199 255
162 199 255
162 199 255
162 199 255
162 199 255
162 199 255
162 199 255
162 199 255
162 199 255
162 199 255
162 199 255
162 199 255
162 199 255
162 199 255
162 199 255
162 199 255
162 199 255
162 199 255
161 199 255
161 199 255
161 199 255
161 199 255
161 199 255
161 199 255
161 199 255
161 199 255
161 199 255
161 199 255
161 199 255
161 199 255
161 199 255
161 199 255
161 199 255
161 199 255
161 199 255
161 199 255
161 199 255
161 199 255
161 199 255
161 199 255
161 199 255
161 199 255
161 199 255
161 199 255
161 199 255
161 199 255
161 199 255
161 199 255
161 199 255
161 199 255
161 199 255
161 199 255
161 199 255
161 199 255
161 199 255
161 199 255
161 199 255
161 199 255
161 199 255
161 199 255
161 199 255
161 199 255
161 199 255
161 199 255
160 198 255
160 198 255
160 198 255
160 198 255
160 198 255
160 198 255
160 198 255
160 198 255
160 198 255
160 198 255
160 198 255
160 198 255
160 198 255
160 198 255
160 198 255
160 198 255
160 198 255
160 198 255
160 198 255
160 198 255
160 198 255
160 198 255
160 198 255
160 198 255
160 198 255
160 198 255
160 198 255
160 198 255
160 198 255
160 198 255
160 198 255
160 198 255
160 198 255
160 198 255
160 198 255
160 198 255
160 198 255
160 198 255
160 198 255
160 198 255
160 198 255
160 198 255
160 198 255
160 198 255
160 198 255
160 198 255
160 198 255
160 198 255
160 198 255
160 198 255
160 198 255
160 198 255
160 198 255
160 198 255
160 198 255
160 198 255
160 198 255
160 198 255
160 198 255
160 198 255
160 198 255
160 198 255
160 198 255
160 198 255
160 198 255
160 198 255
160 198 255
160 198 255
160 198 255
160 198 255
161 198 255
161 199 255
161 199 255
161 199 255
161 199 255
161 199 255
161 199 255
161 199 255
161 199 255
161 199 255
161 199 255
161 199 255
161 199 255
161 199 255
161 199 255
161 199 255
161 199 255
161 199 255
161 199 255
161 199 255
161 199 255
161 199 255
161 199 255
161 199 255
161 199 255
161 199 255
161 199 255
161 199 255
161 199 255
161 199 255
161 199 255
161 199 255
161 199 255
161 199 255
161 199 255
161 199 255
161 199 255
161 199 255
161 199 255
161 199 255
161 199 255
161 199 255
161 199 255
161 199 255
161 199 255
161 199 255
161 199 255
161 199 255
161 199 255
162 199 255
162 199 255
162 199 255
162 199 255
162 199 255
162 199 255
162 199 255
162 199 255
162 199 255
162 199 255
162 199 255
162 199 255
162 199 255
162 199 255
162 199 255
162 199 255
162 199 255
162 199 255
162 199 255
162 199 255
162 199 255
162 199 255
162 199 255
162 199 255
162 200 255
162 200 255
162 200 255
162 200 255
162 200 255
162 200 255
162 200 255
162 200 255
162 200 255
162 200 255
162 200 255
162 200 255
162 200 255
163 200 255
163 200 255
163 200 255
163 200 255
163 200 255
163 200 255
163 200 255
163 200 255
163 200 255
163 200 255
163 200 255
163 200 255
163 200 255
163 200 255
163 200 255
163 200 255
163 200 255
163 200 255
163 200 255
163 200 255
163 200 255
163 200 255
163 200 255
163 200 255
163 200 255
163 200 255
163 200 255
163 200 255
163 200 255
163 200 255
163 200 255
163 200 255
163 200 255
163 200 255
163 200 255
163 200 255
163 200 255
163 200 255
163 200 255
164 200 255
164 200 255
164 200 255
164 200 255
164 200 255
164 200 255
164 200 255
164 200 255
164 200 255
164 200 255
164 200 255
164 200 255
164 200 255
164 200 255
164 201 255
164 201 255
164 201 255
164 201 255
164 201 255
164 201 255
164 201 255
164 201 255
164 201 255
164 201 255
164 201 255
164 201 255
164 201 255
164 201 255
164 201 255
164 201 255
164 201 255
164 201 255
164 201 255
164 201 255
164 201 255
164 201 255
164 201 255
164 201 255
164 201 255
164 201 255
164 201 255
165 201 255
165 201 255
165 201 255
165 201 255
164 201 255
164 201 255
164 201 255
164 201 255
164 201 255
164 201 255
164 201 255
164 201 255
164 201 255
164 201 255
164 201 255
164 201 255
164 201 255
164 201 255
164 201 255
164 201 255
164 201 255
164 201 255
164 201 255
164 201 255
164 201 255
164 201 255
164 201 255
164 201 255
164 201 255
164 201 255
164 201 255
164 201 255
164 201 255
164 201 255
164 201 255
164 201 255
164 200 255
164 200 255
164 200 255
164 200 255
164 200 255
164 200 255
164 200 255
164 200 255
164 200 255
164 200 255
164 200 255
164 200 255
164 200 255
164 200 255
163 200 255
163 200 255
163 200 255
163 200 255
163 200 255
163 200 255
163 200 255
163 200 255
163 200 255
163 200 255
163 200 255
163 200 255
163 200 255
163 200 255
163 200 255
163 200 255
163 200 255
163 200 255
163 200 255
163 200 255
163 200 255
163 200 255
163 200 255
163 200 255
163 200 255
163 200 255
163 200 255
163 200 255
163 200 255
163 200 255
163 200 255
163 200 255
163 200 255
163 200 255
163 200 255
163 200 255
163 200 255
163 200 255
162 200 255
162 200 255
162 200 255
162 200 255
162 200 255
162 200 255
162 200 255
162 200 255
162 200 255
162 200 255
162 200 255
162 200 255
162 200 255
162 199 255
162 199 255
162 199 255
162 199 255
162 199 255
162 199 255
162 199 255
162 199 255
162 199 255
162 199 255
162 199 255
162 199 255
162 199 255
162 199 255
162 199 255
162 199 255
162 199 255
162 199 255
162 199 255
162 199 255
162 199 255
162 199 255
162 199 255
162 199 255
162 199 255
161 199 255
161 199 255
161 199 255
161 199 255
161 199 255
161 199 255
161 199 255
161 199 255
161 199 255
161 199 255
161 199 255
161 199 255
161 199 255
161 199 255
161 199 255
161 199 255
161 199 255
161 199 255
161 199 255
161 199 255
161 199 255
161 199 255
161 199 255
161 199 255
161 199 255
161 199 255
161 199 255
161 199 255
161 199 255
161 199 255
161 199 255
161 199 255
161 199 255
161 199 255
161 199 255
161 199 255
161 199 255
161 199 255
161 199 255
161 199 255
161 199 255
161 199 255
161 199 255
161 199 255
161 199 255
161 199 255
161 199 255
161 199 255
161 199 255
161 199 255
161 199 255
161 199 255
161 199 255
161 199 255
161 199 255
161 199 255
161 199 255
161 199 255
160 198 255
160 198 255
160 198 255
160 198 255
160 198 255
160 198 255
160 198 255
160 198 255
160 198 255
160 198 255
160 198 255
160 198 255
160 198 255
160 198 255
160 198 255
160 198 255
160 198 255
160 198 255
160 198 255
160 198 255
160 198 255
160 198 255
160 198 255
160 198 255
160 198 255
160 198 255
160 198 255
160 198 255
160 198 255
160 198 255
160 198 255
161 199 255
161 199 255
161 199 255
161 199 255
161 199 255
161 199 255
161 199 255
161 199 255
161 199 255
161 199 255
161 199 255
161 199 255
161 199 255
161 199 255
161 199 255
161 199 255
161 199 255
161 199 255
161 199 255
161 199 255
161 199 255
161 199 255
161 199 255
161 199 255
161 199 255
161 199 255
161 199 255
161 199 255
161 199 255
161 199 255
161 199 255
161 199 255
161 199 255
161 199 255
161 199 255
161 199 255
161 199 255
161 199 255
161 199 255
161 199 255
161 199 255
161 199 255
161 199 255
161 199 255
161 199 255
161 199 255
161 199 255
161 199 255
161 199 255
161 199 255
161 199 255
161 199 255
161 199 255
161 199 255
161 199 255
161 199 255
161 199 255
161 199 255
161 199 255
162 199 255
162 199 255
162 199 255
162 199 255
162 199 255
162 199 255
162 199 255
162 199 255
162 199 255
162 199 255
162 199 255
162 199 255
162 199 255
162 199 255
162 199 255
162 199 255
162 199 255
162 199 255
162 199 255
162 199 255
162 199 255
162 199 255
162 199 255
162 199 255
162 199 255
162 200 255
162 200 255
162 200 255
162 200 255
162 200 255
162 200 255
162 200 255
162 200 255
162 200 255
162 200 255
162 200 255
162 200 255
162 200 255
163 200 255
163 200 255
163 200 255
163 200 255
163 200 255
163 200 255
163 200 255
163 200 255
163 200 255
163 200 255
163 200 255
163 200 255
163 200 255
163 200 255
163 200 255
163 200 255
163 200 255
163 200 255
163 200 255
163 200 255
163 200 255
163 200 255
163 200 255
163 200 255
163 200 255
163 200 255
163 200 255
163 200 255
163 200 255
163 200 255
163 200 255
163 200 255
163 200 255
163 200 255
163 200 255
163 200 255
163 200 255
163 200 255
164 200 255
164 200 255
164 200 255
164 200 255
164 200 255
164 200 255
164 200 255
164 200 255
164 200 255
164 200 255
164 200 255
164 200 255
164 200 255
164 200 255
164 201 255
164 201 255
164 201 255
164 201 255
164 201 255
164 201 255
164 201 255
164 201 255
164 201 255
164 201 255
164 201 255
164 201 255
164 201 255
164 201 255
164 201 255
164 201 255
164 201 255
164 201 255
164 201 255
164 201 255
164 201 255
164 201 255
164 201 255
164 201 255
164 201 255
164 201 255
164 201 255
164 201 255
164 201 255
164 201 255
164 201 255
164 201 255
165 201 255
165 201 255
165 201 255
165 201 255
165 201 255
165 201 255
165 201 255
165 201 255
165 201 255
165 201 255
165 201 255
165 201 255
165 201 255
165 201 255
165 201 255
165 201 255
165 201 255
165 201 255
165 201 255
164 201 255
164 201 255
164 201 255
164 201 255
164 201 255
164 201 255
164 201 255
164 201 255
164 201 255
164 201 255
164 201 255
164 201 255
164 201 255
164 201 255
164 201 255
164 201 255
164 201 255
164 201 255
164 201 255
164 201 255
164 201 255
164 201 255
164 201 255
164 201 255
164 201 255
164 201 255
164 201 255
164 201 255
164 201 255
164 201 255
164 200 255
164 200 255
164 200 255
164 200 255
164 200 255
164 200 255
164 200 255
164 200 255
164 200 255
164 200 255
164 200 255
164 200 255
164 200 255
163 200 255
163 200 255
163 200 255
163 200 255
163 200 255
163 200 255
163 200 255
163 200 255
163 200 255
163 200 255
163 200 255
163 200 255
163 200 255
163 200 255
163 200 255
163 200 255
163 200 255
163 200 255
163 200 255
163 200 255
163 200 255
163 200 255
163 200 255
163 200 255
163 200 255
163 200 255
163 200 255
163 200 255
163 200 255
163 200 255
163 200 255
163 200 255
163 200 255
163 200 255
163 200 255
163 200 255
163 200 255
163 200 255
162 200 255
162 200 255
162 200 255
162 200 255
162 200 255
162 200 255
162 200 255
162 200 255
162 200 255
162 200 255
162 200 255
162 200 255
162 200 255
162 199 255
162 199 255
162 199 255
162 199 255
162 199 255
162 199 255
162 199 255
162 199 255
162 199 255
162 199 255
162 199 255
162 199 255
162 199 255
162 199 255
162 199 255
162 199 255
162 199 255
162 199 255
162 199 255
162 199 255
162 199 255
162 199 255
162 199 255
162 199 255
162 199 255
162 199 255
161 199 255
161 199 255
161 199 255
161 199 255
161 199 255
161 199 255
161 199 255
161 199 255
161 199 255
161 199 255
161 199 255
161 199 255
161 199 255
161 199 255
161 199 255
161 199 255
161 199 255
161 199 255
161 199 255
161 199 255
161 199 255
161 199 255
161 199 255
161 199 255
161 199 255
161 199 255
161 199 255
161 199 255
161 199 255
161 199 255
161 199 255
161 199 255
161 199 255
161 199 255
161 199 255
161 199 255
161 199 255
161 199 255
161 199 255
161 199 255
161 199 255
161 199 255
161 199 255
161 199 255
161 199 255
161 199 255
161 199 255
161 199 255
161 199 255
161 199 255
161 199 255
161 199 255
161 199 255
161 199 255
161 199 255
161 199 255
161 199 255
161 199 255
161 199 255
161 199 255
161 199 255
161 199 255
161 199 255
161 199 255
161 199 255
161 199 255
161 199 255
161 199 255
161 199 255
161 199 255
161 199 255
161 199 255
161 199 255
161 199 255
161 199 255
161 199 255
161 199 255
161 199 255
161 199 255
161 199 255
161 199 255
161 199 255
161 199 255
161 199 255
161 199 255
161 199 255
161 199 255
161 199 255
161 199 255
161 199 255
161 199 255
161 199 255
161 199 255
161 199 255
161 199 255
161 199 255
161 199 255
161 199 255
161 199 255
161 199 255
161 199 255
161 199 255
161 199 255
161 199 255
161 199 255
161 199 255
161 199 255
161 199 255
161 199 255
161 199 255
161 199 255
161 199 255
161 199 255
161 199 255
161 199 255
161 199 255
161 199 255
161 199 255
161 199 255
161 199 255
161 199 255
161 199 255
161 199 255
161 199 255
161 199 255
161 199 255
161 199 255
161 199 255
161 199 255
161 199 255
162 199 255
162 199 255
162 199 255
162 199 255
162 199 255
162 199 255
162 199 255
162 199 255
162 199 255
162 199 255
162 199 255
162 199 255
162 199 255
162 199 255
162 199 255
162 199 255
162 199 255
162 199 255
162 199 255
162 199 255
162 199 255
162 199 255
162 199 255
162 199 255
162 199 255
162 199 255
162 200 255
162 200 255
162 200 255
162 200 255
162 200 255
162 200 255
162 200 255
162 200 255
162 200 255
162 200 255
162 200 255
162 200 255
163 200 255
163 200 255
163 200 255
163 200 255
163 200 255
163 200 255
163 200 255
163 200 255
163 200 255
163 200 255
163 200 255
163 200 255
163 200 255
163 200 255
163 200 255
163 200 255
163 200 255
163 200 255
163 200 255
163 200 255
163 200 255
163 200 255
163 200 255
163 200 255
163 200 255
163 200 255
163 200 255
163 200 255
163 200 255
163 200 255
163 200 255
163 200 255
163 200 255
163 200 255
163 200 255
163 200 255
163 200 255
163 200 255
163 200 255
164 200 255
164 200 255
164 200 255
164 200 255
164 200 255
164 200 255
164 200 255
164 200 255
164 200 255
164 200 255
164 200 255
164 200 255
164 200 255
164 201 255
164 201 255
164 201 255
164 201 255
164 201 255
164 201 255
164 201 255
164 201 255
164 201 255
164 201 255
164 201 255
164 201 255
164 201 255
164 201 255
164 201 255
164 201 255
164 201 255
164 201 255
164 201 255
164 201 255
164 201 255
164 201 255
164 201 255
164 201 255
164 201 255
164 201 255
164 201 255
164 201 255
164 201 255
164 201 255
165 201 255
165 201 255
165 201 255
165 201 255
165 201 255
165 201 255
165 201 255
165 201 255
165 201 255
165 201 255
165 201 255
165 201 255
165 201 255
165 201 255
165 201 255
165 201 255
165 201 255
165 201 255
165 201 255
165 201 255
165 201 255
165 201 255
165 201 255
165 201 255
165 201 255
165 201 255
165 201 255
165 201 255
165 201 255
165 201 255
165 201 255
165 201 255
165 201 255
165 201 255
165 201 255
165 201 255
165 201 255
165 201 255
165 201 255
164 201 255
164 201 255
164 201 255
164 201 255
164 201 255
164 201 255
164 201 255
164 201 255
164 201 255
164 201 255
164 201 255
164 201 255
164 201 255
164 201 255
164 201 255
164 201 255
164 201 255
164 201 255
164 201 255
164 201 255
164 201 255
164 201 255
164 201 255
164 201 255
164 201 255
164 201 255
164 201 255
164 201 255
164 201 255
164 201 255
164 200 255
164 200 255
164 200 255
164 200 255
164 200 255
164 200 255
164 200 255
164 200 255
164 200 255
164 200 255
164 200 255
164 200 255
164 200 255
163 200 255
163 200 255
163 200 255
163 200 255
163 200 255
163 200 255
163 200 255
163 200 255
163 200 255
163 200 255
163 200 255
163 200 255
163 200 255
163 200 255
163 200 255
163 200 255
163 200 255
163 200 255
163 200 255
163 200 255
163 200 255
163 200 255
163 200 255
163 200 255
163 200 255
163 200 255
163 200 255
163 200 255
163 200 255
163 200 255
163 200 255
163 200 255
163 200 255
163 200 255
163 200 255
163 200 255
163 200 255
163 200 255
162 200 255
162 200 255
162 200 255
162 200 255
162 200 255
162 200 255
162 200 255
162 200 255
162 200 255
162 200 255
162 200 255
162 200 255
162 199 255
162 199 255
162 199 255
162 199 255
162 199 255
162 199 255
162 199 255
162 199 255
162 199 255
162 199 255
162 199 255
162 199 255
162 199 255
162 199 255
162 199 255
162 199 255
162 199 255
162 199 255
162 199 255
162 199 255
162 199 255
162 199 255
162 199 255
162 199 255
162 199 255
162 199 255
162 199 255
162 199 255
161 199 255
161 199 255
161 199 255
161 199 255
161 199 255
161 199 255
161 199 255
161 199 255
161 199 255
161 199 255
161 199 255
161 199 255
161 199 255
161 199 255
161 199 255
161 199 255
161 199 255
161 199 255
161 199 255
161 199 255
161 199 255
161 199 255
161 199 255
161 199 255
161 199 255
161 199 255
161 199 255
161 199 255
161 199 255
161 199 255
161 199 255
161 199 255
161 199 255
161 199 255
161 199 255
161 199 255
161 199 255
161 199 255
161 199 255
161 199 255
161 199 255
161 199 255
161 199 255
161 199 255
161 199 255
161 199 255
161 199 255
161 199 255
161 199 255
161 199 255
161 199 255
161 199 255
161 199 255
161 199 255
161 199 255
161 199 255
161 199 255
161 199 255
161 199 255
161 199 255
161 199 255
161 199 255
161 199 255
161 199 255
161 199 255
161 199 255
161 199 255
161 199 255
161 199 255
161 199 255
161 199 255
161 199 255
161 199 255
161 199 255
161 199 255
161 199 255
161 199 255
161 199 255
161 199 255
161 199 255
161 199 255
161 199 255
161 199 255
161 199 255
161 199 255
161 199 255
161 199 255
161 199 255
161 199 255
161 199 255
161 199 255
161 199 255
161 199 255
161 199 255
161 199 255
161 199 255
161 199 255
161 199 255
161 199 255
161 199 255
161 199 255
161 199 255
161 199 255
161 199 255
161 199 255
161 199 255
161 199 255
161 199 255
161 199 255
161 199 255
162 199 255
162 199 255
162 199 255
162 199 255
162 199 255
162 199 255
162 199 255
162 199 255
162 199 255
162 199 255
162 199 255
162 199 255
162 199 255
162 199 255
162 199 255
162 199 255
162 199 255
162 199 255
162 199 255
162 199 255
162 199 255
162 199 255
162 199 255
162 199 255
162 199 255
162 199 255
162 199 255
162 199 255
162 200 255
162 200 255
162 200 255
162 200 255
162 200 255
162 200 255
162 200 255
162 200 255
162 200 255
162 200 255
162 200 255
162 200 255
163 200 255
163 200 255
163 200 255
163 200 255
163 200 255
163 200 255
163 200 255
163 200 255
163 200 255
163 200 255
163 200 255
163 200 255
163 200 255
163 200 255
163 200 255
163 200 255
163 200 255
163 200 255
163 200 255
163 200 255
163 200 255
163 200 255
163 200 255
163 200 255
163 200 255
163 200 255
163 200 255
163 200 255
163 200 255
163 200 255
163 200 255
163 200 255
163 200 255
163 200 255
163 200 255
163 200 255
163 200 255
163 200 255
164 200 255
164 200 255
164 200 255
164 200 255
164 200 255
164 200 255
164 200 255
164 200 255
164 200 255
164 200 255
164 200 255
164 200 255
164 200 255
164 201 255
164 201 255
164 201 255
164 201 255
164 201 255
164 201 255
164 201 255
164 201 255
164 201 255
164 201 255
164 201 255
164 201 255
164 201 255
164 201 255
164 201 255
164 201 255
164 201 255
164 201 255
164 201 255
164 201 255
164 201 255
164 201 255
164 201 255
164 201 255
164 201 255
164 201 255
164 201 255
164 201 255
164 201 255
165 201 255
165 201 255
165 201 255
165 201 255
165 201 255
165 201 255
165 201 255
165 201 255
165 201 255
165 201 255
165 201 255
165 201 255
165 201 255
165 201 255
165 201 255
165 201 255
165 201 255
165 201 255
165 201 255
165 201 255
165 201 255
165 201 255
165 201 255
165 201 255
165 201 255
165 201 255
165 201 255
165 201 255
165 201 255
165 201 255
165 201 255
165 201 255
165 201 255
165 201 255
165 201 255
165 201 255
165 201 255
165 201 255
165 201 255
165 201 255
165 201 255
165 201 255
165 201 255
165 201 255
165 201 255
165 201 255
165 201 255
165 201 255
165 201 255
165 201 255
165 201 255
165 201 255
165 201 255
165 201 255
165 201 255
165 201 255
165 201 255
165 201 255
165 201 255
164 201 255
164 201 255
164 201 255
164 201 255
164 201 255
164 201 255
164 201 255
164 201 255
164 201 255
164 201 255
164 201 255
164 201 255
164 201 255
164 201 255
164 201 255
164 201 255
164 201 255
164 201 255
164 201 255
164 201 255
164 201 255
164 201 255
164 201 255
164 201 255
164 201 255
164 201 255
164 201 255
164 201 255
164 200 255
164 200 255
164 200 255
164 200 255
164 200 255
164 200 255
164 200 255
164 200 255
164 200 255
164 200 255
164 200 255
164 200 255
164 200 255
163 200 255
163 200 255
163 200 255
163 200 255
163 200 255
163 200 255
163 200 255
163 200 255
163 200 255
163 200 255
163 200 255
163 200 255
163 200 255
163 200 255
163 200 255
163 200 255
163 200 255
163 200 255
163 200 255
163 200 255
163 200 255
163 200 255
163 200 255
163 200 255
163 200 255
163 200 255
163 200 255
163 200 255
163 200 255
163 200 255
163 200 255
163 200 255
163 200 255
163 200 255
163 200 255
163 200 255
163 200 255
163 200 255
162 200 255
162 200 255
162 200 255
162 200 255
162 200 255
162 200 255
162 200 255
162 200 255
162 200 255
162 200 255
162 200 255
162 200 255
162 200 255
162 199 255
162 199 255
162 199 255
162 199 255
162 199 255
162 199 255
162 199 255
162 199 255
162 199 255
162 199 255
162 199 255
162 199 255
162 199 255
162 199 255
162 199 255
162 199 255
162 199 255
162 199 255
162 199 255
162 199 255
162 199 255
162 199 255
162 199 255
162 199 255
162 199 255
162 199 255
162 199 255
162 199 255
162 199 255
162 199 255
161 199 255
161 199 255
161 199 255
161 199 255
161 199 255
161 199 255
161 199 255
161 199 255
161 199 255
161 199 255
161 199 255
161 199 255
161 199 255
161 199 255
161 199 255
161 199 255
161 199 255
161 199 255
161 199 255
161 199 255
161 199 255
161 199 255
161 199 255
161 199 255
161 199 255
161 199 255
161 199 255
161 199 255
161 199 255
161 199 255
161 199 255
161 199 255
161 199 255
161 199 255
161 199 255
161 199 255
161 199 255
161 199 255
161 199 255
161 199 255
161 199 255
161 199 255
161 199 255
161 199 255
161 199 255
161 199 255
161 199 255
161 199 255
161 199 255
161 199 255
161 199 255
161 199 255
161 199 255
161 199 255
161 199 255
161 199 255
161 199 255
161 199 255
161 199 255
161 199 255
161 199 255
161 199 255
161 199 255
161 199 255
161 199 255
161 199 255
161 199 255
161 199 255
161 199 255
161 199 255
161 199 255
161 199 255
161 199 255
161 199 255
161 199 255
161 199 255
161 199 255
161 199 255
161 199 255
161 199 255
161 199 255
161 199 255
161 199 255
161 199 255
161 199 255
161 199 255
161 199 255
161 199 255
162 199 255
162 199 255
162 199 255
162 199 255
162 199 255
162 199 255
162 199 255
162 199 255
162 199 255
162 199 255
162 199 255
162 199 255
162 199 255
162 199 255
162 199 255
162 199 255
162 199 255
162 199 255
162 199 255
162 199 255
162 199 255
162 199 255
162 199 255
162 199 255
162 199 255
162 199 255
162 199 255
162 199 255
162 199 255
162 199 255
162 200 255
162 200 255
162 200 255
162 200 255
162 200 255
162 200 255
162 200 255
162 200 255
162 200 255
162 200 255
162 200 255
162 200 255
162 200 255
163 200 255
163 200 255
163 200 255
163 200 255
163 200 255
163 200 255
163 200 255
163 200 255
163 200 255
163 200 255
163 200 255
163 200 255
163 200 255
163 200 255
163 200 255
163 200 255
163 200 255
163 200 255
163 200 255
163 200 255
163 200 255
163 200 255
163 200 255
163 200 255
163 200 255
163 200 255
163 200 255
163 200 255
163 200 255
163 200 255
163 200 255
163 200 255
163 200 255
163 200 255
163 200 255
163 200 255
163 200 255
163 200 255
164 200 255
164 200 255
164 200 255
164 200 255
164 200 255
164 200 255
164 200 255
164 200 255
164 200 255
164 200 255
164 200 255
164 200 255
164 200 255
164 201 255
164 201 255
164 201 255
164 201 255
164 201 255
164 201 255
164 201 255
164 201 255
164 201 255
164 201 255
164 201 255
164 201 255
164 201 255
164 201 255
164 201 255
164 201 255
164 201 255
164 201 255
164 201 255
164 201 255
164 201 255
164 201 255
164 201 255
164 201 255
164 201 255
164 201 255
164 201 255
165 201 255
165 201 255
165 201 255
165 201 255
165 201 255
165 201 255
165 201 255
165 201 255
165 201 255
165 201 255
165 201 255
165 201 255
165 201 255
165 201 255
165 201 255
165 201 255
165 201 255
165 201 255
165 201 255
165 201 255
165 201 255
165 201 255
165 201 255
165 201 255
165 201 255
165 201 255
165 201 255
165 201 255
165 201 255
165 201 255
165 201 255
165 201 255
165 201 255
165 201 255
165 201 255
165 201 255
165 201 255
165 201 255
165 201 255
165 201 255
165 201 255
165 201 255
165 201 255
165 201 255
165 201 255
165 201 255
165 201 255
165 201 255
165 201 255
165 201 255
165 201 255
165 201 255
165 201 255
165 201 255
165 201 255
165 201 255
165 201 255
165 201 255
165 201 255
165 201 255
165 201 255
165 201 255
165 201 255
165 201 255
165 201 255
165 201 255
165 201 255
165 201 255
165 201 255
165 201 255
165 201 255
165 201 255
165 201 255
165 201 255
165 201 255
165 201 255
165 201 255
165 201 255
165 201 255
164 201 255
164 201 255
164 201 255
164 201 255
164 201 255
164 201 255
164 201 255
164 201 255
164 201 255
164 201 255
164 201 255
164 201 255
164 201 255
164 201 255
164 201 255
164 201 255
164 201 255
164 201 255
164 201 255
164 201 255
164 201 255
164 201 255
164 201 255
164 201 255
164 201 255
164 201 255
164 200 255
164 200 255
164 200 255
164 200 255
164 200 255
164 200 255
164 200 255
164 200 255
164 200 255
164 200 255
164 200 255
164 200 255
164 200 255
163 200 255
163 200 255
163 200 255
163 200 255
163 200 255
163 200 255
163 200 255
163 200 255
163 200 255
163 200 255
163 200 255
163 200 255
163 200 255
163 200 255
163 200 255
163 200 255
163 200 255
163 200 255
163 200 255
163 200 255
163 200 255
163 200 255
163 200 255
163 200 255
163 200 255
163 200 255
163 200 255
163 200 255
163 200 255
163 200 255
163 200 255
163 200 255
163 200 255
163 200 255
163 200 255
163 200 255
163 200 255
163 200 255
162 200 255
162 200 255
162 200 255
162 200 255
162 200 255
162 200 255
162 200 255
162 200 255
162 200 255
162 200 255
162 200 255
162 200 255
162 200 255
162 200 255
162 199 255
162 199 255
162 199 255
162 199 255
162 199 255
162 199 255
162 199 255
162 199 255
162 199 255
162 199 255
162 199 255
162 199 255
162 199 255
162 199 255
162 199 255
162 199 255
162 199 255
162 199 255
162 199 255
162 199 255
162 199 255
162 199 255
162 199 255
162 199 255
162 199 255
162 199 255
162 199 255
162 199 255
162 199 255
162 199 255
162 199 255
162 199 255
162 199 255
162 199 255
162 199 255
162 199 255
161 199 255
161 199 255
161 199 255
161 199 255
161 199 255
161 199 255
161 199 255
161 199 255
161 199 255
161 199 255
161 199 255
161 199 255
161 199 255
161 199 255
161 199 255
161 199 255
161 199 255
161 199 255
161 199 255
161 199 255
161 199 255
161 199 255
161 199 255
161 199 255
161 199 255
161 199 255
161 199 255
161 199 255
161 199 255
161 199 255
161 199 255
161 199 255
161 199 255
161 199 255
161 199 255
161 199 255
161 199 255
161 199 255
161 199 255
161 199 255
161 199 255
161 199 255
161 199 255
161 199 255
161 199 255
161 199 255
161 199 255
161 199 255
161 199 255
161 199 255
161 199 255
161 199 255
161 199 255
161 199 255
161 199 255
161 199 255
161 199 255
161 199 255
162 199 255
162 199 255
162 199 255
162 199 255
162 199 255
162 199 255
162 199 255
162 199 255
162 199 255
162 199 255
162 199 255
162 199 255
162 199 255
162 199 255
162 199 255
162 199 255
162 199 255
162 199 255
162 199 255
162 199 255
162 199 255
162 199 255
162 199 255
162 199 255
162 199 255
162 199 255
162 199 255
162 199 255
162 199 255
162 199 255
162 199 255
162 199 255
162 199 255
162 199 255
162 199 255
162 199 255
162 200 255
162 200 255
162 200 255
162 200 255
162 200 255
162 200 255
162 200 255
162 200 255
162 200 255
162 200 255
162 200 255
162 200 255
162 200 255
162 200 255
163 200 255
163 200 255
163 200 255
163 200 255
163 200 255
163 200 255
163 200 255
163 200 255
163 200 255
163 200 255
163 200 255
163 200 255
163 200 255
163 200 255
163 200 255
163 200 255
163 200 255
163 200 255
163 200 255
163 200 255
163 200 255
163 200 255
163 200 255
163 200 255
163 200 255
163 200 255
163 200 255
163 200 255
163 200 255
163 200 255
163 200 255
163 200 255
163 200 255
163 200 255
163 200 255
163 200 255
163 200 255
163 200 255
164 200 255
164 200 255
164 200 255
164 200 255
164 200 255
164 200 255
164 200 255
164 200 255
164 200 255
164 200 255
164 200 255
164 200 255
164 201 255
164 201 255
164 201 255
164 201 255
164 201 255
164 201 255
164 201 255
164 201 255
164 201 255
164 201 255
164 201 255
164 201 255
164 201 255
164 201 255
164 201 255
164 201 255
164 201 255
164 201 255
164 201 255
164 201 255
164 201 255
164 201 255
164 201 255
164 201 255
164 201 255
164 201 255
164 201 255
165 201 255
165 201 255
165 201 255
165 201 255
165 201 255
165 201 255
165 201 255
165 201 255
165 201 255
165 201 255
165 201 255
165 201 255
165 201 255
165 201 255
165 201 255
165 201 255
165 201 255
165 201 255
165 201 255
165 201 255
165 201 255
165 201 255
165 201 255
165 201 255
165 201 255
165 201 255
165 201 255
165 201 255
165 201 255
165 201 255
165 201 255
165 201 255
165 201 255
165 201 255
165 201 255
165 201 255
165 201 255
165 201 255
165 201 255
165 201 255
165 201 255
165 201 255
165 201 255
165 201 255
166 202 255
166 202 255
166 202 255
166 202 255
166 202 255
166 202 255
165 201 255
165 201 255
165 201 255
165 201 255
165 201 255
165 201 255
165 201 255
165 201 255
165 201 255
165 201 255
165 201 255
165 201 255
165 201 255
165 201 255
165 201 255
165 201 255
165 201 255
165 201 255
165 201 255
165 201 255
165 201 255
165 201 255
165 201 255
165 201 255
165 201 255
165 201 255
165 201 255
165 201 255
165 201 255
165 201 255
165 201 255
165 201 255
165 201 255
165 201 255
165 201 255
165 201 255
165 201 255
165 201 255
165 201 255
165 201 255
165 201 255
165 201 255
165 201 255
165 201 255
165 201 255
165 201 255
165 201 255
164 201 255
164 201 255
164 201 255
164 201 255
164 201 255
164 201 255
164 201 255
164 201 255
164 201 255
164 201 255
164 201 255
164 201 255
164 201 255
164 201 255
164 201 255
164 201 255
164 201 255
164 201 255
164 201 255
164 201 255
164 201 255
164 201 255
164 201 255
164 201 255
164 201 255
164 201 255
164 200 255
164 200 255
164 200 255
164 200 255
164 200 255
164 200 255
164 200 255
164 200 255
164 200 255
164 200 255
164 200 255
164 200 255
163 200 255
163 200 255
163 200 255
163 200 255
163 200 255
163 200 255
163 200 255
163 200 255
163 200 255
163 200 255
163 200 255
163 200 255
163 200 255
163 200 255
163 200 255
163 200 255
163 200 255
163 200 255
163 200 255
163 200 255
163 200 255
163 200 255
163 200 255
163 200 255
163 200 255
163 200 255
163 200 255
163 200 255
163 200 255
163 200 255
163 200 255
163 200 255
163 200 255
163 200 255
163 200 255
163 200 255
163 200 255
163 200 255
163 200 255
162 200 255
162 200 255
162 200 255
162 200 255
162 200 255
162 200 255
162 200 255
162 200 255
162 200 255
162 200 255
162 200 255
162 200 255
162 200 255
162 200 255
162 200 255
162 199 255
162 199 255
162 199 255
162 199 255
162 199 255
162 199 255
162 199 255
162 199 255
162 199 255
162 199 255
162 199 255
162 199 255
162 199 255
162 199 255
162 199 255
162 199 255
162 199 255
162 199 255
162 199 255
162 199 255
162 199 255
162 199 255
162 199 255
162 199 255
162 199 255
162 199 255
162 199 255
162 199 255
162 199 255
162 199 255
162 199 255
162 199 255
162 199 255
162 199 255
162 199 255
162 199 255
162 199 255
162 199 255
162 199 255
162 199 255
162 199 255
162 199 255
162 199 255
162 199 255
162 199 255
162 199 255
162 199 255
162 199 255
162 199 255
162 199 255
162 199 255
162 199 255
162 199 255
162 199 255
162 199 255
162 199 255
162 199 255
162 199 255
162 199 255
162 199 255
162 199 255
162 199 255
162 199 255
162 199 255
162 199 255
162 199 255
162 199 255
162 199 255
162 199 255
162 199 255
162 199 255
162 199 255
162 199 255
162 199 255
162 199 255
162 199 255
162 199 255
162 199 255
162 199 255
162 199 255
162 199 255
162 199 255
162 199 255
162 199 255
162 199 255
162 199 255
162 199 255
162 199 255
162 199 255
162 199 255
162 199 255
162 199 255
162 199 255
162 199 255
162 199 255
162 199 255
162 199 255
162 199 255
162 199 255
162 199 255
162 199 255
162 199 255
162 199 255
162 199 255
162 199 255
162 199 255
162 199 255
162 199 255
162 199 255
162 199 255
162 200 255
162 200 255
162 200 255
162 200 255
162 200 255
162 200 255
162 200 255
162 200 255
162 200 255
162 200 255
162 200 255
162 200 255
162 200 255
162 200 255
162 200 255
163 200 255
163 200 255
163 200 255
163 200 255
163 200 255
163 200 255
163 200 255
163 200 255
163 200 255
163 200 255
163 200 255
163 200 255
163 200 255
163 200 255
163 200 255
163 200 255
163 200 255
163 200 255
163 200 255
163 200 255
163 200 255
163 200 255
163 200 255
163 200 255
163 200 255
163 200 255
163 200 255
163 200 255
163 200 255
163 200 255
163 200 255
163 200 255
163 200 255
163 200 255
163 200 255
163 200 255
163 200 255
163 200 255
163 200 255
164 200 255
164 200 255
164 200 255
164 200 255
164 200 255
164 200 255
164 200 255
164 200 255
164 200 255
164 200 255
164 200 255
164 200 255
164 201 255
164 201 255
164 201 255
164 201 255
164 201 255
164 201 255
164 201 255
164 201 255
164 201 255
164 201 255
164 201 255
164 201 255
164 201 255
164 201 255
164 201 255
164 201 255
164 201 255
164 201 255
164 201 255
164 201 255
164 201 255
164 201 255
164 201 255
164 201 255
164 201 255
164 201 255
165 201 255
165 201 255
165 201 255
165 201 255
165 201 255
165 201 255
165 201 255
165 201 255
165 201 255
165 201 255
165 201 255
165 201 255
165 201 255
165 201 255
165 201 255
165 201 255
165 201 255
165 201 255
165 201 255
165 201 255
165 201 255
165 201 255
165 201 255
165 201 255
165 201 255
165 201 255
165 201 255
165 201 255
165 201 255
165 201 255
165 201 255
165 201 255
165 201 255
165 201 255
165 201 255
165 201 255
165 201 255
165 201 255
165 201 255
165 201 255
165 201 255
165 201 255
165 201 255
165 201 255
165 201 255
165 201 255
165 201 255
166 202 255
166 202 255
166 202 255
166 202 255
166 202 255
166 202 255
166 202 255
166 202 255
166 202 255
166 202 255
166 202 255
166 202 255
166 202 255
166 202 255
166 202 255
166 202 255
166 202 255
166 202 255
166 202 255
166 202 255
166 202 255
166 202 255
166 202 255
165 201 255
165 201 255
165 201 255
165 201 255
165 201 255
165 201 255
165 201 255
165 201 255
165 201 255
165 201 255
165 201 255
165 201 255
165 201 255
165 201 255
165 201 255
165 201 255
165 201 255
165 201 255
165 201 255
165 201 255
165 201 255
165 201 255
165 201 255
165 201 255
165 201 255
165 201 255
165 201 255
165 201 255
165 201 255
165 201 255
165 201 255
165 201 255
165 201 255
165 201 255
165 201 255
165 201 255
165 201 255
165 201 255
165 201 255
165 201 255
165 201 255
165 201 255
165 201 255
165 201 255
165 201 255
164 201 255
164 201 255
164 201 255
164 201 255
164 201 255
164 201 255
164 201 255
164 201 255
164 201 255
164 201 255
164 201 255
164 201 255
164 201 255
164 201 255
164 201 255
164 201 255
164 201 255
164 201 255
164 201 255
164 201 255
164 201 255
164 201 255
164 201 255
164 201 255
164 201 255
164 200 255
164 200 255
164 200 255
164 200 255
164 200 255
164 200 255
164 200 255
164 200 255
164 200 255
164 200 255
164 200 255
164 200 255
164 200 255
163 200 255
163 200 255
163 200 255
163 200 255
163 200 255
163 200 255
163 200 255
163 200 255
163 200 255
163 200 255
163 200 255
163 200 255
163 200 255
163 200 255
163 200 255
163 200 255
163 200 255
163 200 255
163 200 255
163 200 255
163 200 255
163 200 255
163 200 255
163 200 255
163 200 255
163 200 255
163 200 255
163 200 255
163 200 255
163 200 255
163 200 255
163 200 255
163 200 255
163 200 255
163 200 255
163 200 255
163 200 255
163 200 255
163 200 255
162 200 255
162 200 255
162 200 255
162 200 255
162 200 255
162 200 255
162 200 255
162 200 255
162 200 255
162 200 255
162 200 255
162 200 255
162 200 255
162 200 255
162 200 255
162 200 255
162 200 255
162 199 255
162 199 255
162 199 255
162 199 255
162 199 255
162 199 255
162 199 255
162 199 255
162 199 255
162 199 255
162 199 255
162 199 255
162 199 255
162 199 255
162 199 255
162 199 255
162 199 255
162 199 255
162 199 255
162 199 255
162 199 255
162 199 255
162 199 255
162 199 255
162 199 255
162 199 255
162 199 255
162 199 255
162 199 255
162 199 255
162 199 255
162 199 255
162 199 255
162 199 255
162 199 255
162 199 255
162 199 255
162 199 255
162 199 255
162 199 255
162 199 255
162 199 255
162 199 255
162 199 255
162 199 255
162 199 255
162 199 255
162 199 255
162 199 255
162 199 255
162 199 255
162 199 255
162 199 255
162 199 255
162 199 255
162 199 255
162 199 255
162 199 255
162 199 255
162 199 255
162 199 255
162 199 255
162 199 255
162 199 255
162 199 255
162 199 255
162 199 255
162 199 255
162 199 255
162 199 255
162 199 255
162 199 255
162 199 255
162 199 255
162 199 255
162 199 255
162 199 255
162 199 255
162 199 255
162 199 255
162 199 255
162 199 255
162 199 255
162 199 255
162 199 255
162 199 255
162 199 255
162 199 255
162 200 255
162 200 255
162 200 255
162 200 255
162 200 255
162 200 255
162 200 255
162 200 255
162 200 255
162 200 255
162 200 255
162 200 255
162 200 255
162 200 255
162 200 255
162 200 255
163 200 255
163 200 255
163 200 255
163 200 255
163 200 255
163 200 255
163 200 255
163 200 255
163 200 255
163 200 255
163 200 255
163 200 255
163 200 255
163 200 255
163 200 255
163 200 255
163 200 255
163 200 255
163 200 255
163 200 255
163 200 255
163 200 255
163 200 255
163 200 255
163 200 255
163 200 255
163 200 255
163 200 255
163 200 255
163 200 255
163 200 255
163 200 255
163 200 255
163 200 255
163 200 255
163 200 255
163 200 255
163 200 255
163 200 255
163 200 255
164 200 255
164 200 255
164 200 255
164 200 255
164 200 255
164 200 255
164 200 255
164 200 255
164 200 255
164 200 255
164 200 255
164 200 255
164 200 255
164 201 255
164 201 255
164 201 255
164 201 255
164 201 255
164 201 255
164 201 255
164 201 255
164 201 255
164 201 255
164 201 255
164 201 255
164 201 255
164 201 255
164 201 255
164 201 255
164 201 255
164 201 255
164 201 255
164 201 255
164 201 255
164 201 255
164 201 255
164 201 255
164 201 255
164 201 255
165 201 255
165 201 255
165 201 255
165 201 255
165 201 255
165 201 255
165 201 255
165 201 255
165 201 255
165 201 255
165 201 255
165 201 255
165 201 255
165 201 255
165 201 255
165 201 255
165 201 255
165 201 255
165 201 255
165 201 255
165 201 255
165 201 255
165 201 255
165 201 255
165 201 255
165 201 255
165 201 255
165 201 255
165 201 255
165 201 255
165 201 255
165 201 255
165 201 255
165 201 255
165 201 255
165 201 255
165 201 255
165 201 255
165 201 255
165 201 255
165 201 255
165 201 255
165 201 255
166 201 255
166 202 255
166 202 255
166 202 255
166 202 255
166 202 255
166 202 255
166 202 255
166 202 255
166 202 255
166 202 255
166 202 255
166 202 255
166 202 255
166 202 255
166 202 255
166 202 255
166 202 255
166 202 255
166 202 255
166 202 255
166 202 255
166 202 255
166 202 255
166 202 255
166 202 255
166 202 255
166 202 255
166 202 255
166 202 255
166 202 255
166 202 255
166 202 255
166 202 255
166 202 255
166 202 255
166 202 255
166 202 255
166 202 255
166 202 255
166 202 255
166 202 255
166 202 255
166 202 255
166 202 255
166 202 255
165 201 255
165 201 255
165 201 255
165 201 255
165 201 255
165 201 255
165 201 255
165 201 255
165 201 255
165 201 255
165 201 255
165 201 255
165 201 255
165 201 255
165 201 255
165 201 255
165 201 255
165 201 255
165 201 255
165 201 255
165 201 255
165 201 255
165 201 255
165 201 255
165 201 255
165 201 255
165 201 255
165 201 255
165 201 255
165 201 255
165 201 255
165 201 255
165 201 255
165 201 255
165 201 255
165 201 255
165 201 255
165 201 255
165 201 255
165 201 255
165 201 255
165 201 255
164 201 255
164 201 255
164 201 255
164 201 255
164 201 255
164 201 255
164 201 255
164 201 255
164 201 255
164 201 255
164 201 255
164 201 255
164 201 255
164 201 255
164 201 255
164 201 255
164 201 255
164 201 255
164 201 255
164 201 255
164 201 255
164 201 255
164 201 255
164 201 255
164 201 255
164 201 255
164 200 255
164 200 255
164 200 255
164 200 255
164 200 255
164 200 255
164 200 255
164 200 255
164 200 255
164 200 255
164 200 255
164 200 255
163 200 255
163 200 255
163 200 255
163 200 255
163 200 255
163 200 255
163 200 255
163 200 255
163 200 255
163 200 255
163 200 255
163 200 255
163 200 255
163 200 255
163 200 255
163 200 255
163 200 255
163 200 255
163 200 255
163 200 255
163 200 255
163 200 255
163 200 255
163 200 255
163 200 255
163 200 255
163 200 255
163 200 255
163 200 255
163 200 255
163 200 255
163 200 255
163 200 255
163 200 255
163 200 255
163 200 255
163 200 255
163 200 255
163 200 255
163 200 255
163 200 255
163 200 255
162 200 255
162 200 255
162 200 255
162 200 255
162 200 255
162 200 255
162 200 255
162 200 255
162 200 255
162 200 255
162 200 255
162 200 255
162 200 255
162 200 255
162 200 255
162 200 255
162 200 255
162 200 255
162 200 255
162 200 255
162 200 255
162 199 255
162 199 255
162 199 255
162 199 255
162 199 255
162 199 255
162 199 255
162 199 255
162 199 255
162 199 255
162 199 255
162 199 255
162 199 255
162 199 255
162 199 255
162 199 255
162 199 255
162 199 255
162 199 255
162 199 255
162 199 255
162 199 255
162 199 255
162 199 255
162 199 255
162 199 255
162 199 255
162 199 255
162 199 255
162 199 255
162 199 255
162 199 255
162 199 255
162 199 255
162 199 255
162 199 255
162 199 255
162 199 255
162 199 255
162 199 255
162 199 255
162 199 255
162 199 255
162 199 255
162 199 255
162 199 255
162 199 255
162 199 255
162 199 255
162 199 255
162 199 255
162 199 255
162 199 255
162 199 255
162 199 255
162 199 255
162 199 255
162 199 255
162 199 255
162 200 255
162 200 255
162 200 255
162 200 255
162 200 255
162 200 255
162 200 255
162 200 255
162 200 255
162 200 255
162 200 255
162 200 255
162 200 255
162 200 255
162 200 255
162 200 255
162 200 255
162 200 255
162 200 255
163 200 255
163 200 255
163 200 255
163 200 255
163 200 255
163 200 255
163 200 255
163 200 255
163 200 255
163 200 255
163 200 255
163 200 255
163 200 255
163 200 255
163 200 255
163 200 255
163 200 255
163 200 255
163 200 255
163 200 255
163 200 255
163 200 255
163 200 255
163 200 255
163 200 255
163 200 255
163 200 255
163 200 255
163 200 255
163 200 255
163 200 255
163 200 255
163 200 255
163 200 255
163 200 255
163 200 255
163 200 255
163 200 255
163 200 255
163 200 255
163 200 255
163 200 255
163 200 255
164 200 255
164 200 255
164 200 255
164 200 255
164 200 255
164 200 255
164 200 255
164 200 255
164 200 255
164 200 255
164 200 255
164 200 255
164 200 255
164 201 255
164 201 255
164 201 255
164 201 255
164 201 255
164 201 255
164 201 255
164 201 255
164 201 255
164 201 255
164 201 255
164 201 255
164 201 255
164 201 255
164 201 255
164 201 255
164 201 255
164 201 255
164 201 255
164 201 255
164 201 255
164 201 255
164 201 255
164 201 255
164 201 255
165 201 255
165 201 255
165 201 255
165 201 255
165 201 255
165 201 255
165 201 255
165 201 255
165 201 255
165 201 255
165 201 255
165 201 255
165 201 255
165 201 255
165 201 255
165 201 255
165 201 255
165 201 255
165 201 255
165 201 255
165 201 255
165 201 255
165 201 255
165 201 255
165 201 255
165 201 255
165 201 255
165 201 255
165 201 255
165 201 255
165 201 255
165 201 255
165 201 255
165 201 255
165 201 255
165 201 255
165 201 255
165 201 255
165 201 255
165 201 255
165 201 255
165 201 255
166 202 255
166 202 255
166 202 255
166 202 255
166 202 255
166 202 255
166 202 255
166 202 255
166 202 255
166 202 255
166 202 255
166 202 255
166 202 255
166 202 255
166 202 255
166 202 255
166 202 255
166 202 255
166 202 255
166 202 255
166 202 255
166 202 255
166 202 255
166 202 255
166 202 255
166 202 255
166 202 255
166 202 255
166 202 255
166 202 255
166 202 255
166 202 255
166 202 255
166 202 255
166 202 255
166 202 255
166 202 255
166 202 255
166 202 255
166 202 255
166 202 255
166 202 255
166 202 255
166 202 255
166 202 255
166 202 255
166 202 255
166 202 255
166 202 255
166 202 255
166 202 255
166 202 255
166 202 255
166 202 255
166 202 255
166 202 255
166 202 255
166 202 255
166 202 255
166 202 255
166 202 255
166 202 255
166 202 255
166 202 255
166 202 255
166 202 255
165 201 255
165 201 255
165 201 255
165 201 255
165 201 255
165 201 255
165 201 255
165 201 255
165 201 255
165 201 255
165 201 255
165 201 255
165 201 255
165 201 255
165 201 255
165 201 255
165 201 255
165 201 255
165 201 255
165 201 255
165 201 255
165 201 255
165 201 255
165 201 255
165 201 255
165 201 255
165 201 255
165 201 255
165 201 255
165 201 255
165 201 255
165 201 255
165 201 255
165 201 255
165 201 255
165 201 255
165 201 255
165 201 255
165 201 255
165 201 255
165 201 255
164 201 255
164 201 255
164 201 255
164 201 255
164 201 255
164 201 255
164 201 255
164 201 255
164 201 255
164 201 255
164 201 255
164 201 255
164 201 255
164 201 255
164 201 255
164 201 255
164 201 255
164 201 255
164 201 255
164 201 255
164 201 255
164 201 255
164 201 255
164 201 255
164 201 255
164 200 255
164 200 255
164 200 255
164 200 255
164 200 255
164 200 255
164 200 255
164 200 255
164 200 255
164 200 255
164 200 255
164 200 255
164 200 255
163 200 255
163 200 255
163 200 255
163 200 255
163 200 255
163 200 255
163 200 255
163 200 255
163 200 255
163 200 255
163 200 255
163 200 255
163 200 255
163 200 255
163 200 255
163 200 255
163 200 255
163 200 255
163 200 255
163 200 255
163 200 255
163 200 255
163 200 255
163 200 255
163 200 255
163 200 255
163 200 255
163 200 255
163 200 255
163 200 255
163 200 255
163 200 255
163 200 255
163 200 255
163 200 255
163 200 255
163 200 255
163 200 255
163 200 255
163 200 255
163 200 255
163 200 255
163 200 255
163 200 255
163 200 255
163 200 255
162 200 255
162 200 255
162 200 255
162 200 255
162 200 255
162 200 255
162 200 255
162 200 255
162 200 255
162 200 255
162 200 255
162 200 255
162 200 255
162 200 255
162 200 255
162 200 255
162 200 255
162 200 255
162 200 255
162 200 255
162 200 255
162 200 255
162 200 255
162 200 255
162 200 255
162 200 255
162 200 255
162 200 255
162 200 255
162 200 255
162 200 255
162 200 255
162 200 255
162 200 255
162 200 255
162 200 255
162 200 255
162 200 255
162 200 255
162 200 255
162 200 255
162 200 255
162 200 255
162 200 255
162 200 255
162 200 255
162 200 255
162 200 255
162 200 255
162 200 255
162 200 255
162 200 255
162 200 255
162 200 255
162 200 255
162 200 255
162 200 255
162 200 255
162 200 255
162 200 255
162 200 255
162 200 255
162 200 255
162 200 255
162 200 255
162 200 255
162 200 255
162 200 255
162 200 255
162 200 255
162 200 255
162 200 255
162 200 255
162 200 255
163 200 255
163 200 255
163 200 255
163 200 255
163 200 255
163 200 255
163 200 255
163 200 255
163 200 255
163 200 255
163 200 255
163 200 255
163 200 255
163 200 255
163 200 255
163 200 255
163 200 255
163 200 255
163 200 255
163 200 255
163 200 255
163 200 255
163 200 255
163 200 255
163 200 255
163 200 255
163 200 255
163 200 255
163 200 255
163 200 255
163 200 255
163 200 255
163 200 255
163 200 255
163 200 255
163 200 255
163 200 255
163 200 255
163 200 255
163 200 255
163 200 255
163 200 255
163 200 255
163 200 255
163 200 255
163 200 255
164 200 255
164 200 255
164 200 255
164 200 255
164 200 255
164 200 255
164 200 255
164 200 255
164 200 255
164 200 255
164 200 255
164 200 255
164 200 255
164 201 255
164 201 255
164 201 255
164 201 255
164 201 255
164 201 255
164 201 255
164 201 255
164 201 255
164 201 255
164 201 255
164 201 255
164 201 255
164 201 255
164 201 255
164 201 255
164 201 255
164 201 255
164 201 255
164 201 255
164 201 255
164 201 255
164 201 255
164 201 255
164 201 255
165 201 255
165 201 255
165 201 255
165 201 255
165 201 255
165 201 255
165 201 255
165 201 255
165 201 255
165 201 255
165 201 255
165 201 255
165 201 255
165 201 255
165 201 255
165 201 255
165 201 255
165 201 255
165 201 255
165 201 255
165 201 255
165 201 255
165 201 255
165 201 255
165 201 255
165 201 255
165 201 255
165 201 255
165 201 255
165 201 255
165 201 255
165 201 255
165 201 255
165 201 255
165 201 255
165 201 255
165 201 255
165 201 255
165 201 255
165 201 255
165 201 255
166 202 255
166 202 255
166 202 255
166 202 255
166 202 255
166 202 255
166 202 255
166 202 255
166 202 255
166 202 255
166 202 255
166 202 255
166 202 255
166 202 255
166 202 255
166 202 255
166 202 255
166 202 255
166 202 255
166 202 255
166 202 255
166 202 255
166 202 255
166 202 255
166 202 255
166 202 255
166 202 255
166 202 255
166 202 255
166 202 255
166 202 255
166 202 255
166 202 255
166 202 255
166 202 255
166 202 255
166 202 255
166 202 255
166 202 255
166 202 255
166 202 255
166 202 255
166 202 255
166 202 255
166 202 255
166 202 255
166 202 255
166 202 255
166 202 255
166 202 255
166 202 255
166 202 255
166 202 255
166 202 255
166 202 255
166 202 255
166 202 255
166 202 255
166 202 255
166 202 255
166 202 255
166 202 255
166 202 255
166 202 255
166 202 255
166 202 255
166 202 255
166 202 255
166 202 255
166 202 255
166 202 255
166 202 255
166 202 255
166 202 255
166 202 255
166 202 255
166 202 255
166 202 255
166 202 255
166 202 255
166 202 255
166 202 255
166 202 255
166 202 255
166 202 255
165 201 255
165 201 255
165 201 255
165 201 255
165 201 255
165 201 255
165 201 255
165 201 255
165 201 255
165 201 255
165 201 255
165 201 255
165 201 255
165 201 255
165 201 255
165 201 255
165 201 255
165 201 255
165 201 255
165 201 255
165 201 255
165 201 255
165 201 255
165 201 255
165 201 255
165 201 255
165 201 255
165 201 255
165 201 255
165 201 255
165 201 255
165 201 255
165 201 255
165 201 255
165 201 255
165 201 255
165 201 255
165 201 255
165 201 255
165 201 255
164 201 255
164 201 255
164 201 255
164 201 255
164 201 255
164 201 255
164 201 255
164 201 255
164 201 255
164 201 255
164 201 255
164 201 255
164 201 255
164 201 255
164 201 255
164 201 255
164 201 255
164 201 255
164 201 255
164 201 255
164 201 255
164 201 255
164 201 255
164 201 255
164 201 255
164 201 255
164 200 255
164 200 255
164 200 255
164 200 255
164 200 255
164 200 255
164 200 255
164 200 255
164 200 255
164 200 255
164 200 255
164 200 255
164 200 255
163 200 255
163 200 255
163 200 255
163 200 255
163 200 255
163 200 255
163 200 255
163 200 255
163 200 255
163 200 255
163 200 255
163 200 255
163 200 255
163 200 255
163 200 255
163 200 255
163 200 255
163 200 255
163 200 255
163 200 255
163 200 255
163 200 255
163 200 255
163 200 255
163 200 255
163 200 255
163 200 255
163 200 255
163 200 255
163 200 255
163 200 255
163 200 255
163 200 255
163 200 255
163 200 255
163 200 255
163 200 255
163 200 255
163 200 255
163 200 255
163 200 255
163 200 255
163 200 255
163 200 255
163 200 255
163 200 255
163 200 255
163 200 255
163 200 255
163 200 255
163 200 255
163 200 255
163 200 255
163 200 255
163 200 255
163 200 255
162 200 255
162 200 255
162 200 255
162 200 255
162 200 255
162 200 255
162 200 255
162 200 255
162 200 255
162 200 255
162 200 255
162 200 255
162 200 255
162 200 255
162 200 255
162 200 255
162 200 255
162 200 255
162 200 255
162 200 255
162 200 255
162 200 255
162 200 255
162 200 255
162 200 255
162 200 255
162 200 255
162 200 255
162 200 255
162 200 255
162 200 255
162 200 255
162 200 255
162 200 255
162 200 255
162 200 255
162 200 255
163 200 255
163 200 255
163 200 255
163 200 255
163 200 255
163 200 255
163 200 255
163 200 255
163 200 255
163 200 255
163 200 255
163 200 255
163 200 255
163 200 255
163 200 255
163 200 255
163 200 255
163 200 255
163 200 255
163 200 255
163 200 255
163 200 255
163 200 255
163 200 255
163 200 255
163 200 255
163 200 255
163 200 255
163 200 255
163 200 255
163 200 255
163 200 255
163 200 255
163 200 255
163 200 255
163 200 255
163 200 255
163 200 255
163 200 255
163 200 255
163 200 255
163 200 255
163 200 255
163 200 255
163 200 255
163 200 255
163 200 255
163 200 255
163 200 255
163 200 255
163 200 255
163 200 255
163 200 255
163 200 255
163 200 255
164 200 255
164 200 255
164 200 255
164 200 255
164 200 255
164 200 255
164 200 255
164 200 255
164 200 255
164 200 255
164 200 255
164 200 255
164 200 255
164 200 255
164 201 255
164 201 255
164 201 255
164 201 255
164 201 255
164 201 255
164 201 255
164 201 255
164 201 255
164 201 255
164 201 255
164 201 255
164 201 255
164 201 255
164 201 255
164 201 255
164 201 255
164 201 255
164 201 255
164 201 255
164 201 255
164 201 255
164 201 255
164 201 255
164 201 255
165 201 255
165 201 255
165 201 255
165 201 255
165 201 255
165 201 255
165 201 255
165 201 255
165 201 255
165 201 255
165 201 255
165 201 255
165 201 255
165 201 255
165 201 255
165 201 255
165 201 255
165 201 255
165 201 255
165 201 255
165 201 255
165 201 255
165 201 255
165 201 255
165 201 255
165 201 255
165 201 255
165 201 255
165 201 255
165 201 255
165 201 255
165 201 255
165 201 255
165 201 255
165 201 255
165 201 255
165 201 255
165 201 255
165 201 255
165 201 255
166 202 255
166 202 255
166 202 255
166 202 255
166 202 255
166 202 255
166 202 255
166 202 255
166 202 255
166 202 255
166 202 255
166 202 255
166 202 255
166 202 255
166 202 255
166 202 255
166 202 255
166 202 255
166 202 255
166 202 255
166 202 255
166 202 255
166 202 255
166 202 255
166 202 255
166 202 255
166 202 255
166 202 255
166 202 255
166 202 255
166 202 255
166 202 255
166 202 255
166 202 255
166 202 255
166 202 255
166 202 255
166 202 255
166 202 255
166 202 255
166 202 255
166 202 255
166 202 255
166 202 255
166 202 255
166 202 255
166 202 255
167 202 255
167 202 255
167 202 255
167 202 255
167 202 255
167 202 255
167 202 255
167 202 255
167 202 255
167 202 255
166 202 255
166 202 255
166 202 255
166 202 255
166 202 255
166 202 255
166 202 255
166 202 255
166 202 255
166 202 255
166 202 255
166 202 255
166 202 255
166 202 255
166 202 255
166 202 255
166 202 255
166 202 255
166 202 255
166 202 255
166 202 255
166 202 255
166 202 255
166 202 255
166 202 255
166 202 255
166 202 255
166 202 255
166 202 255
166 202 255
166 202 255
166 202 255
166 202 255
166 202 255
166 202 255
166 202 255
166 202 255
166 202 255
166 202 255
166 202 255
166 202 255
166 202 255
166 202 255
166 202 255
166 202 255
166 202 255
166 202 255
165 201 255
165 201 255
165 201 255
165 201 255
165 201 255
165 201 255
165 201 255
165 201 255
165 201 255
165 201 255
165 201 255
165 201 255
165 201 255
165 201 255
165 201 255
165 201 255
165 201 255
165 201 255
165 201 255
165 201 255
165 201 255
165 201 255
165 201 255
165 201 255
165 201 255
165 201 255
165 201 255
165 201 255
165 201 255
165 201 255
165 201 255
165 201 255
165 201 255
165 201 255
165 201 255
165 201 255
165 201 255
165 201 255
165 201 255
164 201 255
164 201 255
164 201 255
164 201 255
164 201 255
164 201 255
164 201 255
164 201 255
164 201 255
164 201 255
164 201 255
164 201 255
164 201 255
164 201 255
164 201 255
164 201 255
164 201 255
164 201 255
164 201 255
164 201 255
164 201 255
164 201 255
164 201 255
164 201 255
164 201 255
164 200 255
164 200 255
164 200 255
164 200 255
164 200 255
164 200 255
164 200 255
164 200 255
164 200 255
164 200 255
164 200 255
164 200 255
164 200 255
164 200 255
163 200 255
163 200 255
163 200 255
163 200 255
163 200 255
163 200 255
163 200 255
163 200 255
163 200 255
163 200 255
163 200 255
163 200 255
163 200 255
163 200 255
163 200 255
163 200 255
163 200 255
163 200 255
163 200 255
163 200 255
163 200 255
163 200 255
163 200 255
163 200 255
163 200 255
163 200 255
163 200 255
163 200 255
163 200 255
163 200 255
163 200 255
163 200 255
163 200 255
163 200 255
163 200 255
163 200 255
163 200 255
163 200 255
163 200 255
163 200 255
163 200 255
163 200 255
163 200 255
163 200 255
163 200 255
163 200 255
163 200 255
163 200 255
163 200 255
163 200 255
163 200 255
163 200 255
163 200 255
163 200 255
163 200 255
163 200 255
163 200 255
163 200 255
163 200 255
163 200 255
163 200 255
163 200 255
163 200 255
163 200 255
163 200 255
163 200 255
163 200 255
163 200 255
163 200 255
163 200 255
163 200 255
163 200 255
163 200 255
163 200 255
163 200 255
163 200 255
163 200 255
163 200 255
163 200 255
163 200 255
163 200 255
163 200 255
163 200 255
163 200 255
163 200 255
163 200 255
163 200 255
163 200 255
163 200 255
163 200 255
163 200 255
163 200 255
163 200 255
163 200 255
163 200 255
163 200 255
163 200 255
163 200 255
163 200 255
163 200 255
163 200 255
163 200 255
163 200 255
163 200 255
163 200 255
163 200 255
163 200 255
163 200 255
163 200 255
163 200 255
163 200 255
163 200 255
163 200 255
163 200 255
163 200 255
163 200 255
163 200 255
163 200 255
163 200 255
163 200 255
163 200 255
163 200 255
163 200 255
163 200 255
163 200 255
163 200 255
163 200 255
163 200 255
163 200 255
163 200 255
164 200 255
164 200 255
164 200 255
164 200 255
164 200 255
164 200 255
164 200 255
164 200 255
164 200 255
164 200 255
164 200 255
164 200 255
164 200 255
164 200 255
164 201 255
164 201 255
164 201 255
164 201 255
164 201 255
164 201 255
164 201 255
164 201 255
164 201 255
164 201 255
164 201 255
164 201 255
164 201 255
164 201 255
164 201 255
164 201 255
164 201 255
164 201 255
164 201 255
164 201 255
164 201 255
164 201 255
164 201 255
164 201 255
164 201 255
165 201 255
165 201 255
165 201 255
165 201 255
165 201 255
165 201 255
165 201 255
165 201 255
165 201 255
165 201 255
165 201 255
165 201 255
165 201 255
165 201 255
165 201 255
165 201 255
165 201 255
165 201 255
165 201 255
165 201 255
165 201 255
165 201 255
165 201 255
165 201 255
165 201 255
165 201 255
165 201 255
165 201 255
165 201 255
165 201 255
165 201 255
165 201 255
165 201 255
165 201 255
165 201 255
165 201 255
165 201 255
165 201 255
165 201 255
166 202 255
166 202 255
166 202 255
166 202 255
166 202 255
166 202 255
166 202 255
166 202 255
166 202 255
166 202 255
166 202 255
166 202 255
166 202 255
166 202 255
166 202 255
166 202 255
166 202 255
166 202 255
166 202 255
166 202 255
166 202 255
166 202 255
166 202 255
166 202 255
166 202 255
166 202 255
166 202 255
166 202 255
166 202 255
166 202 255
166 202 255
166 202 255
166 202 255
166 202 255
166 202 255
166 202 255
166 202 255
166 202 255
166 202 255
166 202 255
166 202 255
166 202 255
166 202 255
166 202 255
166 202 255
166 202 255
167 202 255
167 202 255
167 202 255
167 202 255
167 202 255
167 202 255
167 202 255
167 202 255
167 202 255
167 202 255
167 202 255
167 202 255
167 202 255
167 202 255
167 202 255
167 202 255
167 202 255
167 202 255
167 202 255
167 202 255
167 202 255
167 202 255
167 202 255
167 202 255
167 202 255
167 202 255
167 202 255
167 202 255
167 202 255
167 202 255
167 202 255
167 202 255
167 202 255
166 202 255
166 202 255
166 202 255
166 202 255
166 202 255
166 202 255
166 202 255
166 202 255
166 202 255
166 202 255
166 202 255
166 202 255
166 202 255
166 202 255
166 202 255
166 202 255
166 202 255
166 202 255
166 202 255
166 202 255
166 202 255
166 202 255
166 202 255
166 202 255
166 202 255
166 202 255
166 202 255
166 202 255
166 202 255
166 202 255
166 202 255
166 202 255
166 202 255
166 202 255
166 202 255
166 202 255
166 202 255
166 202 255
166 202 255
166 202 255
166 202 255
166 202 255
166 202 255
166 202 255
165 201 255
165 201 255
165 201 255
165 201 255
165 201 255
165 201 255
165 201 255
165 201 255
165 201 255
165 201 255
165 201 255
165 201 255
165 201 255
165 201 255
165 201 255
165 201 255
165 201 255
165 201 255
165 201 255
165 201 255
165 201 255
165 201 255
165 201 255
165 201 255
165 201 255
165 201 255
165 201 255
165 201 255
165 201 255
165 201 255
165 201 255
165 201 255
165 201 255
165 201 255
165 201 255
165 201 255
165 201 255
165 201 255
164 201 255
164 201 255
164 201 255
164 201 255
164 201 255
164 201 255
164 201 255
164 201 255
164 201 255
164 201 255
164 201 255
164 201 255
164 201 255
164 201 255
164 201 255
164 201 255
164 201 255
164 201 255
164 201 255
164 201 255
164 201 255
164 201 255
164 201 255
164 201 255
164 201 255
164 201 255
164 201 255
164 200 255
164 200 255
164 200 255
164 200 255
164 200 255
164 200 255
164 200 255
164 200 255
164 200 255
164 200 255
164 200 255
164 200 255
164 200 255
164 200 255
163 200 255
163 200 255
163 200 255
163 200 255
163 200 255
163 200 255
163 200 255
163 200 255
163 200 255
163 200 255
163 200 255
163 200 255
163 200 255
163 200 255
163 200 255
163 200 255
163 200 255
163 200 255
163 200 255
163 200 255
163 200 255
163 200 255
163 200 255
163 200 255
163 200 255
163 200 255
163 200 255
163 200 255
163 200 255
163 200 255
163 200 255
163 200 255
163 200 255
163 200 255
163 200 255
163 200 255
163 200 255
163 200 255
163 200 255
163 200 255
163 200 255
163 200 255
163 200 255
163 200 255
163 200 255
163 200 255
163 200 255
163 200 255
163 200 255
163 200 255
163 200 255
163 200 255
163 200 255
163 200 255
163 200 255
163 200 255
163 200 255
163 200 255
163 200 255
163 200 255
163 200 255
163 200 255
163 200 255
163 200 255
163 200 255
163 200 255
163 200 255
163 200 255
163 200 255
163 200 255
163 200 255
163 200 255
163 200 255
163 200 255
163 200 255
163 200 255
163 200 255
163 200 255
163 200 255
163 200 255
163 200 255
163 200 255
163 200 255
163 200 255
163 200 255
163 200 255
163 200 255
163 200 255
163 200 255
163 200 255
163 200 255
163 200 255
163 200 255
163 200 255
163 200 255
163 200 255
163 200 255
163 200 255
163 200 255
163 200 255
163 200 255
163 200 255
163 200 255
163 200 255
163 200 255
163 200 255
163 200 255
163 200 255
163 200 255
163 200 255
164 200 255
164 200 255
164 200 255
164 200 255
164 200 255
164 200 255
164 200 255
164 200 255
164 200 255
164 200 255
164 200 255
164 200 255
164 200 255
164 200 255
164 201 255
164 201 255
164 201 255
164 201 255
164 201 255
164 201 255
164 201 255
164 201 255
164 201 255
164 201 255
164 201 255
164 201 255
164 201 255
164 201 255
164 201 255
164 201 255
164 201 255
164 201 255
164 201 255
164 201 255
164 201 255
164 201 255
164 201 255
164 201 255
164 201 255
164 201 255
164 201 255
165 201 255
165 201 255
165 201 255
165 201 255
165 201 255
165 201 255
165 201 255
165 201 255
165 201 255
165 201 255
165 201 255
165 201 255
165 201 255
165 201 255
165 201 255
165 201 255
165 201 255
165 201 255
165 201 255
165 201 255
165 201 255
165 201 255
165 201 255
165 201 255
165 201 255
165 201 255
165 201 255
165 201 255
165 201 255
165 201 255
165 201 255
165 201 255
165 201 255
165 201 255
165 201 255
165 201 255
165 201 255
165 201 255
166 202 255
166 202 255
166 202 255
166 202 255
166 202 255
166 202 255
166 202 255
166 202 255
166 202 255
166 202 255
166 202 255
166 202 255
166 202 255
166 202 255
166 202 255
166 202 255
166 202 255
166 202 255
166 202 255
166 202 255
166 202 255
166 202 255
166 202 255
166 202 255
166 202 255
166 202 255
166 202 255
166 202 255
166 202 255
166 202 255
166 202 255
166 202 255
166 202 255
166 202 255
166 202 255
166 202 255
166 202 255
166 202 255
166 202 255
166 202 255
166 202 255
166 202 255
166 202 255
166 202 255
166 202 255
167 202 255
167 202 255
167 202 255
167 202 255
167 202 255
167 202 255
167 202 255
167 202 255
167 202 255
167 202 255
167 202 255
167 202 255
167 202 255
167 202 255
167 202 255
167 202 255
167 202 255
167 202 255
167 202 255
167 202 255
167 202 255
167 202 255
167 202 255
167 202 255
167 202 255
167 202 255
167 202 255
167 202 255
167 202 255
167 202 255
167 202 255
167 202 255
167 202 255
167 202 255
167 202 255
167 202 255
167 202 255
167 202 255
167 202 255
167 202 255
167 202 255
167 202 255
167 202 255
167 202 255
167 202 255
167 202 255
167 202 255
167 202 255
167 202 255
167 202 255
167 202 255
167 202 255
167 202 255
166 202 255
166 202 255
166 202 255
166 202 255
166 202 255
166 202 255
166 202 255
166 202 255
166 202 255
166 202 255
166 202 255
166 202 255
166 202 255
166 202 255
166 202 255
166 202 255
166 202 255
166 202 255
166 202 255
166 202 255
166 202 255
166 202 255
166 202 255
166 202 255
166 202 255
166 202 255
166 202 255
166 202 255
166 202 255
166 202 255
166 202 255
166 202 255
166 202 255
166 202 255
166 202 255
166 202 255
166 202 255
166 202 255
166 202 255
166 202 255
166 202 255
166 202 255
166 202 255
165 201 255
165 201 255
165 201 255
165 201 255
165 201 255
165 201 255
165 201 255
165 201 255
165 201 255
165 201 255
165 201 255
165 201 255
165 201 255
165 201 255
165 201 255
165 201 255
165 201 255
165 201 255
165 201 255
165 201 255
165 201 255
165 201 255
165 201 255
165 201 255
165 201 255
165 201 255
165 201 255
165 201 255
165 201 255
165 201 255
165 201 255
165 201 255
165 201 255
165 201 255
165 201 255
165 201 255
165 201 255
165 201 255
164 201 255
164 201 255
164 201 255
164 201 255
164 201 255
164 201 255
164 201 255
164 201 255
164 201 255
164 201 255
164 201 255
164 201 255
164 201 255
164 201 255
164 201 255
164 201 255
164 201 255
164 201 255
164 201 255
164 201 255
164 201 255
164 201 255
164 201 255
164 201 255
164 201 255
164 201 255
164 201 255
164 201 255
164 200 255
164 200 255
164 200 255
164 200 255
164 200 255
164 200 255
164 200 255
164 200 255
164 200 255
164 200 255
164 200 255
164 200 255
164 200 255
164 200 255
164 200 255
164 200 255
163 200 255
163 200 255
163 200 255
163 200 255
163 200 255
163 200 255
163 200 255
163 200 255
163 200 255
163 200 255
163 200 255
163 200 255
163 200 255
163 200 255
163 200 255
163 200 255
163 200 255
163 200 255
163 200 255
163 200 255
163 200 255
163 200 255
163 200 255
163 200 255
163 200 255
163 200 255
163 200 255
163 200 255
163 200 255
163 200 255
163 200 255
163 200 255
163 200 255
163 200 255
163 200 255
163 200 255
163 200 255
163 200 255
163 200 255
163 200 255
163 200 255
163 200 255
163 200 255
163 200 255
163 200 255
163 200 255
163 200 255
163 200 255
163 200 255
163 200 255
163 200 255
163 200 255
163 200 255
163 200 255
163 200 255
163 200 255
163 200 255
163 200 255
163 200 255
163 200 255
163 200 255
163 200 255
163 200 255
163 200 255
163 200 255
163 200 255
163 200 255
163 200 255
163 200 255
163 200 255
163 200 255
163 200 255
163 200 255
163 200 255
163 200 255
163 200 255
163 200 255
163 200 255
163 200 255
163 200 255
163 200 255
163 200 255
163 200 255
163 200 255
163 200 255
164 200 255
164 200 255
164 200 255
164 200 255
164 200 255
164 200 255
164 200 255
164 200 255
164 200 255
164 200 255
164 200 255
164 200 255
164 200 255
164 200 255
164 200 255
164 200 255
164 200 255
164 200 255
164 201 255
164 201 255
164 201 255
164 201 255
164 201 255
164 201 255
164 201 255
164 201 255
164 201 255
164 201 255
164 201 255
164 201 255
164 201 255
164 201 255
164 201 255
164 201 255
164 201 255
164 201 255
164 201 255
164 201 255
164 201 255
164 201 255
164 201 255
164 201 255
164 201 255
164 201 255
164 201 255
165 201 255
165 201 255
165 201 255
165 201 255
165 201 255
165 201 255
165 201 255
165 201 255
165 201 255
165 201 255
165 201 255
165 201 255
165 201 255
165 201 255
165 201 255
165 201 255
165 201 255
165 201 255
165 201 255
165 201 255
165 201 255
165 201 255
165 201 255
165 201 255
165 201 255
165 201 255
165 201 255
165 201 255
165 201 255
165 201 255
165 201 255
165 201 255
165 201 255
165 201 255
165 201 255
165 201 255
165 201 255
165 201 255
166 202 255
166 202 255
166 202 255
166 202 255
166 202 255
166 202 255
166 202 255
166 202 255
166 202 255
166 202 255
166 202 255
166 202 255
166 202 255
166 202 255
166 202 255
166 202 255
166 202 255
166 202 255
166 202 255
166 202 255
166 202 255
166 202 255
166 202 255
166 202 255
166 202 255
166 202 255
166 202 255
166 202 255
166 202 255
166 202 255
166 202 255
166 202 255
166 202 255
166 202 255
166 202 255
166 202 255
166 202 255
166 202 255
166 202 255
166 202 255
166 202 255
166 202 255
167 202 255
167 202 255
167 202 255
167 202 255
167 202 255
167 202 255
167 202 255
167 202 255
167 202 255
167 202 255
167 202 255
167 202 255
167 202 255
167 202 255
167 202 255
167 202 255
167 202 255
167 202 255
167 202 255
167 202 255
167 202 255
167 202 255
167 202 255
167 202 255
167 202 255
167 202 255
167 202 255
167 202 255
167 202 255
167 202 255
167 202 255
167 202 255
167 202 255
167 203 255
167 203 255
167 203 255
167 203 255
167 203 255
167 203 255
167 203 255
167 203 255
167 203 255
167 203 255
167 202 255
167 202 255
167 202 255
167 202 255
167 202 255
167 202 255
167 202 255
167 202 255
167 202 255
167 202 255
167 202 255
167 202 255
167 202 255
167 202 255
167 202 255
167 202 255
167 202 255
167 202 255
167 202 255
167 202 255
167 202 255
167 202 255
167 202 255
167 202 255
167 202 255
167 202 255
167 202 255
167 202 255
167 202 255
167 202 255
167 202 255
167 202 255
166 202 255
166 202 255
166 202 255
166 202 255
166 202 255
166 202 255
166 202 255
166 202 255
166 202 255
166 202 255
166 202 255
166 202 255
166 202 255
166 202 255
166 202 255
166 202 255
166 202 255
166 202 255
166 202 255
166 202 255
166 202 255
166 202 255
166 202 255
166 202 255
166 202 255
166 202 255
166 202 255
166 202 255
166 202 255
166 202 255
166 202 255
166 202 255
166 202 255
166 202 255
166 202 255
166 202 255
166 202 255
166 202 255
166 202 255
166 202 255
166 202 255
165 201 255
165 201 255
165 201 255
165 201 255
165 201 255
165 201 255
165 201 255
165 201 255
165 201 255
165 201 255
165 201 255
165 201 255
165 201 255
165 201 255
165 201 255
165 201 255
165 201 255
165 201 255
165 201 255
165 201 255
165 201 255
165 201 255
165 201 255
165 201 255
165 201 255
165 201 255
165 201 255
165 201 255
165 201 255
165 201 255
165 201 255
165 201 255
165 201 255
165 201 255
165 201 255
165 201 255
165 201 255
165 201 255
165 201 255
164 201 255
164 201 255
164 201 255
164 201 255
164 201 255
164 201 255
164 201 255
164 201 255
164 201 255
164 201 255
164 201 255
164 201 255
164 201 255
164 201 255
164 201 255
164 201 255
164 201 255
164 201 255
164 201 255
164 201 255
164 201 255
164 201 255
164 201 255
164 201 255
164 201 255
164 201 255
164 201 255
164 201 255
164 201 255
164 201 255
164 200 255
164 200 255
164 200 255
164 200 255
164 200 255
164 200 255
164 200 255
164 200 255
164 200 255
164 200 255
164 200 255
164 200 255
164 200 255
164 200 255
164 200 255
164 200 255
164 200 255
164 200 255
164 200 255
164 200 255
164 200 255
163 200 255
163 200 255
163 200 255
163 200 255
163 200 255
163 200 255
163 200 255
163 200 255
163 200 255
163 200 255
163 200 255
163 200 255
163 200 255
163 200 255
163 200 255
163 200 255
163 200 255
163 200 255
163 200 255
163 200 255
163 200 255
163 200 255
163 200 255
163 200 255
163 200 255
163 200 255
163 200 255
163 200 255
163 200 255
163 200 255
163 200 255
163 200 255
163 200 255
163 200 255
163 200 255
163 200 255
163 200 255
163 200 255
163 200 255
163 200 255
163 200 255
163 200 255
163 200 255
163 200 255
163 200 255
163 200 255
163 200 255
163 200 255
163 200 255
163 200 255
163 200 255
163 200 255
163 200 255
163 200 255
164 200 255
164 200 255
164 200 255
164 200 255
164 200 255
164 200 255
164 200 255
164 200 255
164 200 255
164 200 255
164 200 255
164 200 255
164 200 255
164 200 255
164 200 255
164 200 255
164 200 255
164 200 255
164 200 255
164 200 255
164 200 255
164 201 255
164 201 255
164 201 255
164 201 255
164 201 255
164 201 255
164 201 255
164 201 255
164 201 255
164 201 255
164 201 255
164 201 255
164 201 255
164 201 255
164 201 255
164 201 255
164 201 255
164 201 255
164 201 255
164 201 255
164 201 255
164 201 255
164 201 255
164 201 255
164 201 255
164 201 255
164 201 255
164 201 255
164 201 255
164 201 255
165 201 255
165 201 255
165 201 255
165 201 255
165 201 255
165 201 255
165 201 255
165 201 255
165 201 255
165 201 255
165 201 255
165 201 255
165 201 255
165 201 255
165 201 255
165 201 255
165 201 255
165 201 255
165 201 255
165 201 255
165 201 255
165 201 255
165 201 255
165 201 255
165 201 255
165 201 255
165 201 255
165 201 255
165 201 255
165 201 255
165 201 255
165 201 255
165 201 255
165 201 255
165 201 255
165 201 255
165 201 255
165 201 255
165 201 255
166 202 255
166 202 255
166 202 255
166 202 255
166 202 255
166 202 255
166 202 255
166 202 255
166 202 255
166 202 255
166 202 255
166 202 255
166 202 255
166 202 255
166 202 255
166 202 255
166 202 255
166 202 255
166 202 255
166 202 255
166 202 255
166 202 255
166 202 255
166 202 255
166 202 255
166 202 255
166 202 255
166 202 255
166 202 255
166 202 255
166 202 255
166 202 255
166 202 255
166 202 255
166 202 255
166 202 255
166 202 255
166 202 255
166 202 255
166 202 255
167 202 255
167 202 255
167 202 255
167 202 255
167 202 255
167 202 255
167 202 255
167 202 255
167 202 255
167 202 255
167 202 255
167 202 255
167 202 255
167 202 255
167 202 255
167 202 255
167 202 255
167 202 255
167 202 255
167 202 255
167 202 255
167 202 255
167 202 255
167 202 255
167 202 255
167 202 255
167 202 255
167 202 255
167 202 255
167 202 255
167 202 255
167 202 255
167 202 255
167 203 255
167 203 255
167 203 255
167 203 255
167 203 255
167 203 255
167 203 255
167 203 255
167 203 255
167 203 255
168 203 255
168 203 255
168 203 255
168 203 255
167 203 255
167 203 255
167 203 255
167 203 255
167 203 255
167 203 255
167 203 255
167 203 255
167 203 255
167 203 255
167 203 255
167 203 255
167 203 255
167 203 255
167 203 255
167 203 255
167 203 255
167 203 255
167 202 255
167 202 255
167 202 255
167 202 255
167 202 255
167 202 255
167 202 255
167 202 255
167 202 255
167 202 255
167 202 255
167 202 255
167 202 255
167 202 255
167 202 255
167 202 255
167 202 255
167 202 255
167 202 255
167 202 255
167 202 255
167 202 255
167 202 255
167 202 255
167 202 255
167 202 255
167 202 255
167 202 255
167 202 255
167 202 255
166 202 255
166 202 255
166 202 255
166 202 255
166 202 255
166 202 255
166 202 255
166 202 255
166 202 255
166 202 255
166 202 255
166 202 255
166 202 255
166 202 255
166 202 255
166 202 255
166 202 255
166 202 255
166 202 255
166 202 255
166 202 255
166 202 255
166 202 255
166 202 255
166 202 255
166 202 255
166 202 255
166 202 255
166 202 255
166 202 255
166 202 255
166 202 255
166 202 255
166 202 255
166 202 255
166 202 255
166 202 255
166 202 255
166 202 255
166 202 255
165 201 255
165 201 255
165 201 255
165 201 255
165 201 255
165 201 255
165 201 255
165 201 255
165 201 255
165 201 255
165 201 255
165 201 255
165 201 255
165 201 255
165 201 255
165 201 255
165 201 255
165 201 255
165 201 255
165 201 255
165 201 255
165 201 255
165 201 255
165 201 255
165 201 255
165 201 255
165 201 255
165 201 255
165 201 255
165 201 255
165 201 255
165 201 255
165 201 255
165 201 255
165 201 255
165 201 255
165 201 255
165 201 255
165 201 255
164 201 255
164 201 255
164 201 255
164 201 255
164 201 255
164 201 255
164 201 255
164 201 255
164 201 255
164 201 255
164 201 255
164 201 255
164 201 255
164 201 255
164 201 255
164 201 255
164 201 255
164 201 255
164 201 255
164 201 255
164 201 255
164 201 255
164 201 255
164 201 255
164 201 255
164 201 255
164 201 255
164 201 255
164 201 255
164 201 255
164 201 255
164 201 255
164 201 255
164 201 255
164 201 255
164 200 255
164 200 255
164 200 255
164 200 255
164 200 255
164 200 255
164 200 255
164 200 255
164 200 255
164 200 255
164 200 255
164 200 255
164 200 255
164 200 255
164 200 255
164 200 255
164 200 255
164 200 255
164 200 255
164 200 255
164 200 255
164 200 255
164 200 255
164 200 255
164 200 255
164 200 255
164 200 255
164 200 255
164 200 255
164 200 255
164 200 255
164 200 255
164 200 255
164 200 255
164 200 255
164 200 255
164 200 255
164 200 255
164 200 255
164 200 255
164 200 255
164 200 255
164 200 255
164 200 255
164 200 255
164 200 255
164 200 255
164 200 255
164 200 255
164 200 255
164 200 255
164 200 255
164 200 255
164 200 255
164 200 255
164 200 255
164 200 255
164 200 255
164 200 255
164 200 255
164 200 255
164 200 255
164 200 255
164 200 255
164 200 255
164 200 255
164 200 255
164 200 255
164 201 255
164 201 255
164 201 255
164 201 255
164 201 255
164 201 255
164 201 255
164 201 255
164 201 255
164 201 255
164 201 255
164 201 255
164 201 255
164 201 255
164 201 255
164 201 255
164 201 255
164 201 255
164 201 255
164 201 255
164 201 255
164 201 255
164 201 255
164 201 255
164 201 255
164 201 255
164 201 255
164 201 255
164 201 255
164 201 255
164 201 255
164 201 255
164 201 255
164 201 255
165 201 255
165 201 255
165 201 255
165 201 255
165 201 255
165 201 255
165 201 255
165 201 255
165 201 255
165 201 255
165 201 255
165 201 255
165 201 255
165 201 255
165 201 255
165 201 255
165 201 255
165 201 255
165 201 255
165 201 255
165 201 255
165 201 255
165 201 255
165 201 255
165 201 255
165 201 255
165 201 255
165 201 255
165 201 255
165 201 255
165 201 255
165 201 255
165 201 255
165 201 255
165 201 255
165 201 255
165 201 255
165 201 255
165 201 255
166 202 255
166 202 255
166 202 255
166 202 255
166 202 255
166 202 255
166 202 255
166 202 255
166 202 255
166 202 255
166 202 255
166 202 255
166 202 255
166 202 255
166 202 255
166 202 255
166 202 255
166 202 255
166 202 255
166 202 255
166 202 255
166 202 255
166 202 255
166 202 255
166 202 255
166 202 255
166 202 255
166 202 255
166 202 255
166 202 255
166 202 255
166 202 255
166 202 255
166 202 255
166 202 255
166 202 255
166 202 255
166 202 255
166 202 255
166 202 255
166 202 255
167 202 255
167 202 255
167 202 255
167 202 255
167 202 255
167 202 255
167 202 255
167 202 255
167 202 255
167 202 255
167 202 255
167 202 255
167 202 255
167 202 255
167 202 255
167 202 255
167 202 255
167 202 255
167 202 255
167 202 255
167 202 255
167 202 255
167 202 255
167 202 255
167 202 255
167 202 255
167 202 255
167 202 255
167 202 255
167 202 255
167 202 255
167 203 255
167 203 255
167 203 255
167 203 255
167 203 255
167 203 255
167 203 255
167 203 255
167 203 255
167 203 255
167 203 255
167 203 255
167 203 255
167 203 255
167 203 255
167 203 255
167 203 255
168 203 255
168 203 255
168 203 255
168 203 255
168 203 255
168 203 255
168 203 255
168 203 255
168 203 255
168 203 255
168 203 255
168 203 255
168 203 255
168 203 255
168 203 255
168 203 255
168 203 255
168 203 255
168 203 255
168 203 255
167 203 255
167 203 255
167 203 255
167 203 255
167 203 255
167 203 255
167 203 255
167 203 255
167 203 255
167 203 255
167 203 255
167 203 255
167 203 255
167 203 255
167 203 255
167 203 255
167 202 255
167 202 255
167 202 255
167 202 255
167 202 255
167 202 255
167 202 255
167 202 255
167 202 255
167 202 255
167 202 255
167 202 255
167 202 255
167 202 255
167 202 255
167 202 255
167 202 255
167 202 255
167 202 255
167 202 255
167 202 255
167 202 255
167 202 255
167 202 255
167 202 255
167 202 255
167 202 255
167 202 255
167 202 255
167 202 255
166 202 255
166 202 255
166 202 255
166 202 255
166 202 255
166 202 255
166 202 255
166 202 255
166 202 255
166 202 255
166 202 255
166 202 255
166 202 255
166 202 255
166 202 255
166 202 255
166 202 255
166 202 255
166 202 255
166 202 255
166 202 255
166 202 255
166 202 255
166 202 255
166 202 255
166 202 255
166 202 255
166 202 255
166 202 255
166 202 255
166 202 255
166 202 255
166 202 255
166 202 255
166 202 255
166 202 255
166 202 255
166 202 255
166 202 255
165 201 255
165 201 255
165 201 255
165 201 255
165 201 255
165 201 255
165 201 255
165 201 255
165 201 255
165 201 255
165 201 255
165 201 255
165 201 255
165 201 255
165 201 255
165 201 255
165 201 255
165 201 255
165 201 255
165 201 255
165 201 255
165 201 255
165 201 255
165 201 255
165 201 255
165 201 255
165 201 255
165 201 255
165 201 255
165 201 255
165 201 255
165 201 255
165 201 255
165 201 255
165 201 255
165 201 255
165 201 255
165 201 255
165 201 255
165 201 255
165 201 255
164 201 255
164 201 255
164 201 255
164 201 255
164 201 255
164 201 255
164 201 255
164 201 255
164 201 255
164 201 255
164 201 255
164 201 255
164 201 255
164 201 255
164 201 255
164 201 255
164 201 255
164 201 255
164 201 255
164 201 255
164 201 255
164 201 255
164 201 255
164 201 255
164 201 255
164 201 255
164 201 255
164 201 255
164 201 255
164 201 255
164 201 255
164 201 255
164 201 255
164 201 255
164 201 255
164 201 255
164 201 255
164 201 255
164 201 255
164 201 255
164 201 255
164 201 255
164 201 255
164 201 255
164 201 255
164 201 255
164 200 255
164 200 255
164 200 255
164 200 255
164 200 255
164 200 255
164 200 255
164 200 255
164 200 255
164 200 255
164 200 255
164 200 255
164 200 255
164 200 255
164 200 255
164 200 255
164 200 255
164 200 255
164 200 255
164 200 255
164 200 255
164 200 255
164 200 255
164 201 255
164 201 255
164 201 255
164 201 255
164 201 255
164 201 255
164 201 255
164 201 255
164 201 255
164 201 255
164 201 255
164 201 255
164 201 255
164 201 255
164 201 255
164 201 255
164 201 255
164 201 255
164 201 255
164 201 255
164 201 255
164 201 255
164 201 255
164 201 255
164 201 255
164 201 255
164 201 255
164 201 255
164 201 255
164 201 255
164 201 255
164 201 255
164 201 255
164 201 255
164 201 255
164 201 255
164 201 255
164 201 255
164 201 255
164 201 255
164 201 255
164 201 255
164 201 255
164 201 255
164 201 255
164 201 255
164 201 255
165 201 255
165 201 255
165 201 255
165 201 255
165 201 255
165 201 255
165 201 255
165 201 255
165 201 255
165 201 255
165 201 255
165 201 255
165 201 255
165 201 255
165 201 255
165 201 255
165 201 255
165 201 255
165 201 255
165 201 255
165 201 255
165 201 255
165 201 255
165 201 255
165 201 255
165 201 255
165 201 255
165 201 255
165 201 255
165 201 255
165 201 255
165 201 255
165 201 255
165 201 255
165 201 255
165 201 255
165 201 255
165 201 255
165 201 255
165 201 255
165 201 255
166 202 255
166 202 255
166 202 255
166 202 255
166 202 255
166 202 255
166 202 255
166 202 255
166 202 255
166 202 255
166 202 255
166 202 255
166 202 255
166 202 255
166 202 255
166 202 255
166 202 255
166 202 255
166 202 255
166 202 255
166 202 255
166 202 255
166 202 255
166 202 255
166 202 255
166 202 255
166 202 255
166 202 255
166 202 255
166 202 255
166 202 255
166 202 255
166 202 255
166 202 255
166 202 255
166 202 255
166 202 255
166 202 255
166 202 255
167 202 255
167 202 255
167 202 255
167 202 255
167 202 255
167 202 255
167 202 255
167 202 255
167 202 255
167 202 255
167 202 255
167 202 255
167 202 255
167 202 255
167 202 255
167 202 255
167 202 255
167 202 255
167 202 255
167 202 255
167 202 255
167 202 255
167 202 255
167 202 255
167 202 255
167 202 255
167 202 255
167 202 255
167 202 255
167 202 255
167 203 255
167 203 255
167 203 255
167 203 255
167 203 255
167 203 255
167 203 255
167 203 255
167 203 255
167 203 255
167 203 255
167 203 255
167 203 255
167 203 255
167 203 255
167 203 255
168 203 255
168 203 255
168 203 255
168 203 255
168 203 255
168 203 255
168 203 255
168 203 255
168 203 255
168 203 255
168 203 255
168 203 255
168 203 255
168 203 255
168 203 255
168 203 255
168 203 255
168 203 255
168 203 255
168 203 255
168 203 255
168 203 255
168 203 255
168 203 255
168 203 255
168 203 255
168 203 255
168 203 255
168 203 255
168 203 255
168 203 255
168 203 255
168 203 255
168 203 255
168 203 255
168 203 255
168 203 255
168 203 255
168 203 255
168 203 255
168 203 255
168 203 255
168 203 255
167 203 255
167 203 255
167 203 255
167 203 255
167 203 255
167 203 255
167 203 255
167 203 255
167 203 255
167 203 255
167 203 255
167 203 255
167 203 255
167 203 255
167 203 255
167 203 255
167 203 255
167 202 255
167 202 255
167 202 255
167 202 255
167 202 255
167 202 255
167 202 255
167 202 255
167 202 255
167 202 255
167 202 255
167 202 255
167 202 255
167 202 255
167 202 255
167 202 255
167 202 255
167 202 255
167 202 255
167 202 255
167 202 255
167 202 255
167 202 255
167 202 255
167 202 255
167 202 255
167 202 255
166 202 255
166 202 255
166 202 255
166 202 255
166 202 255
166 202 255
166 202 255
166 202 255
166 202 255
166 202 255
166 202 255
166 202 255
166 202 255
166 202 255
166 202 255
166 202 255
166 202 255
166 202 255
166 202 255
166 202 255
166 202 255
166 202 255
166 202 255
166 202 255
166 202 255
166 202 255
166 202 255
166 202 255
166 202 255
166 202 255
166 202 255
166 202 255
166 202 255
166 202 255
166 202 255
166 202 255
166 202 255
166 202 255
166 202 255
165 201 255
165 201 255
165 201 255
165 201 255
165 201 255
165 201 255
165 201 255
165 201 255
165 201 255
165 201 255
165 201 255
165 201 255
165 201 255
165 201 255
165 201 255
165 201 255
165 201 255
165 201 255
165 201 255
165 201 255
165 201 255
165 201 255
165 201 255
165 201 255
165 201 255
165 201 255
165 201 255
165 201 255
165 201 255
165 201 255
165 201 255
165 201 255
165 201 255
165 201 255
165 201 255
165 201 255
165 201 255
165 201 255
165 201 255
165 201 255
165 201 255
165 201 255
165 201 255
165 201 255
164 201 255
164 201 255
164 201 255
164 201 255
164 201 255
164 201 255
164 201 255
164 201 255
164 201 255
164 201 255
164 201 255
164 201 255
164 201 255
164 201 255
164 201 255
164 201 255
164 201 255
164 201 255
164 201 255
164 201 255
164 201 255
164 201 255
164 201 255
164 201 255
164 201 255
164 201 255
164 201 255
164 201 255
164 201 255
164 201 255
164 201 255
164 201 255
164 201 255
164 201 255
164 201 255
164 201 255
164 201 255
164 201 255
164 201 255
164 201 255
164 201 255
164 201 255
164 201 255
164 201 255
164 201 255
164 201 255
164 201 255
164 201 255
164 201 255
164 201 255
164 201 255
164 201 255
164 201 255
164 201 255
164 201 255
164 201 255
164 201 255
164 201 255
164 201 255
164 201 255
164 201 255
164 201 255
164 201 255
164 201 255
164 201 255
164 201 255
164 201 255
164 201 255
164 201 255
164 201 255
164 201 255
164 201 255
164 201 255
164 201 255
164 201 255
164 201 255
164 201 255
164 201 255
164 201 255
164 201 255
164 201 255
164 201 255
164 201 255
164 201 255
164 201 255
164 201 255
164 201 255
164 201 255
164 201 255
164 201 255
164 201 255
164 201 255
164 201 255
165 201 255
165 201 255
165 201 255
165 201 255
165 201 255
165 201 255
165 201 255
165 201 255
165 201 255
165 201 255
165 201 255
165 201 255
165 201 255
165 201 255
165 201 255
165 201 255
165 201 255
165 201 255
165 201 255
165 201 255
165 201 255
165 201 255
165 201 255
165 201 255
165 201 255
165 201 255
165 201 255
165 201 255
165 201 255
165 201 255
165 201 255
165 201 255
165 201 255
165 201 255
165 201 255
165 201 255
165 201 255
165 201 255
165 201 255
165 201 255
165 201 255
165 201 255
165 201 255
166 202 255
166 202 255
166 202 255
166 202 255
166 202 255
166 202 255
166 202 255
166 202 255
166 202 255
166 202 255
166 202 255
166 202 255
166 202 255
166 202 255
166 202 255
166 202 255
166 202 255
166 202 255
166 202 255
166 202 255
166 202 255
166 202 255
166 202 255
166 202 255
166 202 255
166 202 255
166 202 255
166 202 255
166 202 255
166 202 255
166 202 255
166 202 255
166 202 255
166 202 255
166 202 255
166 202 255
166 202 255
166 202 255
167 202 255
167 202 255
167 202 255
167 202 255
167 202 255
167 202 255
167 202 255
167 202 255
167 202 255
167 202 255
167 202 255
167 202 255
167 202 255
167 202 255
167 202 255
167 202 255
167 202 255
167 202 255
167 202 255
167 202 255
167 202 255
167 202 255
167 202 255
167 202 255
167 202 255
167 202 255
167 202 255
167 202 255
167 202 255
167 203 255
167 203 255
167 203 255
167 203 255
167 203 255
167 203 255
167 203 255
167 203 255
167 203 255
167 203 255
167 203 255
167 203 255
167 203 255
167 203 255
167 203 255
167 203 255
168 203 255
168 203 255
168 203 255
168 203 255
168 203 255
168 203 255
168 203 255
168 203 255
168 203 255
168 203 255
168 203 255
168 203 255
168 203 255
168 203 255
168 203 255
168 203 255
168 203 255
168 203 255
168 203 255
168 203 255
168 203 255
168 203 255
168 203 255
168 203 255
168 203 255
168 203 255
168 203 255
168 203 255
168 203 255
168 203 255
168 203 255
168 203 255
168 203 255
168 203 255
168 203 255
168 203 255
168 203 255
168 203 255
168 203 255
168 203 255
168 203 255
168 203 255
168 203 255
168 203 255
168 203 255
168 203 255
168 203 255
168 203 255
168 203 255
168 203 255
168 203 255
168 203 255
168 203 255
168 203 255
168 203 255
168 203 255
168 203 255
168 203 255
168 203 255
168 203 255
168 203 255
168 203 255
168 203 255
168 203 255
168 203 255
167 203 255
167 203 255
167 203 255
167 203 255
167 203 255
167 203 255
167 203 255
167 203 255
167 203 255
167 203 255
167 203 255
167 203 255
167 203 255
167 203 255
167 203 255
167 202 255
167 202 255
167 202 255
167 202 255
167 202 255
167 202 255
167 202 255
167 202 255
167 202 255
167 202 255
167 202 255
167 202 255
167 202 255
167 202 255
167 202 255
167 202 255
167 202 255
167 202 255
167 202 255
167 202 255
167 202 255
167 202 255
167 202 255
167 202 255
167 202 255
167 202 255
167 202 255
167 202 255
166 202 255
166 202 255
166 202 255
166 202 255
166 202 255
166 202 255
166 202 255
166 202 255
166 202 255
166 202 255
166 202 255
166 202 255
166 202 255
166 202 255
166 202 255
166 202 255
166 202 255
166 202 255
166 202 255
166 202 255
166 202 255
166 202 255
166 202 255
166 202 255
166 202 255
166 202 255
166 202 255
166 202 255
166 202 255
166 202 255
166 202 255
166 202 255
166 202 255
166 202 255
166 202 255
166 202 255
166 202 255
166 202 255
165 201 255
165 201 255
165 201 255
165 201 255
165 201 255
165 201 255
165 201 255
165 201 255
165 201 255
165 201 255
165 201 255
165 201 255
165 201 255
165 201 255
165 201 255
165 201 255
165 201 255
165 201 255
165 201 255
165 201 255
165 201 255
165 201 255
165 201 255
165 201 255
165 201 255
165 201 255
165 201 255
165 201 255
165 201 255
165 201 255
165 201 255
165 201 255
165 201 255
165 201 255
165 201 255
165 201 255
165 201 255
165 201 255
165 201 255
165 201 255
165 201 255
165 201 255
165 201 255
165 201 255
165 201 255
165 201 255
165 201 255
165 201 255
165 201 255
165 201 255
164 201 255
164 201 255
164 201 255
164 201 255
164 201 255
164 201 255
164 201 255
164 201 255
164 201 255
164 201 255
164 201 255
164 201 255
164 201 255
164 201 255
164 201 255
164 201 255
164 201 255
164 201 255
164 201 255
164 201 255
164 201 255
164 201 255
164 201 255
164 201 255
164 201 255
164 201 255
164 201 255
164 201 255
164 201 255
164 201 255
164 201 255
164 201 255
164 201 255
164 201 255
164 201 255
164 201 255
164 201 255
164 201 255
164 201 255
164 201 255
164 201 255
164 201 255
164 201 255
164 201 255
164 201 255
164 201 255
164 201 255
164 201 255
164 201 255
164 201 255
164 201 255
164 201 255
164 201 255
164 201 255
164 201 255
164 201 255
164 201 255
164 201 255
164 201 255
164 201 255
164 201 255
164 201 255
164 201 255
165 201 255
165 201 255
165 201 255
165 201 255
165 201 255
165 201 255
165 201 255
165 201 255
165 201 255
165 201 255
165 201 255
165 201 255
165 201 255
165 201 255
165 201 255
165 201 255
165 201 255
165 201 255
165 201 255
165 201 255
165 201 255
165 201 255
165 201 255
165 201 255
165 201 255
165 201 255
165 201 255
165 201 255
165 201 255
165 201 255
165 201 255
165 201 255
165 201 255
165 201 255
165 201 255
165 201 255
165 201 255
165 201 255
165 201 255
165 201 255
165 201 255
165 201 255
165 201 255
165 201 255
165 201 255
165 201 255
165 201 255
165 201 255
166 202 255
166 202 255
166 202 255
166 202 255
166 202 255
166 202 255
166 202 255
166 202 255
166 202 255
166 202 255
166 202 255
166 202 255
166 202 255
166 202 255
166 202 255
166 202 255
166 202 255
166 202 255
166 202 255
166 202 255
166 202 255
166 202 255
166 202 255
166 202 255
166 202 255
166 202 255
166 202 255
166 202 255
166 202 255
166 202 255
166 202 255
166 202 255
166 202 255
166 202 255
166 202 255
166 202 255
166 202 255
166 202 255
166 202 255
166 202 255
167 202 255
167 202 255
167 202 255
167 202 255
167 202 255
167 202 255
167 202 255
167 202 255
167 202 255
167 202 255
167 202 255
167 202 255
167 202 255
167 202 255
167 202 255
167 202 255
167 202 255
167 202 255
167 202 255
167 202 255
167 202 255
167 202 255
167 202 255
167 202 255
167 202 255
167 202 255
167 202 255
167 203 255
167 203 255
167 203 255
167 203 255
167 203 255
167 203 255
167 203 255
167 203 255
167 203 255
167 203 255
167 203 255
167 203 255
167 203 255
167 203 255
167 203 255
168 203 255
168 203 255
168 203 255
168 203 255
168 203 255
168 203 255
168 203 255
168 203 255
168 203 255
168 203 255
168 203 255
168 203 255
168 203 255
168 203 255
168 203 255
168 203 255
168 203 255
168 203 255
168 203 255
168 203 255
168 203 255
168 203 255
168 203 255
168 203 255
168 203 255
168 203 255
168 203 255
168 203 255
168 203 255
168 203 255
168 203 255
168 203 255
168 203 255
168 203 255
168 203 255
168 203 255
168 203 255
168 203 255
168 203 255
168 203 255
168 203 255
168 203 255
168 203 255
168 203 255
168 203 255
168 203 255
168 203 255
168 203 255
168 203 255
168 203 255
168 203 255
168 203 255
168 203 255
168 203 255
168 203 255
168 203 255
168 203 255
168 203 255
168 203 255
168 203 255
168 203 255
168 203 255
168 203 255
168 203 255
168 203 255
168 203 255
168 203 255
168 203 255
168 203 255
168 203 255
168 203 255
168 203 255
168 203 255
168 203 255
168 203 255
168 203 255
168 203 255
168 203 255
168 203 255
168 203 255
168 203 255
168 203 255
168 203 255
168 203 255
168 203 255
168 203 255
167 203 255
167 203 255
167 203 255
167 203 255
167 203 255
167 203 255
167 203 255
167 203 255
167 203 255
167 203 255
167 203 255
167 203 255
167 203 255
167 203 255
167 202 255
167 202 255
167 202 255
167 202 255
167 202 255
167 202 255
167 202 255
167 202 255
167 202 255
167 202 255
167 202 255
167 202 255
167 202 255
167 202 255
167 202 255
167 202 255
167 202 255
167 202 255
167 202 255
167 202 255
167 202 255
167 202 255
167 202 255
167 202 255
167 202 255
167 202 255
167 202 255
166 202 255
166 202 255
166 202 255
166 202 255
166 202 255
166 202 255
166 202 255
166 202 255
166 202 255
166 202 255
166 202 255
166 202 255
166 202 255
166 202 255
166 202 255
166 202 255
166 202 255
166 202 255
166 202 255
166 202 255
166 202 255
166 202 255
166 202 255
166 202 255
166 202 255
166 202 255
166 202 255
166 202 255
166 202 255
166 202 255
166 202 255
166 202 255
166 202 255
166 202 255
166 202 255
166 202 255
166 202 255
166 202 255
166 202 255
166 202 255
165 201 255
165 201 255
165 201 255
165 201 255
165 201 255
165 201 255
165 201 255
165 201 255
165 201 255
165 201 255
165 201 255
165 201 255
165 201 255
165 201 255
165 201 255
165 201 255
165 201 255
165 201 255
165 201 255
165 201 255
165 201 255
165 201 255
165 201 255
165 201 255
165 201 255
165 201 255
165 201 255
165 201 255
165 201 255
165 201 255
165 201 255
165 201 255
165 201 255
165 201 255
165 201 255
165 201 255
165 201 255
165 201 255
165 201 255
165 201 255
165 201 255
165 201 255
165 201 255
165 201 255
165 201 255
165 201 255
165 201 255
165 201 255
165 201 255
165 201 255
165 201 255
165 201 255
165 201 255
165 201 255
165 201 255
165 201 255
165 201 255
165 201 255
165 201 255
165 201 255
165 201 255
165 201 255
165 201 255
165 201 255
165 201 255
165 201 255
165 201 255
165 201 255
165 201 255
165 201 255
165 201 255
165 201 255
165 201 255
165 201 255
165 201 255
165 201 255
165 201 255
165 201 255
165 201 255
165 201 255
165 201 255
165 201 255
165 201 255
165 201 255
165 201 255
165 201 255
165 201 255
165 201 255
165 201 255
165 201 255
165 201 255
165 201 255
165 201 255
165 201 255
165 201 255
165 201 255
165 201 255
165 201 255
165 201 255
165 201 255
165 201 255
165 201 255
165 201 255
165 201 255
165 201 255
165 201 255
165 201 255
165 201 255
165 201 255
165 201 255
165 201 255
165 201 255
165 201 255
165 201 255
165 201 255
165 201 255
165 201 255
165 201 255
165 201 255
165 201 255
165 201 255
165 201 255
165 201 255
165 201 255
165 201 255
165 201 255
165 201 255
165 201 255
165 201 255
165 201 255
165 201 255
165 201 255
165 201 255
165 201 255
165 201 255
165 201 255
165 201 255
165 201 255
165 201 255
165 201 255
165 201 255
166 202 255
166 202 255
166 202 255
166 202 255
166 202 255
166 202 255
166 202 255
166 202 255
166 202 255
166 202 255
166 202 255
166 202 255
166 202 255
166 202 255
166 202 255
166 202 255
166 202 255
166 202 255
166 202 255
166 202 255
166 202 255
166 202 255
166 202 255
166 202 255
166 202 255
166 202 255
166 202 255
166 202 255
166 202 255
166 202 255
166 202 255
166 202 255
166 202 255
166 202 255
166 202 255
166 202 255
166 202 255
166 202 255
166 202 255
166 202 255
166 202 255
167 202 255
167 202 255
167 202 255
167 202 255
167 202 255
167 202 255
167 202 255
167 202 255
167 202 255
167 202 255
167 202 255
167 202 255
167 202 255
167 202 255
167 202 255
167 202 255
167 202 255
167 202 255
167 202 255
167 202 255
167 202 255
167 202 255
167 202 255
167 202 255
167 202 255
167 202 255
167 203 255
167 203 255
167 203 255
167 203 255
167 203 255
167 203 255
167 203 255
167 203 255
167 203 255
167 203 255
167 203 255
167 203 255
167 203 255
167 203 255
167 203 255
168 203 255
168 203 255
168 203 255
168 203 255
168 203 255
168 203 255
168 203 255
168 203 255
168 203 255
168 203 255
168 203 255
168 203 255
168 203 255
168 203 255
168 203 255
168 203 255
168 203 255
168 203 255
168 203 255
168 203 255
168 203 255
168 203 255
168 203 255
168 203 255
168 203 255
168 203 255
168 203 255
168 203 255
168 203 255
168 203 255
168 203 255
168 203 255
168 203 255
168 203 255
168 203 255
168 203 255
168 203 255
168 203 255
168 203 255
168 203 255
168 203 255
168 203 255
168 203 255
168 203 255
168 203 255
168 203 255
168 203 255
168 203 255
169 203 255
169 203 255
169 203 255
169 203 255
169 203 255
169 203 255
169 203 255
169 203 255
169 203 255
169 203 255
169 203 255
168 203 255
168 203 255
168 203 255
168 203 255
168 203 255
168 203 255
168 203 255
168 203 255
168 203 255
168 203 255
168 203 255
168 203 255
168 203 255
168 203 255
168 203 255
168 203 255
168 203 255
168 203 255
168 203 255
168 203 255
168 203 255
168 203 255
168 203 255
168 203 255
168 203 255
168 203 255
168 203 255
168 203 255
168 203 255
168 203 255
168 203 255
168 203 255
168 203 255
168 203 255
168 203 255
168 203 255
168 203 255
168 203 255
168 203 255
168 203 255
168 203 255
168 203 255
168 203 255
168 203 255
168 203 255
168 203 255
168 203 255
167 203 255
167 203 255
167 203 255
167 203 255
167 203 255
167 203 255
167 203 255
167 203 255
167 203 255
167 203 255
167 203 255
167 203 255
167 203 255
167 203 255
167 202 255
167 202 255
167 202 255
167 202 255
167 202 255
167 202 255
167 202 255
167 202 255
167 202 255
167 202 255
167 202 255
167 202 255
167 202 255
167 202 255
167 202 255
167 202 255
167 202 255
167 202 255
167 202 255
167 202 255
167 202 255
167 202 255
167 202 255
167 202 255
167 202 255
167 202 255
166 202 255
166 202 255
166 202 255
166 202 255
166 202 255
166 202 255
166 202 255
166 202 255
166 202 255
166 202 255
166 202 255
166 202 255
166 202 255
166 202 255
166 202 255
166 202 255
166 202 255
166 202 255
166 202 255
166 202 255
166 202 255
166 202 255
166 202 255
166 202 255
166 202 255
166 202 255
166 202 255
166 202 255
166 202 255
166 202 255
166 202 255
166 202 255
166 202 255
166 202 255
166 202 255
166 202 255
166 202 255
166 202 255
166 202 255
166 202 255
166 202 255
166 202 255
165 201 255
165 201 255
165 201 255
165 201 255
165 201 255
165 201 255
165 201 255
165 201 255
165 201 255
165 201 255
165 201 255
165 201 255
165 201 255
165 201 255
165 201 255
165 201 255
165 201 255
165 201 255
165 201 255
165 201 255
165 201 255
165 201 255
165 201 255
165 201 255
165 201 255
165 201 255
165 201 255
165 201 255
165 201 255
165 201 255
165 201 255
165 201 255
165 201 255
165 201 255
165 201 255
165 201 255
165 201 255
165 201 255
165 201 255
165 201 255
165 201 255
165 201 255
165 201 255
165 201 255
165 201 255
165 201 255
165 201 255
165 201 255
165 201 255
165 201 255
165 201 255
165 201 255
165 201 255
165 201 255
165 201 255
165 201 255
165 201 255
165 201 255
165 201 255
165 201 255
165 201 255
165 201 255
165 201 255
165 201 255
165 201 255
165 201 255
165 201 255
165 201 255
165 201 255
165 201 255
165 201 255
165 201 255
165 201 255
165 201 255
165 201 255
165 201 255
165 201 255
165 201 255
165 201 255
165 201 255
165 201 255
165 201 255
165 201 255
165 201 255
165 201 255
165 201 255
165 201 255
165 201 255
165 201 255
165 201 255
165 201 255
165 201 255
165 201 255
165 201 255
165 201 255
165 201 255
165 201 255
165 201 255
165 201 255
165 201 255
165 201 255
165 201 255
165 201 255
165 201 255
165 201 255
165 201 255
165 201 255
165 201 255
165 201 255
165 201 255
165 201 255
165 201 255
165 201 255
165 201 255
165 201 255
165 201 255
165 201 255
165 201 255
165 201 255
165 201 255
165 201 255
166 202 255
166 202 255
166 202 255
166 202 255
166 202 255
166 202 255
166 202 255
166 202 255
166 202 255
166 202 255
166 202 255
166 202 255
166 202 255
166 202 255
166 202 255
166 202 255
166 202 255
166 202 255
166 202 255
166 202 255
166 202 255
166 202 255
166 202 255
166 202 255
166 202 255
166 202 255
166 202 255
166 202 255
166 202 255
166 202 255
166 202 255
166 202 255
166 202 255
166 202 255
166 202 255
166 202 255
166 202 255
166 202 255
166 202 255
166 202 255
167 202 255
167 202 255
167 202 255
167 202 255
167 202 255
167 202 255
167 202 255
167 202 255
167 202 255
167 202 255
167 202 255
167 202 255
167 202 255
167 202 255
167 202 255
167 202 255
167 202 255
167 202 255
167 202 255
167 202 255
167 202 255
167 202 255
167 202 255
167 202 255
167 202 255
167 202 255
167 202 255
167 203 255
167 203 255
167 203 255
167 203 255
167 203 255
167 203 255
167 203 255
167 203 255
167 203 255
167 203 255
167 203 255
167 203 255
167 203 255
168 203 255
168 203 255
168 203 255
168 203 255
168 203 255
168 203 255
168 203 255
168 203 255
168 203 255
168 203 255
168 203 255
168 203 255
168 203 255
168 203 255
168 203 255
168 203 255
168 203 255
168 203 255
168 203 255
168 203 255
168 203 255
168 203 255
168 203 255
168 203 255
168 203 255
168 203 255
168 203 255
168 203 255
168 203 255
168 203 255
168 203 255
168 203 255
168 203 255
168 203 255
168 203 255
168 203 255
168 203 255
168 203 255
168 203 255
168 203 255
168 203 255
168 203 255
168 203 255
168 203 255
168 203 255
168 203 255
168 203 255
168 203 255
168 203 255
169 203 255
169 203 255
169 203 255
169 203 255
169 203 255
169 203 255
169 203 255
169 203 255
169 203 255
169 203 255
169 204 255
169 204 255
169 204 255
169 204 255
169 203 255
169 203 255
169 203 255
169 203 255
169 203 255
169 203 255
169 203 255
169 203 255
169 203 255
169 203 255
169 203 255
169 203 255
169 203 255
169 203 255
169 203 255
169 203 255
169 203 255
169 203 255
168 203 255
168 203 255
168 203 255
168 203 255
168 203 255
168 203 255
168 203 255
168 203 255
168 203 255
168 203 255
168 203 255
168 203 255
168 203 255
168 203 255
168 203 255
168 203 255
168 203 255
168 203 255
168 203 255
168 203 255
168 203 255
168 203 255
168 203 255
168 203 255
168 203 255
168 203 255
168 203 255
168 203 255
168 203 255
168 203 255
168 203 255
168 203 255
168 203 255
168 203 255
168 203 255
168 203 255
168 203 255
168 203 255
168 203 255
168 203 255
168 203 255
168 203 255
168 203 255
168 203 255
168 203 255
168 203 255
167 203 255
167 203 255
167 203 255
167 203 255
167 203 255
167 203 255
167 203 255
167 203 255
167 203 255
167 203 255
167 203 255
167 203 255
167 203 255
167 202 255
167 202 255
167 202 255
167 202 255
167 202 255
167 202 255
167 202 255
167 202 255
167 202 255
167 202 255
167 202 255
167 202 255
167 202 255
167 202 255
167 202 255
167 202 255
167 202 255
167 202 255
167 202 255
167 202 255
167 202 255
167 202 255
167 202 255
167 202 255
167 202 255
167 202 255
167 202 255
166 202 255
166 202 255
166 202 255
166 202 255
166 202 255
166 202 255
166 202 255
166 202 255
166 202 255
166 202 255
166 202 255
166 202 255
166 202 255
166 202 255
166 202 255
166 202 255
166 202 255
166 202 255
166 202 255
166 202 255
166 202 255
166 202 255
166 202 255
166 202 255
166 202 255
166 202 255
166 202 255
166 202 255
166 202 255
166 202 255
166 202 255
166 202 255
166 202 255
166 202 255
166 202 255
166 202 255
166 202 255
166 202 255
166 202 255
166 202 255
166 202 255
166 202 255
166 202 255
165 201 255
165 201 255
165 201 255
165 201 255
165 201 255
165 201 255
165 201 255
165 201 255
165 201 255
165 201 255
165 201 255
165 201 255
165 201 255
165 201 255
165 201 255
165 201 255
165 201 255
165 201 255
165 201 255
165 201 255
165 201 255
165 201 255
165 201 255
165 201 255
165 201 255
165 201 255
165 201 255
165 201 255
165 201 255
165 201 255
165 201 255
165 201 255
165 201 255
165 201 255
165 201 255
165 201 255
165 201 255
165 201 255
165 201 255
165 201 255
165 201 255
165 201 255
165 201 255
165 201 255
165 201 255
165 201 255
165 201 255
165 201 255
165 201 255
165 201 255
165 201 255
165 201 255
165 201 255
165 201 255
165 201 255
165 201 255
165 201 255
165 201 255
165 201 255
165 201 255
165 201 255
165 201 255
165 201 255
165 201 255
165 201 255
165 201 255
165 201 255
165 201 255
165 201 255
165 201 255
165 201 255
165 201 255
165 201 255
165 201 255
165 201 255
165 201 255
165 201 255
165 201 255
165 201 255
165 201 255
165 201 255
165 201 255
165 201 255
165 201 255
165 201 255
165 201 255
165 201 255
165 201 255
165 201 255
165 201 255
165 201 255
165 201 255
165 201 255
165 201 255
165 201 255
165 201 255
165 201 255
166 202 255
166 202 255
166 202 255
166 202 255
166 202 255
166 202 255
166 202 255
166 202 255
166 202 255
166 202 255
166 202 255
166 202 255
166 202 255
166 202 255
166 202 255
166 202 255
166 202 255
166 202 255
166 202 255
166 202 255
166 202 255
166 202 255
166 202 255
166 202 255
166 202 255
166 202 255
166 202 255
166 202 255
166 202 255
166 202 255
166 202 255
166 202 255
166 202 255
166 202 255
166 202 255
166 202 255
166 202 255
166 202 255
166 202 255
166 202 255
166 202 255
166 202 255
166 202 255
166 202 255
166 202 255
167 202 255
167 202 255
167 202 255
167 202 255
167 202 255
167 202 255
167 202 255
167 202 255
167 202 255
167 202 255
167 202 255
167 202 255
167 202 255
167 202 255
167 202 255
167 202 255
167 202 255
167 202 255
167 202 255
167 202 255
167 202 255
167 202 255
167 202 255
167 202 255
167 202 255
167 203 255
167 203 255
167 203 255
167 203 255
167 203 255
167 203 255
167 203 255
167 203 255
167 203 255
167 203 255
167 203 255
167 203 255
167 203 255
167 203 255
168 203 255
168 203 255
168 203 255
168 203 255
168 203 255
168 203 255
168 203 255
168 203 255
168 203 255
168 203 255
168 203 255
168 203 255
168 203 255
168 203 255
168 203 255
168 203 255
168 203 255
168 203 255
168 203 255
168 203 255
168 203 255
168 203 255
168 203 255
168 203 255
168 203 255
168 203 255
168 203 255
168 203 255
168 203 255
168 203 255
168 203 255
168 203 255
168 203 255
168 203 255
168 203 255
168 203 255
168 203 255
168 203 255
168 203 255
168 203 255
168 203 255
168 203 255
168 203 255
168 203 255
168 203 255
168 203 255
169 203 255
169 203 255
169 203 255
169 203 255
169 203 255
169 203 255
169 203 255
169 203 255
169 203 255
169 203 255
169 203 255
169 203 255
169 203 255
169 203 255
169 203 255
169 203 255
169 203 255
169 203 255
169 204 255
169 204 255
169 204 255
169 204 255
169 204 255
169 204 255
169 204 255
169 204 255
169 204 255
169 204 255
169 204 255
169 204 255
169 204 255
169 204 255
169 204 255
169 204 255
169 204 255
169 204 255
169 204 255
169 204 255
169 203 255
169 203 255
169 203 255
169 203 255
169 203 255
169 203 255
169 203 255
169 203 255
169 203 255
169 203 255
169 203 255
169 203 255
169 203 255
169 203 255
169 203 255
169 203 255
169 203 255
169 203 255
168 203 255
168 203 255
168 203 255
168 203 255
168 203 255
168 203 255
168 203 255
168 203 255
168 203 255
168 203 255
168 203 255
168 203 255
168 203 255
168 203 255
168 203 255
168 203 255
168 203 255
168 203 255
168 203 255
168 203 255
168 203 255
168 203 255
168 203 255
168 203 255
168 203 255
168 203 255
168 203 255
168 203 255
168 203 255
168 203 255
168 203 255
168 203 255
168 203 255
168 203 255
168 203 255
168 203 255
168 203 255
168 203 255
168 203 255
168 203 255
168 203 255
168 203 255
168 203 255
168 203 255
167 203 255
167 203 255
167 203 255
167 203 255
167 203 255
167 203 255
167 203 255
167 203 255
167 203 255
167 203 255
167 203 255
167 203 255
167 203 255
167 202 255
167 202 255
167 202 255
167 202 255
167 202 255
167 202 255
167 202 255
167 202 255
167 202 255
167 202 255
167 202 255
167 202 255
167 202 255
167 202 255
167 202 255
167 202 255
167 202 255
167 202 255
167 202 255
167 202 255
167 202 255
167 202 255
167 202 255
167 202 255
167 202 255
167 202 255
166 202 255
166 202 255
166 202 255
166 202 255
166 202 255
166 202 255
166 202 255
166 202 255
166 202 255
166 202 255
166 202 255
166 202 255
166 202 255
166 202 255
166 202 255
166 202 255
166 202 255
166 202 255
166 202 255
166 202 255
166 202 255
166 202 255
166 202 255
166 202 255
166 202 255
166 202 255
166 202 255
166 202 255
166 202 255
166 202 255
166 202 255
166 202 255
166 202 255
166 202 255
166 202 255
166 202 255
166 202 255
166 202 255
166 202 255
166 202 255
166 202 255
166 202 255
166 202 255
166 202 255
166 202 255
166 202 255
166 202 255
165 201 255
166 202 255
165 201 255
165 201 255
165 201 255
165 201 255
165 201 255
165 201 255
165 201 255
165 201 255
165 201 255
165 201 255
165 201 255
165 201 255
165 201 255
165 201 255
165 201 255
165 201 255
165 201 255
165 201 255
165 201 255
165 201 255
165 201 255
165 201 255
165 201 255
165 201 255
165 201 255
165 201 255
165 201 255
165 201 255
165 201 255
165 201 255
165 201 255
165 201 255
165 201 255
165 201 255
165 201 255
165 201 255
165 201 255
165 201 255
165 201 255
165 201 255
165 201 255
165 201 255
165 201 255
165 201 255
165 201 255
165 201 255
165 201 255
165 201 255
165 201 255
165 201 255
165 201 255
165 201 255
165 201 255
165 201 255
165 201 255
165 201 255
165 201 255
165 201 255
165 201 255
165 201 255
165 201 255
165 201 255
165 201 255
165 201 255
165 201 255
165 201 255
165 201 255
165 201 255
166 202 255
166 202 255
166 202 255
166 202 255
166 202 255
166 202 255
166 202 255
166 202 255
166 202 255
166 202 255
166 202 255
166 202 255
166 202 255
166 202 255
166 202 255
166 202 255
166 202 255
166 202 255
166 202 255
166 202 255
166 202 255
166 202 255
166 202 255
166 202 255
166 202 255
166 202 255
166 202 255
166 202 255
166 202 255
166 202 255
166 202 255
166 202 255
166 202 255
166 202 255
166 202 255
166 202 255
166 202 255
166 202 255
166 202 255
166 202 255
166 202 255
166 202 255
166 202 255
166 202 255
166 202 255
166 202 255
166 202 255
166 202 255
166 202 255
167 202 255
167 202 255
167 202 255
167 202 255
167 202 255
167 202 255
167 202 255
167 202 255
167 202 255
167 202 255
167 202 255
167 202 255
167 202 255
167 202 255
167 202 255
167 202 255
167 202 255
167 202 255
167 202 255
167 202 255
167 202 255
167 202 255
167 202 255
167 202 255
167 202 255
167 202 255
167 203 255
167 203 255
167 203 255
167 203 255
167 203 255
167 203 255
167 203 255
167 203 255
167 203 255
167 203 255
167 203 255
167 203 255
167 203 255
168 203 255
168 203 255
168 203 255
168 203 255
168 203 255
168 203 255
168 203 255
168 203 255
168 203 255
168 203 255
168 203 255
168 203 255
168 203 255
168 203 255
168 203 255
168 203 255
168 203 255
168 203 255
168 203 255
168 203 255
168 203 255
168 203 255
168 203 255
168 203 255
168 203 255
168 203 255
168 203 255
168 203 255
168 203 255
168 203 255
168 203 255
168 203 255
168 203 255
168 203 255
168 203 255
168 203 255
168 203 255
168 203 255
168 203 255
168 203 255
168 203 255
168 203 255
168 203 255
168 203 255
169 203 255
169 203 255
169 203 255
169 203 255
169 203 255
169 203 255
169 203 255
169 203 255
169 203 255
169 203 255
169 203 255
169 203 255
169 203 255
169 203 255
169 203 255
169 203 255
169 203 255
169 203 255
169 204 255
169 204 255
169 204 255
169 204 255
169 204 255
169 204 255
169 204 255
169 204 255
169 204 255
169 204 255
169 204 255
169 204 255
169 204 255
169 204 255
169 204 255
169 204 255
169 204 255
169 204 255
169 204 255
169 204 255
169 204 255
169 204 255
169 204 255
169 204 255
169 204 255
169 204 255
169 204 255
169 204 255
169 204 255
169 204 255
169 204 255
169 204 255
169 204 255
169 204 255
169 204 255
169 204 255
169 204 255
169 204 255
169 204 255
169 204 255
169 204 255
169 204 255
169 204 255
169 204 255
169 204 255
169 203 255
169 203 255
169 203 255
169 203 255
169 203 255
169 203 255
169 203 255
169 203 255
169 203 255
169 203 255
169 203 255
169 203 255
169 203 255
169 203 255
169 203 255
168 203 255
168 203 255
168 203 255
168 203 255
168 203 255
168 203 255
168 203 255
168 203 255
168 203 255
168 203 255
168 203 255
168 203 255
168 203 255
168 203 255
168 203 255
168 203 255
168 203 255
168 203 255
168 203 255
168 203 255
168 203 255
168 203 255
168 203 255
168 203 255
168 203 255
168 203 255
168 203 255
168 203 255
168 203 255
168 203 255
168 203 255
168 203 255
168 203 255
168 203 255
168 203 255
168 203 255
168 203 255
168 203 255
168 203 255
168 203 255
168 203 255
168 203 255
168 203 255
167 203 255
167 203 255
167 203 255
167 203 255
167 203 255
167 203 255
167 203 255
167 203 255
167 203 255
167 203 255
167 203 255
167 203 255
167 203 255
167 202 255
167 202 255
167 202 255
167 202 255
167 202 255
167 202 255
167 202 255
167 202 255
167 202 255
167 202 255
167 202 255
167 202 255
167 202 255
167 202 255
167 202 255
167 202 255
167 202 255
167 202 255
167 202 255
167 202 255
167 202 255
167 202 255
167 202 255
167 202 255
167 202 255
167 202 255
167 202 255
166 202 255
166 202 255
166 202 255
166 202 255
166 202 255
166 202 255
166 202 255
166 202 255
166 202 255
166 202 255
166 202 255
166 202 255
166 202 255
166 202 255
166 202 255
166 202 255
166 202 255
166 202 255
166 202 255
166 202 255
166 202 255
166 202 255
166 202 255
166 202 255
166 202 255
166 202 255
166 202 255
166 202 255
166 202 255
166 202 255
166 202 255
166 202 255
166 202 255
166 202 255
166 202 255
166 202 255
166 202 255
166 202 255
166 202 255
166 202 255
166 202 255
166 202 255
166 202 255
166 202 255
166 202 255
166 202 255
166 202 255
166 202 255
166 202 255
166 202 255
166 202 255
166 202 255
166 202 255
166 202 255
166 202 255
166 202 255
166 202 255
166 202 255
166 202 255
166 202 255
166 202 255
166 202 255
166 202 255
166 202 255
165 201 255
165 201 255
165 201 255
165 201 255
165 201 255
165 201 255
165 201 255
165 201 255
165 201 255
165 201 255
165 201 255
165 201 255
165 201 255
165 201 255
165 201 255
165 201 255
165 201 255
165 201 255
165 201 255
166 202 255
166 202 255
165 201 255
166 202 255
166 202 255
166 202 255
166 202 255
166 202 255
166 202 255
166 202 255
166 202 255
166 202 255
166 202 255
166 202 255
166 202 255
166 202 255
166 202 255
166 202 255
166 202 255
166 202 255
166 202 255
166 202 255
166 202 255
166 202 255
166 202 255
166 202 255
166 202 255
166 202 255
166 202 255
166 202 255
166 202 255
166 202 255
166 202 255
166 202 255
166 202 255
166 202 255
166 202 255
166 202 255
166 202 255
166 202 255
166 202 255
166 202 255
166 202 255
166 202 255
166 202 255
166 202 255
166 202 255
166 202 255
166 202 255
166 202 255
166 202 255
166 202 255
166 202 255
166 202 255
166 202 255
166 202 255
166 202 255
166 202 255
166 202 255
166 202 255
166 202 255
166 202 255
166 202 255
167 202 255
167 202 255
167 202 255
167 202 255
167 202 255
167 202 255
167 202 255
167 202 255
167 202 255
167 202 255
167 202 255
167 202 255
167 202 255
167 202 255
167 202 255
167 202 255
167 202 255
167 202 255
167 202 255
167 202 255
167 202 255
167 202 255
167 202 255
167 202 255
167 202 255
167 202 255
167 203 255
167 203 255
167 203 255
167 203 255
167 203 255
167 203 255
167 203 255
167 203 255
167 203 255
167 203 255
167 203 255
167 203 255
167 203 255
167 203 255
168 203 255
168 203 255
168 203 255
168 203 255
168 203 255
168 203 255
168 203 255
168 203 255
168 203 255
168 203 255
168 203 255
168 203 255
168 203 255
168 203 255
168 203 255
168 203 255
168 203 255
168 203 255
168 203 255
168 203 255
168 203 255
168 203 255
168 203 255
168 203 255
168 203 255
168 203 255
168 203 255
168 203 255
168 203 255
168 203 255
168 203 255
168 203 255
168 203 255
168 203 255
168 203 255
168 203 255
168 203 255
168 203 255
168 203 255
168 203 255
168 203 255
168 203 255
168 203 255
169 203 255
169 203 255
169 203 255
169 203 255
169 203 255
169 203 255
169 203 255
169 203 255
169 203 255
169 203 255
169 203 255
169 203 255
169 203 255
169 203 255
169 203 255
169 203 255
169 204 255
169 204 255
169 204 255
169 204 255
169 204 255
169 204 255
169 204 255
169 204 255
169 204 255
169 204 255
169 204 255
169 204 255
169 204 255
169 204 255
169 204 255
169 204 255
169 204 255
169 204 255
169 204 255
169 204 255
169 204 255
169 204 255
169 204 255
169 204 255
169 204 255
169 204 255
169 204 255
169 204 255
170 204 255
170 204 255
170 204 255
170 204 255
170 204 255
169 204 255
169 204 255
169 204 255
169 204 255
169 204 255
169 204 255
169 204 255
169 204 255
169 204 255
169 204 255
169 204 255
169 204 255
169 204 255
169 204 255
169 204 255
169 204 255
169 204 255
169 204 255
169 204 255
169 204 255
169 204 255
169 204 255
169 204 255
169 204 255
169 204 255
169 204 255
169 204 255
169 204 255
169 204 255
169 204 255
169 204 255
169 204 255
169 204 255
169 204 255
169 203 255
169 203 255
169 203 255
169 203 255
169 203 255
169 203 255
169 203 255
169 203 255
169 203 255
169 203 255
169 203 255
169 203 255
169 203 255
169 203 255
169 203 255
169 203 255
168 203 255
168 203 255
168 203 255
168 203 255
168 203 255
168 203 255
168 203 255
168 203 255
168 203 255
168 203 255
168 203 255
168 203 255
168 203 255
168 203 255
168 203 255
168 203 255
168 203 255
168 203 255
168 203 255
168 203 255
168 203 255
168 203 255
168 203 255
168 203 255
168 203 255
168 203 255
168 203 255
168 203 255
168 203 255
168 203 255
168 203 255
168 203 255
168 203 255
168 203 255
168 203 255
168 203 255
168 203 255
168 203 255
168 203 255
168 203 255
168 203 255
168 203 255
167 203 255
167 203 255
167 203 255
167 203 255
167 203 255
167 203 255
167 203 255
167 203 255
167 203 255
167 203 255
167 203 255
167 203 255
167 203 255
167 202 255
167 202 255
167 202 255
167 202 255
167 202 255
167 202 255
167 202 255
167 202 255
167 202 255
167 202 255
167 202 255
167 202 255
167 202 255
167 202 255
167 202 255
167 202 255
167 202 255
167 202 255
167 202 255
167 202 255
167 202 255
167 202 255
167 202 255
167 202 255
167 202 255
167 202 255
167 202 255
167 202 255
166 202 255
166 202 255
166 202 255
166 202 255
166 202 255
166 202 255
166 202 255
166 202 255
166 202 255
166 202 255
166 202 255
166 202 255
166 202 255
166 202 255
166 202 255
166 202 255
166 202 255
166 202 255
166 202 255
166 202 255
166 202 255
166 202 255
166 202 255
166 202 255
166 202 255
166 202 255
166 202 255
166 202 255
166 202 255
166 202 255
166 202 255
166 202 255
166 202 255
166 202 255
166 202 255
166 202 255
166 202 255
166 202 255
166 202 255
166 202 255
166 202 255
166 202 255
166 202 255
166 202 255
166 202 255
166 202 255
166 202 255
166 202 255
166 202 255
166 202 255
166 202 255
166 202 255
166 202 255
166 202 255
166 202 255
166 202 255
166 202 255
166 202 255
166 202 255
166 202 255
166 202 255
166 202 255
166 202 255
166 202 255
166 202 255
166 202 255
166 202 255
166 202 255
166 202 255
166 202 255
166 202 255
166 202 255
166 202 255
166 202 255
166 202 255
166 202 255
166 202 255
166 202 255
166 202 255
166 202 255
166 202 255
166 202 255
166 202 255
166 202 255
166 202 255
166 202 255
166 202 255
166 202 255
166 202 255
166 202 255
166 202 255
166 202 255
166 202 255
166 202 255
166 202 255
166 202 255
166 202 255
166 202 255
166 202 255
166 202 255
166 202 255
166 202 255
166 202 255
166 202 255
166 202 255
166 202 255
166 202 255
166 202 255
166 202 255
166 202 255
166 202 255
166 202 255
166 202 255
166 202 255
166 202 255
166 202 255
166 202 255
166 202 255
166 202 255
166 202 255
166 202 255
166 202 255
166 202 255
166 202 255
167 202 255
167 202 255
167 202 255
167 202 255
167 202 255
167 202 255
167 202 255
167 202 255
167 202 255
167 202 255
167 202 255
167 202 255
167 202 255
167 202 255
167 202 255
167 202 255
167 202 255
167 202 255
167 202 255
167 202 255
167 202 255
167 202 255
167 202 255
167 202 255
167 202 255
167 202 255
167 202 255
167 202 255
167 203 255
167 203 255
167 203 255
167 203 255
167 203 255
167 203 255
167 203 255
167 203 255
167 203 255
167 203 255
167 203 255
167 203 255
167 203 255
167 203 255
168 203 255
168 203 255
168 203 255
168 203 255
168 203 255
168 203 255
168 203 255
168 203 255
168 203 255
168 203 255
168 203 255
168 203 255
168 203 255
168 203 255
168 203 255
168 203 255
168 203 255
168 203 255
168 203 255
168 203 255
168 203 255
168 203 255
168 203 255
168 203 255
168 203 255
168 203 255
168 203 255
168 203 255
168 203 255
168 203 255
168 203 255
168 203 255
168 203 255
168 203 255
168 203 255
168 203 255
168 203 255
168 203 255
168 203 255
168 203 255
168 203 255
169 203 255
169 203 255
169 203 255
169 203 255
169 203 255
169 203 255
169 203 255
169 203 255
169 203 255
169 203 255
169 203 255
169 203 255
169 203 255
169 203 255
169 203 255
169 204 255
169 204 255
169 204 255
169 204 255
169 204 255
169 204 255
169 204 255
169 204 255
169 204 255
169 204 255
169 204 255
169 204 255
169 204 255
169 204 255
169 204 255
169 204 255
169 204 255
169 204 255
169 204 255
169 204 255
169 204 255
169 204 255
169 204 255
169 204 255
169 204 255
169 204 255
169 204 255
169 204 255
169 204 255
169 204 255
169 204 255
169 204 255
169 204 255
169 204 255
169 204 255
169 204 255
170 204 255
170 204 255
170 204 255
170 204 255
170 204 255
170 204 255
170 204 255
170 204 255
170 204 255
170 204 255
170 204 255
170 204 255
170 204 255
170 204 255
170 204 255
170 204 255
170 204 255
170 204 255
170 204 255
170 204 255
170 204 255
169 204 255
169 204 255
169 204 255
169 204 255
169 204 255
169 204 255
169 204 255
169 204 255
169 204 255
169 204 255
169 204 255
169 204 255
169 204 255
169 204 255
169 204 255
169 204 255
169 204 255
169 204 255
169 204 255
169 204 255
169 204 255
169 204 255
169 204 255
169 204 255
169 204 255
169 204 255
169 204 255
169 204 255
169 204 255
169 204 255
169 204 255
169 204 255
169 204 255
169 203 255
169 203 255
169 203 255
169 203 255
169 203 255
169 203 255
169 203 255
169 203 255
169 203 255
169 203 255
169 203 255
169 203 255
169 203 255
169 203 255
169 203 255
169 203 255
168 203 255
168 203 255
168 203 255
168 203 255
168 203 255
168 203 255
168 203 255
168 203 255
168 203 255
168 203 255
168 203 255
168 203 255
168 203 255
168 203 255
168 203 255
168 203 255
168 203 255
168 203 255
168 203 255
168 203 255
168 203 255
168 203 255
168 203 255
168 203 255
168 203 255
168 203 255
168 203 255
168 203 255
168 203 255
168 203 255
168 203 255
168 203 255
168 203 255
168 203 255
168 203 255
168 203 255
168 203 255
168 203 255
168 203 255
168 203 255
167 203 255
167 203 255
167 203 255
167 203 255
167 203 255
167 203 255
167 203 255
167 203 255
167 203 255
167 203 255
167 203 255
167 203 255
167 203 255
167 203 255
167 202 255
167 202 255
167 202 255
167 202 255
167 202 255
167 202 255
167 202 255
167 202 255
167 202 255
167 202 255
167 202 255
167 202 255
167 202 255
167 202 255
167 202 255
167 202 255
167 202 255
167 202 255
167 202 255
167 202 255
167 202 255
167 202 255
167 202 255
167 202 255
167 202 255
167 202 255
167 202 255
167 202 255
167 202 255
167 202 255
166 202 255
166 202 255
166 202 255
166 202 255
166 202 255
166 202 255
166 202 255
166 202 255
166 202 255
166 202 255
166 202 255
166 202 255
166 202 255
166 202 255
166 202 255
166 202 255
166 202 255
166 202 255
166 202 255
166 202 255
166 202 255
166 202 255
166 202 255
166 202 255
166 202 255
166 202 255
166 202 255
166 202 255
166 202 255
166 202 255
166 202 255
166 202 255
166 202 255
166 202 255
166 202 255
166 202 255
166 202 255
166 202 255
166 202 255
166 202 255
166 202 255
166 202 255
166 202 255
166 202 255
166 202 255
166 202 255
166 202 255
166 202 255
166 202 255
166 202 255
166 202 255
166 202 255
166 202 255
166 202 255
166 202 255
166 202 255
166 202 255
166 202 255
166 202 255
166 202 255
166 202 255
166 202 255
166 202 255
166 202 255
166 202 255
166 202 255
166 202 255
166 202 255
166 202 255
166 202 255
166 202 255
166 202 255
166 202 255
166 202 255
166 202 255
166 202 255
166 202 255
166 202 255
166 202 255
166 202 255
166 202 255
166 202 255
166 202 255
166 202 255
166 202 255
166 202 255
166 202 255
166 202 255
166 202 255
166 202 255
166 202 255
166 202 255
166 202 255
166 202 255
166 202 255
166 202 255
166 202 255
166 202 255
166 202 255
166 202 255
166 202 255
167 202 255
167 202 255
167 202 255
167 202 255
167 202 255
167 202 255
167 202 255
167 202 255
167 202 255
167 202 255
167 202 255
167 202 255
167 202 255
167 202 255
167 202 255
167 202 255
167 202 255
167 202 255
167 202 255
167 202 255
167 202 255
167 202 255
167 202 255
167 202 255
167 202 255
167 202 255
167 202 255
167 202 255
167 202 255
167 202 255
167 203 255
167 203 255
167 203 255
167 203 255
167 203 255
167 203 255
167 203 255
167 203 255
167 203 255
167 203 255
167 203 255
167 203 255
167 203 255
168 203 255
168 203 255
168 203 255
168 203 255
168 203 255
168 203 255
168 203 255
168 203 255
168 203 255
168 203 255
168 203 255
168 203 255
168 203 255
168 203 255
168 203 255
168 203 255
168 203 255
168 203 255
168 203 255
168 203 255
168 203 255
168 203 255
168 203 255
168 203 255
168 203 255
168 203 255
168 203 255
168 203 255
168 203 255
168 203 255
168 203 255
168 203 255
168 203 255
168 203 255
168 203 255
168 203 255
168 203 255
168 203 255
168 203 255
168 203 255
168 203 255
169 203 255
169 203 255
169 203 255
169 203 255
169 203 255
169 203 255
169 203 255
169 203 255
169 203 255
169 203 255
169 203 255
169 203 255
169 203 255
169 203 255
169 204 255
169 204 255
169 204 255
169 204 255
169 204 255
169 204 255
169 204 255
169 204 255
169 204 255
169 204 255
169 204 255
169 204 255
169 204 255
169 204 255
169 204 255
169 204 255
169 204 255
169 204 255
169 204 255
169 204 255
169 204 255
169 204 255
169 204 255
169 204 255
169 204 255
169 204 255
169 204 255
169 204 255
169 204 255
169 204 255
169 204 255
169 204 255
169 204 255
169 204 255
170 204 255
170 204 255
170 204 255
170 204 255
170 204 255
170 204 255
170 204 255
170 204 255
170 204 255
170 204 255
170 204 255
170 204 255
170 204 255
170 204 255
170 204 255
170 204 255
170 204 255
170 204 255
170 204 255
170 204 255
170 204 255
170 204 255
170 204 255
170 204 255
170 204 255
170 204 255
170 204 255
170 204 255
170 204 255
170 204 255
170 204 255
170 204 255
170 204 255
170 204 255
170 204 255
170 204 255
170 204 255
170 204 255
170 204 255
170 204 255
170 204 255
170 204 255
170 204 255
170 204 255
170 204 255
170 204 255
170 204 255
169 204 255
169 204 255
169 204 255
169 204 255
169 204 255
169 204 255
169 204 255
169 204 255
169 204 255
169 204 255
169 204 255
169 204 255
169 204 255
169 204 255
169 204 255
169 204 255
169 204 255
169 204 255
169 204 255
169 204 255
169 204 255
169 204 255
169 204 255
169 204 255
169 204 255
169 204 255
169 204 255
169 204 255
169 204 255
169 204 255
169 204 255
169 203 255
169 203 255
169 203 255
169 203 255
169 203 255
169 203 255
169 203 255
169 203 255
169 203 255
169 203 255
169 203 255
169 203 255
169 203 255
169 203 255
169 203 255
168 203 255
168 203 255
168 203 255
168 203 255
168 203 255
168 203 255
168 203 255
168 203 255
168 203 255
168 203 255
168 203 255
168 203 255
168 203 255
168 203 255
168 203 255
168 203 255
168 203 255
168 203 255
168 203 255
168 203 255
168 203 255
168 203 255
168 203 255
168 203 255
168 203 255
168 203 255
168 203 255
168 203 255
168 203 255
168 203 255
168 203 255
168 203 255
168 203 255
168 203 255
168 203 255
168 203 255
168 203 255
168 203 255
168 203 255
168 203 255
167 203 255
167 203 255
167 203 255
167 203 255
167 203 255
167 203 255
167 203 255
167 203 255
167 203 255
167 203 255
167 203 255
167 203 255
167 203 255
167 202 255
167 202 255
167 202 255
167 202 255
167 202 255
167 202 255
167 202 255
167 202 255
167 202 255
167 202 255
167 202 255
167 202 255
167 202 255
167 202 255
167 202 255
167 202 255
167 202 255
167 202 255
167 202 255
167 202 255
167 202 255
167 202 255
167 202 255
167 202 255
167 202 255
167 202 255
167 202 255
167 202 255
167 202 255
167 202 255
167 202 255
167 202 255
167 202 255
167 202 255
167 202 255
166 202 255
166 202 255
166 202 255
166 202 255
166 202 255
166 202 255
166 202 255
166 202 255
166 202 255
166 202 255
166 202 255
166 202 255
166 202 255
166 202 255
166 202 255
166 202 255
166 202 255
166 202 255
166 202 255
166 202 255
166 202 255
166 202 255
166 202 255
166 202 255
166 202 255
166 202 255
166 202 255
166 202 255
166 202 255
166 202 255
166 202 255
166 202 255
166 202 255
166 202 255
166 202 255
166 202 255
166 202 255
166 202 255
166 202 255
166 202 255
166 202 255
166 202 255
166 202 255
166 202 255
166 202 255
166 202 255
166 202 255
166 202 255
166 202 255
166 202 255
166 202 255
166 202 255
166 202 255
166 202 255
166 202 255
166 202 255
166 202 255
166 202 255
166 202 255
166 202 255
166 202 255
166 202 255
166 202 255
166 202 255
166 202 255
166 202 255
166 202 255
166 202 255
166 202 255
166 202 255
166 202 255
166 202 255
167 202 255
167 202 255
167 202 255
167 202 255
167 202 255
167 202 255
167 202 255
167 202 255
167 202 255
167 202 255
167 202 255
167 202 255
167 202 255
167 202 255
167 202 255
167 202 255
167 202 255
167 202 255
167 202 255
167 202 255
167 202 255
167 202 255
167 202 255
167 202 255
167 202 255
167 202 255
167 202 255
167 202 255
167 202 255
167 202 255
167 202 255
167 202 255
167 202 255
167 202 255
167 203 255
167 203 255
167 203 255
167 203 255
167 203 255
167 203 255
167 203 255
167 203 255
167 203 255
167 203 255
167 203 255
167 203 255
167 203 255
167 203 255
168 203 255
168 203 255
168 203 255
168 203 255
168 203 255
168 203 255
168 203 255
168 203 255
168 203 255
168 203 255
168 203 255
168 203 255
168 203 255
168 203 255
168 203 255
168 203 255
168 203 255
168 203 255
168 203 255
168 203 255
168 203 255
168 203 255
168 203 255
168 203 255
168 203 255
168 203 255
168 203 255
168 203 255
168 203 255
168 203 255
168 203 255
168 203 255
168 203 255
168 203 255
168 203 255
168 203 255
168 203 255
168 203 255
168 203 255
168 203 255
168 203 255
169 203 255
169 203 255
169 203 255
169 203 255
169 203 255
169 203 255
169 203 255
169 203 255
169 203 255
169 203 255
169 203 255
169 203 255
169 203 255
169 203 255
169 204 255
169 204 255
169 204 255
169 204 255
169 204 255
169 204 255
169 204 255
169 204 255
169 204 255
169 204 255
169 204 255
169 204 255
169 204 255
169 204 255
169 204 255
169 204 255
169 204 255
169 204 255
169 204 255
169 204 255
169 204 255
169 204 255
169 204 255
169 204 255
169 204 255
169 204 255
169 204 255
169 204 255
169 204 255
169 204 255
169 204 255
170 204 255
170 204 255
170 204 255
170 204 255
170 204 255
170 204 255
170 204 255
170 204 255
170 204 255
170 204 255
170 204 255
170 204 255
170 204 255
170 204 255
170 204 255
170 204 255
170 204 255
170 204 255
170 204 255
170 204 255
170 204 255
170 204 255
170 204 255
170 204 255
170 204 255
170 204 255
170 204 255
170 204 255
170 204 255
170 204 255
170 204 255
170 204 255
170 204 255
170 204 255
170 204 255
170 204 255
170 204 255
170 204 255
170 204 255
170 204 255
170 204 255
170 204 255
170 204 255
170 204 255
170 204 255
170 204 255
170 204 255
170 204 255
170 204 255
170 204 255
170 204 255
170 204 255
170 204 255
170 204 255
170 204 255
170 204 255
170 204 255
170 204 255
170 204 255
170 204 255
170 204 255
170 204 255
170 204 255
170 204 255
170 204 255
170 204 255
170 204 255
170 204 255
170 204 255
170 204 255
170 204 255
169 204 255
169 204 255
169 204 255
169 204 255
169 204 255
169 204 255
169 204 255
169 204 255
169 204 255
169 204 255
169 204 255
169 204 255
169 204 255
169 204 255
169 204 255
169 204 255
169 204 255
169 204 255
169 204 255
169 204 255
169 204 255
169 204 255
169 204 255
169 204 255
169 204 255
169 204 255
169 204 255
169 204 255
169 204 255
169 204 255
169 203 255
169 203 255
169 203 255
169 203 255
169 203 255
169 203 255
169 203 255
169 203 255
169 203 255
169 203 255
169 203 255
169 203 255
169 203 255
169 203 255
168 203 255
168 203 255
168 203 255
168 203 255
168 203 255
168 203 255
168 203 255
168 203 255
168 203 255
168 203 255
168 203 255
168 203 255
168 203 255
168 203 255
168 203 255
168 203 255
168 203 255
168 203 255
168 203 255
168 203 255
168 203 255
168 203 255
168 203 255
168 203 255
168 203 255
168 203 255
168 203 255
168 203 255
168 203 255
168 203 255
168 203 255
168 203 255
168 203 255
168 203 255
168 203 255
168 203 255
168 203 255
168 203 255
168 203 255
168 203 255
168 203 255
167 203 255
167 203 255
167 203 255
167 203 255
167 203 255
167 203 255
167 203 255
167 203 255
167 203 255
167 203 255
167 203 255
167 203 255
167 203 255
167 203 255
167 203 255
167 202 255
167 202 255
167 202 255
167 202 255
167 202 255
167 202 255
167 202 255
167 202 255
167 202 255
167 202 255
167 202 255
167 202 255
167 202 255
167 202 255
167 202 255
167 202 255
167 202 255
167 202 255
167 202 255
167 202 255
167 202 255
167 202 255
167 202 255
167 202 255
167 202 255
167 202 255
167 202 255
167 202 255
167 202 255
167 202 255
167 202 255
167 202 255
167 202 255
167 202 255
167 202 255
167 202 255
167 202 255
167 202 255
167 202 255
167 202 255
167 202 255
167 202 255
167 202 255
167 202 255
167 202 255
167 202 255
166 202 255
166 202 255
166 202 255
166 202 255
166 202 255
166 202 255
166 202 255
166 202 255
166 202 255
166 202 255
166 202 255
166 202 255
166 202 255
166 202 255
166 202 255
166 202 255
166 202 255
166 202 255
166 202 255
166 202 255
166 202 255
166 202 255
166 202 255
167 202 255
166 202 255
166 202 255
167 202 255
167 202 255
167 202 255
167 202 255
167 202 255
167 202 255
167 202 255
167 202 255
167 202 255
167 202 255
167 202 255
167 202 255
167 202 255
167 202 255
167 202 255
167 202 255
167 202 255
167 202 255
167 202 255
167 202 255
167 202 255
167 202 255
167 202 255
167 202 255
167 202 255
167 202 255
167 202 255
167 202 255
167 202 255
167 202 255
167 202 255
167 202 255
167 202 255
167 202 255
167 202 255
167 202 255
167 202 255
167 202 255
167 202 255
167 202 255
167 202 255
167 202 255
167 202 255
167 202 255
167 202 255
167 202 255
167 203 255
167 203 255
167 203 255
167 203 255
167 203 255
167 203 255
167 203 255
167 203 255
167 203 255
167 203 255
167 203 255
167 203 255
167 203 255
167 203 255
167 203 255
168 203 255
168 203 255
168 203 255
168 203 255
168 203 255
168 203 255
168 203 255
168 203 255
168 203 255
168 203 255
168 203 255
168 203 255
168 203 255
168 203 255
168 203 255
168 203 255
168 203 255
168 203 255
168 203 255
168 203 255
168 203 255
168 203 255
168 203 255
168 203 255
168 203 255
168 203 255
168 203 255
168 203 255
168 203 255
168 203 255
168 203 255
168 203 255
168 203 255
168 203 255
168 203 255
168 203 255
168 203 255
168 203 255
168 203 255
168 203 255
168 203 255
169 203 255
169 203 255
169 203 255
169 203 255
169 203 255
169 203 255
169 203 255
169 203 255
169 203 255
169 203 255
169 203 255
169 203 255
169 203 255
169 203 255
169 204 255
169 204 255
169 204 255
169 204 255
169 204 255
169 204 255
169 204 255
169 204 255
169 204 255
169 204 255
169 204 255
169 204 255
169 204 255
169 204 255
169 204 255
169 204 255
169 204 255
169 204 255
169 204 255
169 204 255
169 204 255
169 204 255
169 204 255
169 204 255
169 204 255
169 204 255
169 204 255
169 204 255
169 204 255
170 204 255
170 204 255
170 204 255
170 204 255
170 204 255
170 204 255
170 204 255
170 204 255
170 204 255
170 204 255
170 204 255
170 204 255
170 204 255
170 204 255
170 204 255
170 204 255
170 204 255
170 204 255
170 204 255
170 204 255
170 204 255
170 204 255
170 204 255
170 204 255
170 204 255
170 204 255
170 204 255
170 204 255
170 204 255
170 204 255
170 204 255
170 204 255
170 204 255
170 204 255
170 204 255
170 204 255
170 204 255
170 204 255
170 204 255
170 204 255
170 204 255
170 204 255
170 204 255
170 204 255
170 204 255
170 204 255
170 204 255
170 204 255
170 204 255
170 204 255
170 204 255
170 204 255
170 204 255
170 204 255
170 204 255
170 204 255
170 204 255
170 204 255
170 204 255
170 204 255
170 204 255
170 204 255
170 204 255
170 204 255
170 204 255
170 204 255
170 204 255
170 204 255
170 204 255
170 204 255
170 204 255
170 204 255
170 204 255
170 204 255
170 204 255
170 204 255
170 204 255
170 204 255
170 204 255
170 204 255
170 204 255
170 204 255
170 204 255
170 204 255
170 204 255
170 204 255
170 204 255
170 204 255
170 204 255
170 204 255
170 204 255
170 204 255
170 204 255
170 204 255
169 204 255
169 204 255
169 204 255
169 204 255
169 204 255
169 204 255
169 204 255
169 204 255
169 204 255
169 204 255
169 204 255
169 204 255
169 204 255
169 204 255
169 204 255
169 204 255
169 204 255
169 204 255
169 204 255
169 204 255
169 204 255
169 204 255
169 204 255
169 204 255
169 204 255
169 204 255
169 204 255
169 204 255
169 204 255
169 203 255
169 203 255
169 203 255
169 203 255
169 203 255
169 203 255
169 203 255
169 203 255
169 203 255
169 203 255
169 203 255
169 203 255
169 203 255
169 203 255
168 203 255
168 203 255
168 203 255
168 203 255
168 203 255
168 203 255
168 203 255
168 203 255
168 203 255
168 203 255
168 203 255
168 203 255
168 203 255
168 203 255
168 203 255
168 203 255
168 203 255
168 203 255
168 203 255
168 203 255
168 203 255
168 203 255
168 203 255
168 203 255
168 203 255
168 203 255
168 203 255
168 203 255
168 203 255
168 203 255
168 203 255
168 203 255
168 203 255
168 203 255
168 203 255
168 203 255
168 203 255
168 203 255
168 203 255
168 203 255
168 203 255
168 203 255
167 203 255
167 203 255
167 203 255
167 203 255
167 203 255
167 203 255
167 203 255
167 203 255
167 203 255
167 203 255
167 203 255
167 203 255
167 203 255
167 203 255
167 203 255
167 203 255
167 202 255
167 202 255
167 202 255
167 202 255
167 202 255
167 202 255
167 202 255
167 202 255
167 202 255
167 202 255
167 202 255
167 202 255
167 202 255
167 202 255
167 202 255
167 202 255
167 202 255
167 202 255
167 202 255
167 202 255
167 202 255
167 202 255
167 202 255
167 202 255
167 202 255
167 202 255
167 202 255
167 202 255
167 202 255
167 202 255
167 202 255
167 202 255
167 202 255
167 202 255
167 202 255
167 202 255
167 202 255
167 202 255
167 202 255
167 202 255
167 202 255
167 202 255
167 202 255
167 202 255
167 202 255
167 202 255
167 202 255
167 202 255
167 202 255
167 202 255
167 202 255
167 202 255
167 202 255
167 202 255
167 202 255
167 202 255
167 202 255
167 202 255
167 202 255
167 202 255
167 202 255
167 202 255
167 202 255
167 202 255
167 202 255
167 202 255
167 202 255
167 202 255
167 202 255
167 202 255
167 202 255
167 202 255
167 202 255
167 202 255
167 202 255
167 202 255
167 202 255
167 202 255
167 202 255
167 202 255
167 202 255
167 202 255
167 202 255
167 202 255
167 202 255
167 202 255
167 202 255
167 202 255
167 202 255
167 202 255
167 202 255
167 202 255
167 202 255
167 203 255
167 203 255
167 203 255
167 203 255
167 203 255
167 203 255
167 203 255
167 203 255
167 203 255
167 203 255
167 203 255
167 203 255
167 203 255
167 203 255
167 203 255
167 203 255
167 203 255
168 203 255
168 203 255
168 203 255
168 203 255
168 203 255
168 203 255
168 203 255
168 203 255
168 203 255
168 203 255
168 203 255
168 203 255
168 203 255
168 203 255
168 203 255
168 203 255
168 203 255
168 203 255
168 203 255
168 203 255
168 203 255
168 203 255
168 203 255
168 203 255
168 203 255
168 203 255
168 203 255
168 203 255
168 203 255
168 203 255
168 203 255
168 203 255
168 203 255
168 203 255
168 203 255
168 203 255
168 203 255
168 203 255
168 203 255
168 203 255
168 203 255
168 203 255
169 203 255
169 203 255
169 203 255
169 203 255
169 203 255
169 203 255
169 203 255
169 203 255
169 203 255
169 203 255
169 203 255
169 203 255
169 203 255
169 203 255
169 204 255
169 204 255
169 204 255
169 204 255
169 204 255
169 204 255
169 204 255
169 204 255
169 204 255
169 204 255
169 204 255
169 204 255
169 204 255
169 204 255
169 204 255
169 204 255
169 204 255
169 204 255
169 204 255
169 204 255
169 204 255
169 204 255
169 204 255
169 204 255
169 204 255
169 204 255
169 204 255
169 204 255
169 204 255
170 204 255
170 204 255
170 204 255
170 204 255
170 204 255
170 204 255
170 204 255
170 204 255
170 204 255
170 204 255
170 204 255
170 204 255
170 204 255
170 204 255
170 204 255
170 204 255
170 204 255
170 204 255
170 204 255
170 204 255
170 204 255
170 204 255
170 204 255
170 204 255
170 204 255
170 204 255
170 204 255
170 204 255
170 204 255
170 204 255
170 204 255
170 204 255
170 204 255
170 204 255
170 204 255
170 204 255
170 204 255
170 204 255
170 204 255
170 204 255
170 204 255
170 204 255
170 204 255
170 204 255
170 204 255
170 204 255
170 204 255
170 204 255
170 204 255
170 204 255
170 204 255
170 204 255
171 205 255
171 205 255
171 205 255
171 205 255
171 205 255
171 205 255
171 205 255
171 205 255
171 205 255
171 205 255
171 205 255
171 205 255
171 205 255
170 204 255
170 204 255
170 204 255
170 204 255
170 204 255
170 204 255
170 204 255
170 204 255
170 204 255
170 204 255
170 204 255
170 204 255
170 204 255
170 204 255
170 204 255
170 204 255
170 204 255
170 204 255
170 204 255
170 204 255
170 204 255
170 204 255
170 204 255
170 204 255
170 204 255
170 204 255
170 204 255
170 204 255
170 204 255
170 204 255
170 204 255
170 204 255
170 204 255
170 204 255
170 204 255
170 204 255
170 204 255
170 204 255
170 204 255
170 204 255
170 204 255
170 204 255
170 204 255
170 204 255
170 204 255
170 204 255
170 204 255
170 204 255
170 204 255
170 204 255
169 204 255
169 204 255
169 204 255
169 204 255
169 204 255
169 204 255
169 204 255
169 204 255
169 204 255
169 204 255
169 204 255
169 204 255
169 204 255
169 204 255
169 204 255
169 204 255
169 204 255
169 204 255
169 204 255
169 204 255
169 204 255
169 204 255
169 204 255
169 204 255
169 204 255
169 204 255
169 204 255
169 204 255
169 203 255
169 203 255
169 203 255
169 203 255
169 203 255
169 203 255
169 203 255
169 203 255
169 203 255
169 203 255
169 203 255
169 203 255
169 203 255
169 203 255
168 203 255
168 203 255
168 203 255
168 203 255
168 203 255
168 203 255
168 203 255
168 203 255
168 203 255
168 203 255
168 203 255
168 203 255
168 203 255
168 203 255
168 203 255
168 203 255
168 203 255
168 203 255
168 203 255
168 203 255
168 203 255
168 203 255
168 203 255
168 203 255
168 203 255
168 203 255
168 203 255
168 203 255
168 203 255
168 203 255
168 203 255
168 203 255
168 203 255
168 203 255
168 203 255
168 203 255
168 203 255
168 203 255
168 203 255
168 203 255
168 203 255
168 203 255
168 203 255
168 203 255
167 203 255
167 203 255
167 203 255
167 203 255
167 203 255
167 203 255
167 203 255
167 203 255
167 203 255
167 203 255
167 203 255
167 203 255
167 203 255
167 203 255
167 203 255
167 203 255
167 203 255
167 203 255
167 203 255
167 203 255
167 202 255
167 202 255
167 202 255
167 202 255
167 202 255
167 202 255
167 202 255
167 202 255
167 202 255
167 202 255
167 202 255
167 202 255
167 202 255
167 202 255
167 202 255
167 202 255
167 202 255
167 202 255
167 202 255
167 202 255
167 202 255
167 202 255
167 202 255
167 202 255
167 202 255
167 202 255
167 202 255
167 202 255
167 202 255
167 202 255
167 202 255
167 202 255
167 202 255
167 202 255
167 202 255
167 202 255
167 202 255
167 202 255
167 202 255
167 202 255
167 202 255
167 202 255
167 202 255
167 202 255
167 202 255
167 202 255
167 202 255
167 202 255
167 202 255
167 202 255
167 202 255
167 202 255
167 202 255
167 202 255
167 202 255
167 202 255
167 202 255
167 202 255
167 202 255
167 202 255
167 202 255
167 203 255
167 203 255
167 203 255
167 203 255
167 203 255
167 203 255
167 203 255
167 203 255
167 203 255
167 203 255
167 203 255
167 203 255
167 203 255
167 203 255
167 203 255
167 203 255
167 203 255
167 203 255
167 203 255
167 203 255
168 203 255
168 203 255
168 203 255
168 203 255
168 203 255
168 203 255
168 203 255
168 203 255
168 203 255
168 203 255
168 203 255
168 203 255
168 203 255
168 203 255
168 203 255
168 203 255
168 203 255
168 203 255
168 203 255
168 203 255
168 203 255
168 203 255
168 203 255
168 203 255
168 203 255
168 203 255
168 203 255
168 203 255
168 203 255
168 203 255
168 203 255
168 203 255
168 203 255
168 203 255
168 203 255
168 203 255
168 203 255
168 203 255
168 203 255
168 203 255
168 203 255
168 203 255
168 203 255
168 203 255
168 203 255
169 203 255
169 203 255
169 203 255
169 203 255
169 203 255
169 203 255
169 203 255
169 203 255
169 203 255
169 203 255
169 203 255
169 203 255
169 203 255
169 203 255
169 204 255
169 204 255
169 204 255
169 204 255
169 204 255
169 204 255
169 204 255
169 204 255
169 204 255
169 204 255
169 204 255
169 204 255
169 204 255
169 204 255
169 204 255
169 204 255
169 204 255
169 204 255
169 204 255
169 204 255
169 204 255
169 204 255
169 204 255
169 204 255
169 204 255
169 204 255
169 204 255
169 204 255
170 204 255
170 204 255
170 204 255
170 204 255
170 204 255
170 204 255
170 204 255
170 204 255
170 204 255
170 204 255
170 204 255
170 204 255
170 204 255
170 204 255
170 204 255
170 204 255
170 204 255
170 204 255
170 204 255
170 204 255
170 204 255
170 204 255
170 204 255
170 204 255
170 204 255
170 204 255
170 204 255
170 204 255
170 204 255
170 204 255
170 204 255
170 204 255
170 204 255
170 204 255
170 204 255
170 204 255
170 204 255
170 204 255
170 204 255
170 204 255
170 204 255
170 204 255
170 204 255
170 204 255
170 204 255
170 204 255
170 204 255
170 204 255
170 204 255
170 204 255
171 205 255
171 205 255
171 205 255
171 205 255
171 205 255
171 205 255
171 205 255
171 205 255
171 205 255
171 205 255
171 205 255
171 205 255
171 205 255
171 205 255
171 205 255
171 205 255
171 205 255
171 205 255
171 205 255
171 205 255
171 205 255
171 205 255
171 205 255
171 205 255
171 205 255
171 205 255
171 205 255
171 205 255
171 205 255
171 205 255
171 205 255
171 205 255
171 205 255
171 205 255
171 205 255
171 205 255
171 205 255
171 205 255
171 205 255
170 204 255
170 204 255
170 204 255
170 204 255
170 204 255
170 204 255
170 204 255
170 204 255
170 204 255
170 204 255
170 204 255
170 204 255
170 204 255
170 204 255
170 204 255
170 204 255
170 204 255
170 204 255
170 204 255
170 204 255
170 204 255
170 204 255
170 204 255
170 204 255
170 204 255
170 204 255
170 204 255
170 204 255
170 204 255
170 204 255
170 204 255
170 204 255
170 204 255
170 204 255
170 204 255
170 204 255
170 204 255
170 204 255
170 204 255
170 204 255
170 204 255
170 204 255
170 204 255
170 204 255
170 204 255
170 204 255
170 204 255
169 204 255
169 204 255
169 204 255
169 204 255
169 204 255
169 204 255
169 204 255
169 204 255
169 204 255
169 204 255
169 204 255
169 204 255
169 204 255
169 204 255
169 204 255
169 204 255
169 204 255
169 204 255
169 204 255
169 204 255
169 204 255
169 204 255
169 204 255
169 204 255
169 204 255
169 204 255
169 204 255
169 204 255
169 204 255
169 203 255
169 203 255
169 203 255
169 203 255
169 203 255
169 203 255
169 203 255
169 203 255
169 203 255
169 203 255
169 203 255
169 203 255
169 203 255
168 203 255
168 203 255
168 203 255
168 203 255
168 203 255
168 203 255
168 203 255
168 203 255
168 203 255
168 203 255
168 203 255
168 203 255
168 203 255
168 203 255
168 203 255
168 203 255
168 203 255
168 203 255
168 203 255
168 203 255
168 203 255
168 203 255
168 203 255
168 203 255
168 203 255
168 203 255
168 203 255
168 203 255
168 203 255
168 203 255
168 203 255
168 203 255
168 203 255
168 203 255
168 203 255
168 203 255
168 203 255
168 203 255
168 203 255
168 203 255
168 203 255
168 203 255
168 203 255
168 203 255
168 203 255
168 203 255
168 203 255
168 203 255
168 203 255
167 203 255
167 203 255
167 203 255
167 203 255
167 203 255
167 203 255
167 203 255
167 203 255
167 203 255
167 203 255
167 203 255
167 203 255
167 203 255
167 203 255
167 203 255
167 203 255
167 203 255
167 203 255
167 203 255
167 203 255
167 203 255
167 203 255
167 203 255
167 203 255
167 203 255
167 203 255
167 203 255
167 203 255
167 203 255
167 203 255
167 203 255
167 203 255
167 203 255
167 203 255
167 203 255
167 203 255
167 203 255
167 203 255
167 203 255
167 203 255
167 203 255
167 203 255
167 203 255
167 203 255
167 203 255
167 203 255
167 203 255
167 203 255
167 203 255
167 203 255
167 203 255
167 203 255
167 203 255
167 203 255
167 203 255
167 203 255
167 203 255
167 203 255
167 203 255
167 203 255
167 203 255
167 203 255
167 203 255
167 203 255
167 203 255
167 203 255
167 203 255
167 203 255
167 203 255
167 203 255
167 203 255
167 203 255
168 203 255
168 203 255
168 203 255
168 203 255
168 203 255
168 203 255
168 203 255
168 203 255
168 203 255
168 203 255
168 203 255
168 203 255
168 203 255
168 203 255
168 203 255
168 203 255
168 203 255
168 203 255
168 203 255
168 203 255
168 203 255
168 203 255
168 203 255
168 203 255
168 203 255
168 203 255
168 203 255
168 203 255
168 203 255
168 203 255
168 203 255
168 203 255
168 203 255
168 203 255
168 203 255
168 203 255
168 203 255
168 203 255
168 203 255
168 203 255
168 203 255
168 203 255
168 203 255
168 203 255
168 203 255
168 203 255
168 203 255
168 203 255
168 203 255
169 203 255
169 203 255
169 203 255
169 203 255
169 203 255
169 203 255
169 203 255
169 203 255
169 203 255
169 203 255
169 203 255
169 203 255
169 203 255
169 204 255
169 204 255
169 204 255
169 204 255
169 204 255
169 204 255
169 204 255
169 204 255
169 204 255
169 204 255
169 204 255
169 204 255
169 204 255
169 204 255
169 204 255
169 204 255
169 204 255
169 204 255
169 204 255
169 204 255
169 204 255
169 204 255
169 204 255
169 204 255
169 204 255
169 204 255
169 204 255
169 204 255
170 204 255
170 204 255
170 204 255
170 204 255
170 204 255
170 204 255
170 204 255
170 204 255
170 204 255
170 204 255
170 204 255
170 204 255
170 204 255
170 204 255
170 204 255
170 204 255
170 204 255
170 204 255
170 204 255
170 204 255
170 204 255
170 204 255
170 204 255
170 204 255
170 204 255
170 204 255
170 204 255
170 204 255
170 204 255
170 204 255
170 204 255
170 204 255
170 204 255
170 204 255
170 204 255
170 204 255
170 204 255
170 204 255
170 204 255
170 204 255
170 204 255
170 204 255
170 204 255
170 204 255
170 204 255
170 204 255
170 204 255
170 204 255
171 205 255
171 205 255
171 205 255
171 205 255
171 205 255
171 205 255
171 205 255
171 205 255
171 205 255
171 205 255
171 205 255
171 205 255
171 205 255
171 205 255
171 205 255
171 205 255
171 205 255
171 205 255
171 205 255
171 205 255
171 205 255
171 205 255
171 205 255
171 205 255
171 205 255
171 205 255
171 205 255
171 205 255
171 205 255
171 205 255
171 205 255
171 205 255
171 205 255
171 205 255
171 205 255
171 205 255
171 205 255
171 205 255
171 205 255
171 205 255
171 205 255
171 205 255
171 205 255
171 205 255
171 205 255
171 205 255
171 205 255
171 205 255
171 205 255
171 205 255
171 205 255
171 205 255
171 205 255
171 205 255
171 205 255
171 205 255
171 205 255
171 205 255
171 205 255
171 205 255
171 205 255
171 205 255
171 205 255
171 205 255
170 204 255
170 204 255
170 204 255
170 204 255
170 204 255
170 204 255
170 204 255
170 204 255
170 204 255
170 204 255
170 204 255
170 204 255
170 204 255
170 204 255
170 204 255
170 204 255
170 204 255
170 204 255
170 204 255
170 204 255
170 204 255
170 204 255
170 204 255
170 204 255
170 204 255
170 204 255
170 204 255
170 204 255
170 204 255
170 204 255
170 204 255
170 204 255
170 204 255
170 204 255
170 204 255
170 204 255
170 204 255
170 204 255
170 204 255
170 204 255
170 204 255
170 204 255
170 204 255
170 204 255
170 204 255
170 204 255
169 204 255
169 204 255
169 204 255
169 204 255
169 204 255
169 204 255
169 204 255
169 204 255
169 204 255
169 204 255
169 204 255
169 204 255
169 204 255
169 204 255
169 204 255
169 204 255
169 204 255
169 204 255
169 204 255
169 204 255
169 204 255
169 204 255
169 204 255
169 204 255
169 204 255
169 204 255
169 204 255
169 203 255
169 203 255
169 203 255
169 203 255
169 203 255
169 203 255
169 203 255
169 203 255
169 203 255
169 203 255
169 203 255
169 203 255
169 203 255
169 203 255
168 203 255
168 203 255
168 203 255
168 203 255
168 203 255
168 203 255
168 203 255
168 203 255
168 203 255
168 203 255
168 203 255
168 203 255
168 203 255
168 203 255
168 203 255
168 203 255
168 203 255
168 203 255
168 203 255
168 203 255
168 203 255
168 203 255
168 203 255
168 203 255
168 203 255
168 203 255
168 203 255
168 203 255
168 203 255
168 203 255
168 203 255
168 203 255
168 203 255
168 203 255
168 203 255
168 203 255
168 203 255
168 203 255
168 203 255
168 203 255
168 203 255
168 203 255
168 203 255
168 203 255
168 203 255
168 203 255
168 203 255
168 203 255
168 203 255
168 203 255
168 203 255
168 203 255
168 203 255
168 203 255
168 203 255
168 203 255
168 203 255
168 203 255
168 203 255
168 203 255
168 203 255
168 203 255
168 203 255
168 203 255
168 203 255
167 203 255
167 203 255
167 203 255
167 203 255
167 203 255
167 203 255
167 203 255
167 203 255
167 203 255
167 203 255
167 203 255
167 203 255
167 203 255
167 203 255
167 203 255
167 203 255
167 203 255
168 203 255
167 203 255
167 203 255
168 203 255
167 203 255
168 203 255
168 203 255
168 203 255
168 203 255
168 203 255
168 203 255
168 203 255
168 203 255
168 203 255
168 203 255
168 203 255
168 203 255
168 203 255
168 203 255
168 203 255
168 203 255
168 203 255
168 203 255
168 203 255
168 203 255
168 203 255
168 203 255
168 203 255
168 203 255
168 203 255
168 203 255
168 203 255
168 203 255
168 203 255
168 203 255
168 203 255
168 203 255
168 203 255
168 203 255
168 203 255
168 203 255
168 203 255
168 203 255
168 203 255
168 203 255
168 203 255
168 203 255
168 203 255
168 203 255
168 203 255
168 203 255
168 203 255
168 203 255
168 203 255
168 203 255
168 203 255
168 203 255
168 203 255
168 203 255
168 203 255
168 203 255
168 203 255
168 203 255
168 203 255
168 203 255
168 203 255
168 203 255
169 203 255
169 203 255
169 203 255
169 203 255
169 203 255
169 203 255
169 203 255
169 203 255
169 203 255
169 203 255
169 203 255
169 203 255
169 203 255
169 203 255
169 204 255
169 204 255
169 204 255
169 204 255
169 204 255
169 204 255
169 204 255
169 204 255
169 204 255
169 204 255
169 204 255
169 204 255
169 204 255
169 204 255
169 204 255
169 204 255
169 204 255
169 204 255
169 204 255
169 204 255
169 204 255
169 204 255
169 204 255
169 204 255
169 204 255
169 204 255
169 204 255
170 204 255
170 204 255
170 204 255
170 204 255
170 204 255
170 204 255
170 204 255
170 204 255
170 204 255
170 204 255
170 204 255
170 204 255
170 204 255
170 204 255
170 204 255
170 204 255
170 204 255
170 204 255
170 204 255
170 204 255
170 204 255
170 204 255
170 204 255
170 204 255
170 204 255
170 204 255
170 204 255
170 204 255
170 204 255
170 204 255
170 204 255
170 204 255
170 204 255
170 204 255
170 204 255
170 204 255
170 204 255
170 204 255
170 204 255
170 204 255
170 204 255
170 204 255
170 204 255
170 204 255
170 204 255
170 204 255
170 204 255
171 205 255
171 205 255
171 205 255
171 205 255
171 205 255
171 205 255
171 205 255
171 205 255
171 205 255
171 205 255
171 205 255
171 205 255
171 205 255
171 205 255
171 205 255
171 205 255
171 205 255
171 205 255
171 205 255
171 205 255
171 205 255
171 205 255
171 205 255
171 205 255
171 205 255
171 205 255
171 205 255
171 205 255
171 205 255
171 205 255
171 205 255
171 205 255
171 205 255
171 205 255
171 205 255
171 205 255
171 205 255
171 205 255
171 205 255
171 205 255
171 205 255
171 205 255
171 205 255
171 205 255
171 205 255
171 205 255
171 205 255
171 205 255
171 205 255
171 205 255
171 205 255
171 205 255
171 205 255
171 205 255
171 205 255
171 205 255
171 205 255
171 205 255
171 205 255
171 205 255
171 205 255
171 205 255
171 205 255
171 205 255
171 205 255
171 205 255
171 205 255
171 205 255
171 205 255
171 205 255
171 205 255
171 205 255
171 205 255
171 205 255
171 205 255
171 205 255
171 205 255
171 205 255
171 205 255
171 205 255
171 205 255
171 205 255
171 205 255
171 205 255
171 205 255
171 205 255
171 205 255
171 205 255
170 204 255
170 204 255
170 204 255
170 204 255
170 204 255
170 204 255
170 204 255
170 204 255
170 204 255
170 204 255
170 204 255
170 204 255
170 204 255
170 204 255
170 204 255
170 204 255
170 204 255
170 204 255
170 204 255
170 204 255
170 204 255
170 204 255
170 204 255
170 204 255
170 204 255
170 204 255
170 204 255
170 204 255
170 204 255
170 204 255
170 204 255
170 204 255
170 204 255
170 204 255
170 204 255
170 204 255
170 204 255
170 204 255
170 204 255
170 204 255
170 204 255
170 204 255
170 204 255
170 204 255
169 204 255
169 204 255
169 204 255
169 204 255
169 204 255
169 204 255
169 204 255
169 204 255
169 204 255
169 204 255
169 204 255
169 204 255
169 204 255
169 204 255
169 204 255
169 204 255
169 204 255
169 204 255
169 204 255
169 204 255
169 204 255
169 204 255
169 204 255
169 204 255
169 204 255
169 204 255
169 204 255
169 204 255
169 203 255
169 203 255
169 203 255
169 203 255
169 203 255
169 203 255
169 203 255
169 203 255
169 203 255
169 203 255
169 203 255
169 203 255
169 203 255
169 203 255
169 203 255
168 203 255
168 203 255
168 203 255
168 203 255
168 203 255
168 203 255
168 203 255
168 203 255
168 203 255
168 203 255
168 203 255
168 203 255
168 203 255
168 203 255
168 203 255
168 203 255
168 203 255
168 203 255
168 203 255
168 203 255
168 203 255
168 203 255
168 203 255
168 203 255
168 203 255
168 203 255
168 203 255
168 203 255
168 203 255
168 203 255
168 203 255
168 203 255
168 203 255
168 203 255
168 203 255
168 203 255
168 203 255
168 203 255
168 203 255
168 203 255
168 203 255
168 203 255
168 203 255
168 203 255
168 203 255
168 203 255
168 203 255
168 203 255
168 203 255
168 203 255
168 203 255
168 203 255
168 203 255
168 203 255
168 203 255
168 203 255
168 203 255
168 203 255
168 203 255
168 203 255
168 203 255
168 203 255
168 203 255
168 203 255
168 203 255
168 203 255
168 203 255
168 203 255
168 203 255
168 203 255
168 203 255
168 203 255
168 203 255
168 203 255
168 203 255
168 203 255
168 203 255
168 203 255
168 203 255
168 203 255
168 203 255
168 203 255
168 203 255
168 203 255
168 203 255
168 203 255
168 203 255
168 203 255
168 203 255
168 203 255
168 203 255
168 203 255
168 203 255
168 203 255
168 203 255
168 203 255
168 203 255
168 203 255
168 203 255
168 203 255
168 203 255
168 203 255
168 203 255
168 203 255
168 203 255
168 203 255
168 203 255
168 203 255
168 203 255
168 203 255
168 203 255
168 203 255
168 203 255
168 203 255
168 203 255
168 203 255
168 203 255
168 203 255
168 203 255
168 203 255
168 203 255
168 203 255
168 203 255
168 203 255
168 203 255
168 203 255
169 203 255
169 203 255
169 203 255
169 203 255
169 203 255
169 203 255
169 203 255
169 203 255
169 203 255
169 203 255
169 203 255
169 203 255
169 203 255
169 203 255
169 203 255
169 204 255
169 204 255
169 204 255
169 204 255
169 204 255
169 204 255
169 204 255
169 204 255
169 204 255
169 204 255
169 204 255
169 204 255
169 204 255
169 204 255
169 204 255
169 204 255
169 204 255
169 204 255
169 204 255
169 204 255
169 204 255
169 204 255
169 204 255
169 204 255
169 204 255
169 204 255
169 204 255
169 204 255
170 204 255
170 204 255
170 204 255
170 204 255
170 204 255
170 204 255
170 204 255
170 204 255
170 204 255
170 204 255
170 204 255
170 204 255
170 204 255
170 204 255
170 204 255
170 204 255
170 204 255
170 204 255
170 204 255
170 204 255
170 204 255
170 204 255
170 204 255
170 204 255
170 204 255
170 204 255
170 204 255
170 204 255
170 204 255
170 204 255
170 204 255
170 204 255
170 204 255
170 204 255
170 204 255
170 204 255
170 204 255
170 204 255
170 204 255
170 204 255
170 204 255
170 204 255
170 204 255
170 204 255
171 205 255
171 205 255
171 205 255
171 205 255
171 205 255
171 205 255
171 205 255
171 205 255
171 205 255
171 205 255
171 205 255
171 205 255
171 205 255
171 205 255
171 205 255
171 205 255
171 205 255
171 205 255
171 205 255
171 205 255
171 205 255
171 205 255
171 205 255
171 205 255
171 205 255
171 205 255
171 205 255
171 205 255
171 205 255
171 205 255
171 205 255
171 205 255
171 205 255
171 205 255
171 205 255
171 205 255
171 205 255
171 205 255
171 205 255
171 205 255
171 205 255
171 205 255
171 205 255
171 205 255
171 205 255
171 205 255
171 205 255
171 205 255
171 205 255
171 205 255
172 205 255
172 205 255
172 205 255
172 205 255
172 205 255
172 205 255
172 205 255
172 205 255
172 205 255
171 205 255
171 205 255
171 205 255
171 205 255
171 205 255
171 205 255
171 205 255
171 205 255
171 205 255
171 205 255
171 205 255
171 205 255
171 205 255
171 205 255
171 205 255
171 205 255
171 205 255
171 205 255
171 205 255
171 205 255
171 205 255
171 205 255
171 205 255
171 205 255
171 205 255
171 205 255
171 205 255
171 205 255
171 205 255
171 205 255
171 205 255
171 205 255
171 205 255
171 205 255
171 205 255
171 205 255
171 205 255
171 205 255
171 205 255
171 205 255
171 205 255
171 205 255
171 205 255
171 205 255
171 205 255
171 205 255
171 205 255
171 205 255
171 205 255
171 205 255
171 205 255
171 205 255
170 204 255
170 204 255
170 204 255
170 204 255
170 204 255
170 204 255
170 204 255
170 204 255
170 204 255
170 204 255
170 204 255
170 204 255
170 204 255
170 204 255
170 204 255
170 204 255
170 204 255
170 204 255
170 204 255
170 204 255
170 204 255
170 204 255
170 204 255
170 204 255
170 204 255
170 204 255
170 204 255
170 204 255
170 204 255
170 204 255
170 204 255
170 204 255
170 204 255
170 204 255
170 204 255
170 204 255
170 204 255
170 204 255
170 204 255
170 204 255
170 204 255
170 204 255
170 204 255
170 204 255
169 204 255
169 204 255
169 204 255
169 204 255
169 204 255
169 204 255
169 204 255
169 204 255
169 204 255
169 204 255
169 204 255
169 204 255
169 204 255
169 204 255
169 204 255
169 204 255
169 204 255
169 204 255
169 204 255
169 204 255
169 204 255
169 204 255
169 204 255
169 204 255
169 204 255
169 204 255
169 204 255
169 204 255
169 203 255
169 203 255
169 203 255
169 203 255
169 203 255
169 203 255
169 203 255
169 203 255
169 203 255
169 203 255
169 203 255
169 203 255
169 203 255
169 203 255
169 203 255
169 203 255
169 203 255
168 203 255
168 203 255
168 203 255
168 203 255
168 203 255
168 203 255
168 203 255
168 203 255
168 203 255
168 203 255
168 203 255
168 203 255
168 203 255
168 203 255
168 203 255
168 203 255
168 203 255
168 203 255
168 203 255
168 203 255
168 203 255
168 203 255
168 203 255
168 203 255
168 203 255
168 203 255
168 203 255
168 203 255
168 203 255
168 203 255
168 203 255
168 203 255
168 203 255
168 203 255
168 203 255
168 203 255
168 203 255
168 203 255
168 203 255
168 203 255
168 203 255
168 203 255
168 203 255
168 203 255
168 203 255
168 203 255
168 203 255
168 203 255
168 203 255
168 203 255
168 203 255
168 203 255
168 203 255
168 203 255
168 203 255
168 203 255
168 203 255
168 203 255
168 203 255
168 203 255
168 203 255
168 203 255
168 203 255
168 203 255
168 203 255
168 203 255
168 203 255
168 203 255
168 203 255
168 203 255
168 203 255
168 203 255
168 203 255
168 203 255
168 203 255
168 203 255
168 203 255
168 203 255
168 203 255
168 203 255
168 203 255
168 203 255
168 203 255
168 203 255
168 203 255
168 203 255
168 203 255
168 203 255
168 203 255
168 203 255
168 203 255
168 203 255
168 203 255
168 203 255
168 203 255
168 203 255
168 203 255
168 203 255
168 203 255
168 203 255
168 203 255
169 203 255
169 203 255
169 203 255
169 203 255
169 203 255
169 203 255
169 203 255
169 203 255
169 203 255
169 203 255
169 203 255
169 203 255
169 203 255
169 203 255
169 203 255
169 204 255
169 204 255
169 204 255
169 204 255
169 204 255
169 204 255
169 204 255
169 204 255
169 204 255
169 204 255
169 204 255
169 204 255
169 204 255
169 204 255
169 204 255
169 204 255
169 204 255
169 204 255
169 204 255
169 204 255
169 204 255
169 204 255
169 204 255
169 204 255
169 204 255
169 204 255
169 204 255
169 204 255
169 204 255
170 204 255
170 204 255
170 204 255
170 204 255
170 204 255
170 204 255
170 204 255
170 204 255
170 204 255
170 204 255
170 204 255
170 204 255
170 204 255
170 204 255
170 204 255
170 204 255
170 204 255
170 204 255
170 204 255
170 204 255
170 204 255
170 204 255
170 204 255
170 204 255
170 204 255
170 204 255
170 204 255
170 204 255
170 204 255
170 204 255
170 204 255
170 204 255
170 204 255
170 204 255
170 204 255
170 204 255
170 204 255
170 204 255
170 204 255
170 204 255
170 204 255
170 204 255
170 204 255
170 204 255
171 205 255
171 205 255
171 205 255
171 205 255
171 205 255
171 205 255
171 205 255
171 205 255
171 205 255
171 205 255
171 205 255
171 205 255
171 205 255
171 205 255
171 205 255
171 205 255
171 205 255
171 205 255
171 205 255
171 205 255
171 205 255
171 205 255
171 205 255
171 205 255
171 205 255
171 205 255
171 205 255
171 205 255
171 205 255
171 205 255
171 205 255
171 205 255
171 205 255
171 205 255
171 205 255
171 205 255
171 205 255
171 205 255
171 205 255
171 205 255
171 205 255
171 205 255
171 205 255
171 205 255
171 205 255
171 205 255
171 205 255
171 205 255
171 205 255
171 205 255
171 205 255
171 205 255
172 205 255
172 205 255
172 205 255
172 205 255
172 205 255
172 205 255
172 205 255
172 205 255
172 205 255
172 205 255
172 205 255
172 205 255
172 205 255
172 205 255
172 205 255
172 205 255
172 205 255
172 205 255
172 205 255
172 205 255
172 205 255
172 205 255
172 205 255
172 205 255
172 205 255
172 205 255
172 205 255
172 205 255
172 205 255
172 205 255
172 205 255
172 205 255
171 205 255
171 205 255
171 205 255
171 205 255
171 205 255
171 205 255
171 205 255
171 205 255
171 205 255
171 205 255
171 205 255
171 205 255
171 205 255
171 205 255
171 205 255
171 205 255
171 205 255
171 205 255
171 205 255
171 205 255
171 205 255
171 205 255
171 205 255
171 205 255
171 205 255
171 205 255
171 205 255
171 205 255
171 205 255
171 205 255
171 205 255
171 205 255
171 205 255
171 205 255
171 205 255
171 205 255
171 205 255
171 205 255
171 205 255
171 205 255
171 205 255
171 205 255
171 205 255
171 205 255
171 205 255
171 205 255
171 205 255
171 205 255
171 205 255
170 204 255
170 204 255
170 204 255
170 204 255
170 204 255
170 204 255
170 204 255
170 204 255
170 204 255
170 204 255
170 204 255
170 204 255
170 204 255
170 204 255
170 204 255
170 204 255
170 204 255
170 204 255
170 204 255
170 204 255
170 204 255
170 204 255
170 204 255
170 204 255
170 204 255
170 204 255
170 204 255
170 204 255
170 204 255
170 204 255
170 204 255
170 204 255
170 204 255
170 204 255
170 204 255
170 204 255
170 204 255
170 204 255
170 204 255
170 204 255
170 204 255
170 204 255
170 204 255
169 204 255
169 204 255
169 204 255
169 204 255
169 204 255
169 204 255
169 204 255
169 204 255
169 204 255
169 204 255
169 204 255
169 204 255
169 204 255
169 204 255
169 204 255
169 204 255
169 204 255
169 204 255
169 204 255
169 204 255
169 204 255
169 204 255
169 204 255
169 204 255
169 204 255
169 204 255
169 204 255
169 204 255
169 204 255
169 204 255
169 203 255
169 203 255
169 203 255
169 203 255
169 203 255
169 203 255
169 203 255
169 203 255
169 203 255
169 203 255
169 203 255
169 203 255
169 203 255
169 203 255
169 203 255
169 203 255
169 203 255
169 203 255
169 203 255
169 203 255
168 203 255
168 203 255
168 203 255
168 203 255
168 203 255
168 203 255
168 203 255
168 203 255
168 203 255
168 203 255
168 203 255
168 203 255
168 203 255
168 203 255
168 203 255
168 203 255
168 203 255
168 203 255
168 203 255
168 203 255
168 203 255
168 203 255
168 203 255
168 203 255
168 203 255
168 203 255
168 203 255
168 203 255
168 203 255
168 203 255
168 203 255
168 203 255
168 203 255
168 203 255
168 203 255
168 203 255
168 203 255
168 203 255
168 203 255
168 203 255
168 203 255
168 203 255
168 203 255
168 203 255
168 203 255
168 203 255
168 203 255
168 203 255
168 203 255
168 203 255
168 203 255
168 203 255
168 203 255
168 203 255
168 203 255
168 203 255
168 203 255
168 203 255
168 203 255
168 203 255
168 203 255
168 203 255
168 203 255
168 203 255
168 203 255
168 203 255
168 203 255
168 203 255
168 203 255
168 203 255
169 203 255
169 203 255
169 203 255
169 203 255
169 203 255
169 203 255
169 203 255
169 203 255
169 203 255
169 203 255
169 203 255
169 203 255
169 203 255
169 203 255
169 203 255
169 203 255
169 203 255
169 203 255
169 203 255
169 204 255
169 204 255
169 204 255
169 204 255
169 204 255
169 204 255
169 204 255
169 204 255
169 204 255
169 204 255
169 204 255
169 204 255
169 204 255
169 204 255
169 204 255
169 204 255
169 204 255
169 204 255
169 204 255
169 204 255
169 204 255
169 204 255
169 204 255
169 204 255
169 204 255
169 204 255
169 204 255
169 204 255
169 204 255
169 204 255
169 204 255
170 204 255
170 204 255
170 204 255
170 204 255
170 204 255
170 204 255
170 204 255
170 204 255
170 204 255
170 204 255
170 204 255
170 204 255
170 204 255
170 204 255
170 204 255
170 204 255
170 204 255
170 204 255
170 204 255
170 204 255
170 204 255
170 204 255
170 204 255
170 204 255
170 204 255
170 204 255
170 204 255
170 204 255
170 204 255
170 204 255
170 204 255
170 204 255
170 204 255
170 204 255
170 204 255
170 204 255
170 204 255
170 204 255
170 204 255
170 204 255
170 204 255
170 204 255
170 204 255
171 205 255
171 205 255
171 205 255
171 205 255
171 205 255
171 205 255
171 205 255
171 205 255
171 205 255
171 205 255
171 205 255
171 205 255
171 205 255
171 205 255
171 205 255
171 205 255
171 205 255
171 205 255
171 205 255
171 205 255
171 205 255
171 205 255
171 205 255
171 205 255
171 205 255
171 205 255
171 205 255
171 205 255
171 205 255
171 205 255
171 205 255
171 205 255
171 205 255
171 205 255
171 205 255
171 205 255
171 205 255
171 205 255
171 205 255
171 205 255
171 205 255
171 205 255
171 205 255
171 205 255
171 205 255
171 205 255
171 205 255
171 205 255
171 205 255
172 205 255
172 205 255
172 205 255
172 205 255
172 205 255
172 205 255
172 205 255
172 205 255
172 205 255
172 205 255
172 205 255
172 205 255
172 205 255
172 205 255
172 205 255
172 205 255
172 205 255
172 205 255
172 205 255
172 205 255
172 205 255
172 205 255
172 205 255
172 205 255
172 205 255
172 205 255
172 205 255
172 205 255
172 205 255
172 205 255
172 205 255
172 205 255
172 205 255
172 205 255
172 205 255
172 205 255
172 205 255
172 205 255
172 205 255
172 205 255
172 205 255
172 205 255
172 205 255
172 205 255
172 205 255
172 205 255
172 205 255
172 205 255
172 205 255
172 205 255
172 205 255
172 205 255
172 205 255
172 205 255
172 205 255
172 205 255
172 205 255
172 205 255
172 205 255
171 205 255
171 205 255
171 205 255
171 205 255
171 205 255
171 205 255
171 205 255
171 205 255
171 205 255
171 205 255
171 205 255
171 205 255
171 205 255
171 205 255
171 205 255
171 205 255
171 205 255
171 205 255
171 205 255
171 205 255
171 205 255
171 205 255
171 205 255
171 205 255
171 205 255
171 205 255
171 205 255
171 205 255
171 205 255
171 205 255
171 205 255
171 205 255
171 205 255
171 205 255
171 205 255
171 205 255
171 205 255
171 205 255
171 205 255
171 205 255
171 205 255
171 205 255
171 205 255
171 205 255
171 205 255
171 205 255
171 205 255
170 204 255
170 204 255
170 204 255
170 204 255
170 204 255
170 204 255
170 204 255
170 204 255
170 204 255
170 204 255
170 204 255
170 204 255
170 204 255
170 204 255
170 204 255
170 204 255
170 204 255
170 204 255
170 204 255
170 204 255
170 204 255
170 204 255
170 204 255
170 204 255
170 204 255
170 204 255
170 204 255
170 204 255
170 204 255
170 204 255
170 204 255
170 204 255
170 204 255
170 204 255
170 204 255
170 204 255
170 204 255
170 204 255
170 204 255
170 204 255
170 204 255
170 204 255
170 204 255
169 204 255
169 204 255
169 204 255
169 204 255
169 204 255
169 204 255
169 204 255
169 204 255
169 204 255
169 204 255
169 204 255
169 204 255
169 204 255
169 204 255
169 204 255
169 204 255
169 204 255
169 204 255
169 204 255
169 204 255
169 204 255
169 204 255
169 204 255
169 204 255
169 204 255
169 204 255
169 204 255
169 204 255
169 204 255
169 204 255
169 204 255
169 204 255
169 204 255
169 203 255
169 203 255
169 203 255
169 203 255
169 203 255
169 203 255
169 203 255
169 203 255
169 203 255
169 203 255
169 203 255
169 203 255
169 203 255
169 203 255
169 203 255
169 203 255
169 203 255
169 203 255
169 203 255
169 203 255
169 203 255
169 203 255
169 203 255
169 203 255
169 203 255
169 203 255
169 203 255
169 203 255
169 203 255
169 203 255
169 203 255
169 203 255
169 203 255
169 203 255
169 203 255
169 203 255
169 203 255
169 203 255
169 203 255
169 203 255
169 203 255
169 203 255
169 203 255
168 203 255
169 203 255
169 203 255
169 203 255
169 203 255
169 203 255
169 203 255
169 203 255
169 203 255
169 203 255
169 203 255
169 203 255
169 203 255
169 203 255
169 203 255
169 203 255
169 203 255
169 203 255
169 203 255
169 203 255
169 203 255
169 203 255
169 203 255
169 203 255
169 203 255
169 203 255
169 203 255
169 203 255
169 203 255
169 203 255
169 203 255
169 203 255
169 203 255
169 203 255
169 203 255
169 203 255
169 203 255
169 204 255
169 204 255
169 204 255
169 204 255
169 204 255
169 204 255
169 204 255
169 204 255
169 204 255
169 204 255
169 204 255
169 204 255
169 204 255
169 204 255
169 204 255
169 204 255
169 204 255
169 204 255
169 204 255
169 204 255
169 204 255
169 204 255
169 204 255
169 204 255
169 204 255
169 204 255
169 204 255
169 204 255
169 204 255
169 204 255
169 204 255
169 204 255
169 204 255
169 204 255
169 204 255
170 204 255
170 204 255
170 204 255
170 204 255
170 204 255
170 204 255
170 204 255
170 204 255
170 204 255
170 204 255
170 204 255
170 204 255
170 204 255
170 204 255
170 204 255
170 204 255
170 204 255
170 204 255
170 204 255
170 204 255
170 204 255
170 204 255
170 204 255
170 204 255
170 204 255
170 204 255
170 204 255
170 204 255
170 204 255
170 204 255
170 204 255
170 204 255
170 204 255
170 204 255
170 204 255
170 204 255
170 204 255
170 204 255
170 204 255
170 204 255
170 204 255
170 204 255
171 205 255
171 205 255
171 205 255
171 205 255
171 205 255
171 205 255
171 205 255
171 205 255
171 205 255
171 205 255
171 205 255
171 205 255
171 205 255
171 205 255
171 205 255
171 205 255
171 205 255
171 205 255
171 205 255
171 205 255
171 205 255
171 205 255
171 205 255
171 205 255
171 205 255
171 205 255
171 205 255
171 205 255
171 205 255
171 205 255
171 205 255
171 205 255
171 205 255
171 205 255
171 205 255
171 205 255
171 205 255
171 205 255
171 205 255
171 205 255
171 205 255
171 205 255
171 205 255
171 205 255
171 205 255
171 205 255
171 205 255
171 205 255
172 205 255
172 205 255
172 205 255
172 205 255
172 205 255
172 205 255
172 205 255
172 205 255
172 205 255
172 205 255
172 205 255
172 205 255
172 205 255
172 205 255
172 205 255
172 205 255
172 205 255
172 205 255
172 205 255
172 205 255
172 205 255
172 205 255
172 205 255
172 205 255
172 205 255
172 205 255
172 205 255
172 205 255
172 205 255
172 205 255
172 205 255
172 205 255
172 205 255
172 205 255
172 205 255
172 205 255
172 206 255
172 206 255
172 206 255
172 206 255
172 206 255
172 206 255
172 206 255
172 206 255
172 206 255
172 206 255
172 206 255
172 205 255
172 205 255
172 205 255
172 205 255
172 205 255
172 205 255
172 205 255
172 205 255
172 205 255
172 205 255
172 205 255
172 205 255
172 205 255
172 205 255
172 205 255
172 205 255
172 205 255
172 205 255
172 205 255
172 205 255
172 205 255
172 205 255
172 205 255
172 205 255
172 205 255
172 205 255
172 205 255
172 205 255
172 205 255
172 205 255
172 205 255
172 205 255
172 205 255
172 205 255
172 205 255
172 205 255
172 205 255
172 205 255
171 205 255
171 205 255
171 205 255
171 205 255
171 205 255
171 205 255
171 205 255
171 205 255
171 205 255
171 205 255
171 205 255
171 205 255
171 205 255
171 205 255
171 205 255
171 205 255
171 205 255
171 205 255
171 205 255
171 205 255
171 205 255
171 205 255
171 205 255
171 205 255
171 205 255
171 205 255
171 205 255
171 205 255
171 205 255
171 205 255
171 205 255
171 205 255
171 205 255
171 205 255
171 205 255
171 205 255
171 205 255
171 205 255
171 205 255
171 205 255
171 205 255
171 205 255
171 205 255
171 205 255
171 205 255
170 204 255
170 204 255
170 204 255
170 204 255
170 204 255
170 204 255
170 204 255
170 204 255
170 204 255
170 204 255
170 204 255
170 204 255
170 204 255
170 204 255
170 204 255
170 204 255
170 204 255
170 204 255
170 204 255
170 204 255
170 204 255
170 204 255
170 204 255
170 204 255
170 204 255
170 204 255
170 204 255
170 204 255
170 204 255
170 204 255
170 204 255
170 204 255
170 204 255
170 204 255
170 204 255
170 204 255
170 204 255
170 204 255
170 204 255
170 204 255
170 204 255
170 204 255
170 204 255
169 204 255
169 204 255
169 204 255
169 204 255
169 204 255
169 204 255
169 204 255
169 204 255
169 204 255
169 204 255
169 204 255
169 204 255
169 204 255
169 204 255
169 204 255
169 204 255
169 204 255
169 204 255
169 204 255
169 204 255
169 204 255
169 204 255
169 204 255
169 204 255
169 204 255
169 204 255
169 204 255
169 204 255
169 204 255
169 204 255
169 204 255
169 204 255
169 204 255
169 204 255
169 204 255
169 204 255
169 204 255
169 204 255
169 204 255
169 204 255
169 204 255
169 204 255
169 204 255
169 204 255
169 204 255
169 204 255
169 203 255
169 203 255
169 203 255
169 203 255
169 203 255
169 203 255
169 203 255
169 203 255
169 203 255
169 203 255
169 203 255
169 203 255
169 203 255
169 203 255
169 203 255
169 203 255
169 203 255
169 203 255
169 203 255
169 203 255
169 203 255
169 203 255
169 203 255
169 203 255
169 203 255
169 203 255
169 203 255
169 203 255
169 203 255
169 203 255
169 203 255
169 203 255
169 203 255
169 203 255
169 204 255
169 204 255
169 204 255
169 204 255
169 204 255
169 204 255
169 204 255
169 204 255
169 204 255
169 204 255
169 204 255
169 204 255
169 204 255
169 204 255
169 204 255
169 204 255
169 204 255
169 204 255
169 204 255
169 204 255
169 204 255
169 204 255
169 204 255
169 204 255
169 204 255
169 204 255
169 204 255
169 204 255
169 204 255
169 204 255
169 204 255
169 204 255
169 204 255
169 204 255
169 204 255
169 204 255
169 204 255
169 204 255
169 204 255
169 204 255
169 204 255
169 204 255
169 204 255
169 204 255
169 204 255
170 204 255
170 204 255
170 204 255
170 204 255
170 204 255
170 204 255
170 204 255
170 204 255
170 204 255
170 204 255
170 204 255
170 204 255
170 204 255
170 204 255
170 204 255
170 204 255
170 204 255
170 204 255
170 204 255
170 204 255
170 204 255
170 204 255
170 204 255
170 204 255
170 204 255
170 204 255
170 204 255
170 204 255
170 204 255
170 204 255
170 204 255
170 204 255
170 204 255
170 204 255
170 204 255
170 204 255
170 204 255
170 204 255
170 204 255
170 204 255
170 204 255
170 204 255
170 204 255
170 204 255
171 205 255
171 205 255
171 205 255
171 205 255
171 205 255
171 205 255
171 205 255
171 205 255
171 205 255
171 205 255
171 205 255
171 205 255
171 205 255
171 205 255
171 205 255
171 205 255
171 205 255
171 205 255
171 205 255
171 205 255
171 205 255
171 205 255
171 205 255
171 205 255
171 205 255
171 205 255
171 205 255
171 205 255
171 205 255
171 205 255
171 205 255
171 205 255
171 205 255
171 205 255
171 205 255
171 205 255
171 205 255
171 205 255
171 205 255
171 205 255
171 205 255
171 205 255
171 205 255
171 205 255
171 205 255
171 205 255
172 205 255
172 205 255
172 205 255
172 205 255
172 205 255
172 205 255
172 205 255
172 205 255
172 205 255
172 205 255
172 205 255
172 205 255
172 205 255
172 205 255
172 205 255
172 205 255
172 205 255
172 205 255
172 205 255
172 205 255
172 205 255
172 205 255
172 205 255
172 205 255
172 205 255
172 205 255
172 205 255
172 205 255
172 205 255
172 205 255
172 205 255
172 205 255
172 205 255
172 205 255
172 205 255
172 205 255
172 205 255
172 206 255
172 206 255
172 206 255
172 206 255
172 206 255
172 206 255
172 206 255
172 206 255
172 206 255
172 206 255
172 206 255
173 206 255
173 206 255
173 206 255
173 206 255
173 206 255
172 206 255
172 206 255
172 206 255
172 206 255
172 206 255
172 206 255
172 206 255
172 206 255
172 206 255
172 206 255
172 206 255
172 206 255
172 206 255
172 206 255
172 206 255
172 206 255
172 206 255
172 206 255
172 206 255
172 206 255
172 205 255
172 205 255
172 205 255
172 205 255
172 205 255
172 205 255
172 205 255
172 205 255
172 205 255
172 205 255
172 205 255
172 205 255
172 205 255
172 205 255
172 205 255
172 205 255
172 205 255
172 205 255
172 205 255
172 205 255
172 205 255
172 205 255
172 205 255
172 205 255
172 205 255
172 205 255
172 205 255
172 205 255
172 205 255
172 205 255
172 205 255
172 205 255
172 205 255
172 205 255
172 205 255
171 205 255
171 205 255
171 205 255
171 205 255
171 205 255
171 205 255
171 205 255
171 205 255
171 205 255
171 205 255
171 205 255
171 205 255
171 205 255
171 205 255
171 205 255
171 205 255
171 205 255
171 205 255
171 205 255
171 205 255
171 205 255
171 205 255
171 205 255
171 205 255
171 205 255
171 205 255
171 205 255
171 205 255
171 205 255
171 205 255
171 205 255
171 205 255
171 205 255
171 205 255
171 205 255
171 205 255
171 205 255
171 205 255
171 205 255
171 205 255
171 205 255
171 205 255
171 205 255
171 205 255
171 205 255
170 204 255
170 204 255
170 204 255
170 204 255
170 204 255
170 204 255
170 204 255
170 204 255
170 204 255
170 204 255
170 204 255
170 204 255
170 204 255
170 204 255
170 204 255
170 204 255
170 204 255
170 204 255
170 204 255
170 204 255
170 204 255
170 204 255
170 204 255
170 204 255
170 204 255
170 204 255
170 204 255
170 204 255
170 204 255
170 204 255
170 204 255
170 204 255
170 204 255
170 204 255
170 204 255
170 204 255
170 204 255
170 204 255
170 204 255
170 204 255
170 204 255
170 204 255
170 204 255
170 204 255
170 204 255
169 204 255
170 204 255
169 204 255
169 204 255
169 204 255
169 204 255
169 204 255
169 204 255
169 204 255
169 204 255
169 204 255
169 204 255
169 204 255
169 204 255
169 204 255
169 204 255
169 204 255
169 204 255
169 204 255
169 204 255
169 204 255
169 204 255
169 204 255
169 204 255
169 204 255
169 204 255
169 204 255
169 204 255
169 204 255
169 204 255
169 204 255
169 204 255
169 204 255
169 204 255
169 204 255
169 204 255
169 204 255
169 204 255
169 204 255
169 204 255
169 204 255
169 204 255
169 204 255
169 204 255
169 204 255
169 204 255
169 204 255
169 204 255
169 204 255
169 204 255
169 204 255
169 204 255
169 204 255
169 204 255
169 204 255
169 204 255
169 204 255
169 204 255
169 204 255
169 204 255
169 204 255
169 204 255
169 204 255
169 204 255
169 204 255
169 204 255
169 204 255
169 204 255
169 204 255
169 204 255
169 204 255
169 204 255
169 204 255
169 204 255
169 204 255
169 204 255
169 204 255
169 204 255
169 204 255
169 204 255
169 204 255
169 204 255
169 204 255
169 204 255
169 204 255
169 204 255
169 204 255
169 204 255
169 204 255
169 204 255
169 204 255
169 204 255
169 204 255
169 204 255
169 204 255
169 204 255
169 204 255
169 204 255
169 204 255
170 204 255
170 204 255
170 204 255
170 204 255
170 204 255
170 204 255
170 204 255
170 204 255
170 204 255
170 204 255
170 204 255
170 204 255
170 204 255
170 204 255
170 204 255
170 204 255
170 204 255
170 204 255
170 204 255
170 204 255
170 204 255
170 204 255
170 204 255
170 204 255
170 204 255
170 204 255
170 204 255
170 204 255
170 204 255
170 204 255
170 204 255
170 204 255
170 204 255
170 204 255
170 204 255
170 204 255
170 204 255
170 204 255
170 204 255
170 204 255
170 204 255
170 204 255
170 204 255
170 204 255
170 204 255
170 204 255
170 204 255
171 205 255
171 205 255
171 205 255
171 205 255
171 205 255
171 205 255
171 205 255
171 205 255
171 205 255
171 205 255
171 205 255
171 205 255
171 205 255
171 205 255
171 205 255
171 205 255
171 205 255
171 205 255
171 205 255
171 205 255
171 205 255
171 205 255
171 205 255
171 205 255
171 205 255
171 205 255
171 205 255
171 205 255
171 205 255
171 205 255
171 205 255
171 205 255
171 205 255
171 205 255
171 205 255
171 205 255
171 205 255
171 205 255
171 205 255
171 205 255
171 205 255
171 205 255
171 205 255
172 205 255
172 205 255
172 205 255
172 205 255
172 205 255
172 205 255
172 205 255
172 205 255
172 205 255
172 205 255
172 205 255
172 205 255
172 205 255
172 205 255
172 205 255
172 205 255
172 205 255
172 205 255
172 205 255
172 205 255
172 205 255
172 205 255
172 205 255
172 205 255
172 205 255
172 205 255
172 205 255
172 205 255
172 205 255
172 205 255
172 205 255
172 205 255
172 205 255
172 205 255
172 205 255
172 205 255
172 206 255
172 206 255
172 206 255
172 206 255
172 206 255
172 206 255
172 206 255
172 206 255
172 206 255
172 206 255
172 206 255
172 206 255
172 206 255
172 206 255
172 206 255
172 206 255
172 206 255
172 206 255
172 206 255
172 206 255
173 206 255
173 206 255
173 206 255
173 206 255
173 206 255
173 206 255
173 206 255
173 206 255
173 206 255
173 206 255
173 206 255
173 206 255
173 206 255
173 206 255
173 206 255
173 206 255
173 206 255
173 206 255
173 206 255
173 206 255
173 206 255
173 206 255
173 206 255
173 206 255
173 206 255
172 206 255
172 206 255
172 206 255
172 206 255
172 206 255
172 206 255
172 206 255
172 206 255
172 206 255
172 206 255
172 206 255
172 206 255
172 206 255
172 206 255
172 206 255
172 206 255
172 206 255
172 206 255
172 206 255
172 205 255
172 205 255
172 205 255
172 205 255
172 205 255
172 205 255
172 205 255
172 205 255
172 205 255
172 205 255
172 205 255
172 205 255
172 205 255
172 205 255
172 205 255
172 205 255
172 205 255
172 205 255
172 205 255
172 205 255
172 205 255
172 205 255
172 205 255
172 205 255
172 205 255
172 205 255
172 205 255
172 205 255
172 205 255
172 205 255
172 205 255
172 205 255
172 205 255
171 205 255
171 205 255
171 205 255
171 205 255
171 205 255
171 205 255
171 205 255
171 205 255
171 205 255
171 205 255
171 205 255
171 205 255
171 205 255
171 205 255
171 205 255
171 205 255
171 205 255
171 205 255
171 205 255
171 205 255
171 205 255
171 205 255
171 205 255
171 205 255
171 205 255
171 205 255
171 205 255
171 205 255
171 205 255
171 205 255
171 205 255
171 205 255
171 205 255
171 205 255
171 205 255
171 205 255
171 205 255
171 205 255
171 205 255
171 205 255
171 205 255
171 205 255
171 205 255
171 205 255
170 204 255
170 204 255
170 204 255
170 204 255
170 204 255
170 204 255
170 204 255
170 204 255
170 204 255
170 204 255
170 204 255
170 204 255
170 204 255
170 204 255
170 204 255
170 204 255
170 204 255
170 204 255
170 204 255
170 204 255
170 204 255
170 204 255
170 204 255
170 204 255
170 204 255
170 204 255
170 204 255
170 204 255
170 204 255
170 204 255
170 204 255
170 204 255
170 204 255
170 204 255
170 204 255
170 204 255
170 204 255
170 204 255
170 204 255
170 204 255
170 204 255
170 204 255
170 204 255
170 204 255
170 204 255
170 204 255
170 204 255
170 204 255
170 204 255
170 204 255
170 204 255
170 204 255
169 204 255
169 204 255
169 204 255
169 204 255
169 204 255
169 204 255
169 204 255
169 204 255
169 204 255
169 204 255
169 204 255
169 204 255
169 204 255
169 204 255
169 204 255
169 204 255
169 204 255
169 204 255
169 204 255
169 204 255
169 204 255
169 204 255
169 204 255
169 204 255
169 204 255
169 204 255
169 204 255
169 204 255
169 204 255
169 204 255
169 204 255
169 204 255
169 204 255
169 204 255
169 204 255
169 204 255
169 204 255
169 204 255
169 204 255
169 204 255
169 204 255
169 204 255
169 204 255
169 204 255
169 204 255
169 204 255
169 204 255
169 204 255
169 204 255
169 204 255
169 204 255
169 204 255
169 204 255
169 204 255
169 204 255
169 204 255
169 204 255
169 204 255
169 204 255
169 204 255
169 204 255
169 204 255
169 204 255
170 204 255
169 204 255
170 204 255
170 204 255
170 204 255
170 204 255
170 204 255
170 204 255
170 204 255
170 204 255
170 204 255
170 204 255
170 204 255
170 204 255
170 204 255
170 204 255
170 204 255
170 204 255
170 204 255
170 204 255
170 204 255
170 204 255
170 204 255
170 204 255
170 204 255
170 204 255
170 204 255
170 204 255
170 204 255
170 204 255
170 204 255
170 204 255
170 204 255
170 204 255
170 204 255
170 204 255
170 204 255
170 204 255
170 204 255
170 204 255
170 204 255
170 204 255
170 204 255
170 204 255
170 204 255
170 204 255
170 204 255
170 204 255
170 204 255
170 204 255
170 204 255
170 204 255
170 204 255
170 204 255
171 205 255
171 205 255
171 205 255
171 205 255
171 205 255
171 205 255
171 205 255
171 205 255
171 205 255
171 205 255
171 205 255
171 205 255
171 205 255
171 205 255
171 205 255
171 205 255
171 205 255
171 205 255
171 205 255
171 205 255
171 205 255
171 205 255
171 205 255
171 205 255
171 205 255
171 205 255
171 205 255
171 205 255
171 205 255
171 205 255
171 205 255
171 205 255
171 205 255
171 205 255
171 205 255
171 205 255
171 205 255
171 205 255
171 205 255
171 205 255
171 205 255
171 205 255
171 205 255
172 205 255
172 205 255
172 205 255
172 205 255
172 205 255
172 205 255
172 205 255
172 205 255
172 205 255
172 205 255
172 205 255
172 205 255
172 205 255
172 205 255
172 205 255
172 205 255
172 205 255
172 205 255
172 205 255
172 205 255
172 205 255
172 205 255
172 205 255
172 205 255
172 205 255
172 205 255
172 205 255
172 205 255
172 205 255
172 205 255
172 205 255
172 205 255
172 205 255
172 206 255
172 206 255
172 206 255
172 206 255
172 206 255
172 206 255
172 206 255
172 206 255
172 206 255
172 206 255
172 206 255
172 206 255
172 206 255
172 206 255
172 206 255
172 206 255
172 206 255
172 206 255
172 206 255
173 206 255
173 206 255
173 206 255
173 206 255
173 206 255
173 206 255
173 206 255
173 206 255
173 206 255
173 206 255
173 206 255
173 206 255
173 206 255
173 206 255
173 206 255
173 206 255
173 206 255
173 206 255
173 206 255
173 206 255
173 206 255
173 206 255
173 206 255
173 206 255
173 206 255
173 206 255
173 206 255
173 206 255
173 206 255
173 206 255
173 206 255
173 206 255
173 206 255
173 206 255
173 206 255
173 206 255
173 206 255
173 206 255
173 206 255
173 206 255
173 206 255
173 206 255
173 206 255
173 206 255
173 206 255
173 206 255
173 206 255
173 206 255
173 206 255
173 206 255
173 206 255
173 206 255
173 206 255
173 206 255
172 206 255
172 206 255
172 206 255
172 206 255
172 206 255
172 206 255
172 206 255
172 206 255
172 206 255
172 206 255
172 206 255
172 206 255
172 206 255
172 206 255
172 206 255
172 206 255
172 206 255
172 206 255
172 205 255
172 205 255
172 205 255
172 205 255
172 205 255
172 205 255
172 205 255
172 205 255
172 205 255
172 205 255
172 205 255
172 205 255
172 205 255
172 205 255
172 205 255
172 205 255
172 205 255
172 205 255
172 205 255
172 205 255
172 205 255
172 205 255
172 205 255
172 205 255
172 205 255
172 205 255
172 205 255
172 205 255
172 205 255
172 205 255
172 205 255
171 205 255
171 205 255
171 205 255
171 205 255
171 205 255
171 205 255
171 205 255
171 205 255
171 205 255
171 205 255
171 205 255
171 205 255
171 205 255
171 205 255
171 205 255
171 205 255
171 205 255
171 205 255
171 205 255
171 205 255
171 205 255
171 205 255
171 205 255
171 205 255
171 205 255
171 205 255
171 205 255
171 205 255
171 205 255
171 205 255
171 205 255
171 205 255
171 205 255
171 205 255
171 205 255
171 205 255
171 205 255
171 205 255
171 205 255
171 205 255
171 205 255
171 205 255
171 205 255
171 205 255
171 205 255
170 204 255
170 204 255
170 204 255
170 204 255
170 204 255
170 204 255
170 204 255
170 204 255
170 204 255
170 204 255
170 204 255
170 204 255
170 204 255
170 204 255
170 204 255
170 204 255
170 204 255
170 204 255
170 204 255
170 204 255
170 204 255
170 204 255
170 204 255
170 204 255
170 204 255
170 204 255
170 204 255
170 204 255
170 204 255
170 204 255
170 204 255
170 204 255
170 204 255
170 204 255
170 204 255
170 204 255
170 204 255
170 204 255
170 204 255
170 204 255
170 204 255
170 204 255
170 204 255
170 204 255
170 204 255
170 204 255
170 204 255
170 204 255
170 204 255
170 204 255
170 204 255
170 204 255
170 204 255
170 204 255
170 204 255
170 204 255
170 204 255
170 204 255
170 204 255
170 204 255
170 204 255
170 204 255
170 204 255
170 204 255
170 204 255
170 204 255
170 204 255
170 204 255
170 204 255
170 204 255
170 204 255
170 204 255
170 204 255
170 204 255
170 204 255
170 204 255
170 204 255
170 204 255
170 204 255
170 204 255
170 204 255
170 204 255
170 204 255
170 204 255
170 204 255
170 204 255
170 204 255
170 204 255
170 204 255
170 204 255
170 204 255
170 204 255
170 204 255
170 204 255
170 204 255
170 204 255
170 204 255
170 204 255
170 204 255
170 204 255
170 204 255
170 204 255
170 204 255
170 204 255
170 204 255
170 204 255
170 204 255
170 204 255
170 204 255
170 204 255
170 204 255
170 204 255
170 204 255
170 204 255
170 204 255
170 204 255
170 204 255
170 204 255
170 204 255
170 204 255
170 204 255
170 204 255
170 204 255
170 204 255
170 204 255
170 204 255
170 204 255
170 204 255
170 204 255
170 204 255
170 204 255
170 204 255
170 204 255
170 204 255
170 204 255
170 204 255
170 204 255
170 204 255
170 204 255
170 204 255
170 204 255
170 204 255
170 204 255
170 204 255
170 204 255
171 205 255
171 205 255
171 205 255
171 205 255
171 205 255
171 205 255
171 205 255
171 205 255
171 205 255
171 205 255
171 205 255
171 205 255
171 205 255
171 205 255
171 205 255
171 205 255
171 205 255
171 205 255
171 205 255
171 205 255
171 205 255
171 205 255
171 205 255
171 205 255
171 205 255
171 205 255
171 205 255
171 205 255
171 205 255
171 205 255
171 205 255
171 205 255
171 205 255
171 205 255
171 205 255
171 205 255
171 205 255
171 205 255
171 205 255
171 205 255
171 205 255
171 205 255
171 205 255
171 205 255
172 205 255
172 205 255
172 205 255
172 205 255
172 205 255
172 205 255
172 205 255
172 205 255
172 205 255
172 205 255
172 205 255
172 205 255
172 205 255
172 205 255
172 205 255
172 205 255
172 205 255
172 205 255
172 205 255
172 205 255
172 205 255
172 205 255
172 205 255
172 205 255
172 205 255
172 205 255
172 205 255
172 205 255
172 205 255
172 205 255
172 205 255
172 206 255
172 206 255
172 206 255
172 206 255
172 206 255
172 206 255
172 206 255
172 206 255
172 206 255
172 206 255
172 206 255
172 206 255
172 206 255
172 206 255
172 206 255
172 206 255
172 206 255
172 206 255
173 206 255
173 206 255
173 206 255
173 206 255
173 206 255
173 206 255
173 206 255
173 206 255
173 206 255
173 206 255
173 206 255
173 206 255
173 206 255
173 206 255
173 206 255
173 206 255
173 206 255
173 206 255
173 206 255
173 206 255
173 206 255
173 206 255
173 206 255
173 206 255
173 206 255
173 206 255
173 206 255
173 206 255
173 206 255
173 206 255
173 206 255
173 206 255
173 206 255
173 206 255
173 206 255
173 206 255
173 206 255
173 206 255
173 206 255
173 206 255
173 206 255
173 206 255
173 206 255
173 206 255
173 206 255
173 206 255
173 206 255
173 206 255
173 206 255
173 206 255
173 206 255
173 206 255
173 206 255
173 206 255
173 206 255
173 206 255
173 206 255
173 206 255
173 206 255
173 206 255
173 206 255
173 206 255
173 206 255
173 206 255
173 206 255
173 206 255
173 206 255
173 206 255
173 206 255
173 206 255
173 206 255
173 206 255
173 206 255
173 206 255
173 206 255
173 206 255
173 206 255
173 206 255
173 206 255
173 206 255
173 206 255
172 206 255
172 206 255
172 206 255
172 206 255
172 206 255
172 206 255
172 206 255
172 206 255
172 206 255
172 206 255
172 206 255
172 206 255
172 206 255
172 206 255
172 206 255
172 206 255
172 206 255
172 205 255
172 205 255
172 205 255
172 205 255
172 205 255
172 205 255
172 205 255
172 205 255
172 205 255
172 205 255
172 205 255
172 205 255
172 205 255
172 205 255
172 205 255
172 205 255
172 205 255
172 205 255
172 205 255
172 205 255
172 205 255
172 205 255
172 205 255
172 205 255
172 205 255
172 205 255
172 205 255
172 205 255
172 205 255
172 205 255
171 205 255
171 205 255
171 205 255
171 205 255
171 205 255
171 205 255
171 205 255
171 205 255
171 205 255
171 205 255
171 205 255
171 205 255
171 205 255
171 205 255
171 205 255
171 205 255
171 205 255
171 205 255
171 205 255
171 205 255
171 205 255
171 205 255
171 205 255
171 205 255
171 205 255
171 205 255
171 205 255
171 205 255
171 205 255
171 205 255
171 205 255
171 205 255
171 205 255
171 205 255
171 205 255
171 205 255
171 205 255
171 205 255
171 205 255
171 205 255
171 205 255
171 205 255
171 205 255
171 205 255
171 205 255
171 205 255
170 204 255
170 204 255
170 204 255
170 204 255
170 204 255
170 204 255
170 204 255
170 204 255
170 204 255
170 204 255
170 204 255
170 204 255
170 204 255
170 204 255
170 204 255
170 204 255
170 204 255
170 204 255
170 204 255
170 204 255
170 204 255
170 204 255
170 204 255
170 204 255
170 204 255
170 204 255
170 204 255
170 204 255
170 204 255
170 204 255
170 204 255
170 204 255
170 204 255
170 204 255
170 204 255
170 204 255
170 204 255
170 204 255
170 204 255
170 204 255
170 204 255
170 204 255
170 204 255
170 204 255
170 204 255
170 204 255
170 204 255
170 204 255
170 204 255
170 204 255
170 204 255
170 204 255
170 204 255
170 204 255
170 204 255
170 204 255
170 204 255
170 204 255
170 204 255
170 204 255
170 204 255
170 204 255
170 204 255
170 204 255
170 204 255
170 204 255
170 204 255
170 204 255
170 204 255
170 204 255
170 204 255
170 204 255
170 204 255
170 204 255
170 204 255
170 204 255
170 204 255
170 204 255
170 204 255
170 204 255
170 204 255
170 204 255
170 204 255
170 204 255
170 204 255
170 204 255
170 204 255
170 204 255
170 204 255
170 204 255
170 204 255
170 204 255
170 204 255
170 204 255
170 204 255
170 204 255
170 204 255
170 204 255
170 204 255
170 204 255
170 204 255
170 204 255
170 204 255
170 204 255
170 204 255
170 204 255
170 204 255
170 204 255
170 204 255
170 204 255
170 204 255
170 204 255
170 204 255
170 204 255
170 204 255
170 204 255
170 204 255
170 204 255
170 204 255
170 204 255
171 205 255
171 205 255
171 205 255
171 205 255
171 205 255
171 205 255
171 205 255
171 205 255
171 205 255
171 205 255
171 205 255
171 205 255
171 205 255
171 205 255
171 205 255
171 205 255
171 205 255
171 205 255
171 205 255
171 205 255
171 205 255
171 205 255
171 205 255
171 205 255
171 205 255
171 205 255
171 205 255
171 205 255
171 205 255
171 205 255
171 205 255
171 205 255
171 205 255
171 205 255
171 205 255
171 205 255
171 205 255
171 205 255
171 205 255
171 205 255
171 205 255
171 205 255
171 205 255
171 205 255
171 205 255
172 205 255
172 205 255
172 205 255
172 205 255
172 205 255
172 205 255
172 205 255
172 205 255
172 205 255
172 205 255
172 205 255
172 205 255
172 205 255
172 205 255
172 205 255
172 205 255
172 205 255
172 205 255
172 205 255
172 205 255
172 205 255
172 205 255
172 205 255
172 205 255
172 205 255
172 205 255
172 205 255
172 205 255
172 205 255
172 205 255
172 205 255
172 206 255
172 206 255
172 206 255
172 206 255
172 206 255
172 206 255
172 206 255
172 206 255
172 206 255
172 206 255
172 206 255
172 206 255
172 206 255
172 206 255
172 206 255
172 206 255
172 206 255
173 206 255
173 206 255
173 206 255
173 206 255
173 206 255
173 206 255
173 206 255
173 206 255
173 206 255
173 206 255
173 206 255
173 206 255
173 206 255
173 206 255
173 206 255
173 206 255
173 206 255
173 206 255
173 206 255
173 206 255
173 206 255
173 206 255
173 206 255
173 206 255
173 206 255
173 206 255
173 206 255
173 206 255
173 206 255
173 206 255
173 206 255
173 206 255
173 206 255
173 206 255
173 206 255
173 206 255
173 206 255
173 206 255
173 206 255
173 206 255
173 206 255
173 206 255
173 206 255
173 206 255
173 206 255
173 206 255
173 206 255
174 206 255
173 206 255
173 206 255
173 206 255
173 206 255
173 206 255
173 206 255
173 206 255
173 206 255
173 206 255
173 206 255
173 206 255
173 206 255
173 206 255
173 206 255
173 206 255
173 206 255
173 206 255
173 206 255
173 206 255
173 206 255
173 206 255
173 206 255
173 206 255
173 206 255
173 206 255
173 206 255
173 206 255
173 206 255
173 206 255
173 206 255
173 206 255
173 206 255
173 206 255
173 206 255
173 206 255
173 206 255
173 206 255
173 206 255
173 206 255
173 206 255
173 206 255
173 206 255
173 206 255
173 206 255
173 206 255
173 206 255
173 206 255
173 206 255
173 206 255
173 206 255
173 206 255
173 206 255
173 206 255
173 206 255
173 206 255
173 206 255
173 206 255
173 206 255
173 206 255
172 206 255
172 206 255
172 206 255
172 206 255
172 206 255
172 206 255
172 206 255
172 206 255
172 206 255
172 206 255
172 206 255
172 206 255
172 206 255
172 206 255
172 206 255
172 205 255
172 205 255
172 205 255
172 205 255
172 205 255
172 205 255
172 205 255
172 205 255
172 205 255
172 205 255
172 205 255
172 205 255
172 205 255
172 205 255
172 205 255
172 205 255
172 205 255
172 205 255
172 205 255
172 205 255
172 205 255
172 205 255
172 205 255
172 205 255
172 205 255
172 205 255
172 205 255
172 205 255
172 205 255
172 205 255
172 205 255
171 205 255
171 205 255
171 205 255
171 205 255
171 205 255
171 205 255
171 205 255
171 205 255
171 205 255
171 205 255
171 205 255
171 205 255
171 205 255
171 205 255
171 205 255
171 205 255
171 205 255
171 205 255
171 205 255
171 205 255
171 205 255
171 205 255
171 205 255
171 205 255
171 205 255
171 205 255
171 205 255
171 205 255
171 205 255
171 205 255
171 205 255
171 205 255
171 205 255
171 205 255
171 205 255
171 205 255
171 205 255
171 205 255
171 205 255
171 205 255
171 205 255
171 205 255
171 205 255
171 205 255
171 205 255
171 205 255
171 205 255
171 205 255
170 204 255
170 204 255
170 204 255
170 204 255
170 204 255
170 204 255
170 204 255
170 204 255
170 204 255
170 204 255
170 204 255
170 204 255
170 204 255
170 204 255
170 204 255
170 204 255
170 204 255
170 204 255
170 204 255
170 204 255
170 204 255
170 204 255
170 204 255
170 204 255
170 204 255
170 204 255
170 204 255
170 204 255
170 204 255
170 204 255
170 204 255
170 204 255
170 204 255
170 204 255
170 204 255
170 204 255
170 204 255
170 204 255
170 204 255
170 204 255
170 204 255
170 204 255
170 204 255
170 204 255
170 204 255
170 204 255
170 204 255
170 204 255
170 204 255
170 204 255
170 204 255
170 204 255
170 204 255
170 204 255
170 204 255
170 204 255
170 204 255
170 204 255
170 204 255
170 204 255
170 204 255
170 204 255
170 204 255
170 204 255
170 204 255
170 204 255
170 204 255
170 204 255
170 204 255
170 204 255
170 204 255
170 204 255
170 204 255
170 204 255
170 204 255
170 204 255
170 204 255
170 204 255
170 204 255
170 204 255
170 204 255
170 204 255
170 204 255
170 204 255
170 204 255
170 204 255
170 204 255
170 204 255
170 204 255
170 204 255
170 204 255
170 204 255
171 205 255
171 205 255
171 205 255
171 205 255
171 205 255
171 205 255
171 205 255
171 205 255
171 205 255
171 205 255
171 205 255
171 205 255
171 205 255
171 205 255
171 205 255
171 205 255
171 205 255
171 205 255
171 205 255
171 205 255
171 205 255
171 205 255
171 205 255
171 205 255
171 205 255
171 205 255
171 205 255
171 205 255
171 205 255
171 205 255
171 205 255
171 205 255
171 205 255
171 205 255
171 205 255
171 205 255
171 205 255
171 205 255
171 205 255
171 205 255
171 205 255
171 205 255
171 205 255
171 205 255
171 205 255
171 205 255
171 205 255
171 205 255
172 205 255
172 205 255
172 205 255
172 205 255
172 205 255
172 205 255
172 205 255
172 205 255
172 205 255
172 205 255
172 205 255
172 205 255
172 205 255
172 205 255
172 205 255
172 205 255
172 205 255
172 205 255
172 205 255
172 205 255
172 205 255
172 205 255
172 205 255
172 205 255
172 205 255
172 205 255
172 205 255
172 205 255
172 205 255
172 205 255
172 205 255
172 206 255
172 206 255
172 206 255
172 206 255
172 206 255
172 206 255
172 206 255
172 206 255
172 206 255
172 206 255
172 206 255
172 206 255
172 206 255
172 206 255
172 206 255
172 206 255
173 206 255
173 206 255
173 206 255
173 206 255
173 206 255
173 206 255
173 206 255
173 206 255
173 206 255
173 206 255
173 206 255
173 206 255
173 206 255
173 206 255
173 206 255
173 206 255
173 206 255
173 206 255
173 206 255
173 206 255
173 206 255
173 206 255
173 206 255
173 206 255
173 206 255
173 206 255
173 206 255
173 206 255
173 206 255
173 206 255
173 206 255
173 206 255
173 206 255
173 206 255
173 206 255
173 206 255
173 206 255
173 206 255
173 206 255
173 206 255
173 206 255
173 206 255
173 206 255
173 206 255
173 206 255
173 206 255
173 206 255
173 206 255
173 206 255
173 206 255
173 206 255
173 206 255
173 206 255
173 206 255
173 206 255
173 206 255
173 206 255
173 206 255
174 206 255
174 206 255
174 206 255
174 206 255
174 206 255
174 206 255
174 206 255
174 206 255
174 206 255
174 206 255
174 206 255
174 206 255
174 206 255
174 206 255
174 206 255
174 206 255
174 206 255
174 206 255
174 206 255
173 206 255
173 206 255
173 206 255
173 206 255
173 206 255
173 206 255
173 206 255
173 206 255
173 206 255
173 206 255
173 206 255
173 206 255
173 206 255
173 206 255
173 206 255
173 206 255
173 206 255
173 206 255
173 206 255
173 206 255
173 206 255
173 206 255
173 206 255
173 206 255
173 206 255
173 206 255
173 206 255
173 206 255
173 206 255
173 206 255
173 206 255
173 206 255
173 206 255
173 206 255
173 206 255
173 206 255
173 206 255
173 206 255
173 206 255
173 206 255
173 206 255
173 206 255
173 206 255
173 206 255
173 206 255
173 206 255
173 206 255
173 206 255
173 206 255
173 206 255
173 206 255
173 206 255
173 206 255
173 206 255
172 206 255
172 206 255
172 206 255
172 206 255
172 206 255
172 206 255
172 206 255
172 206 255
172 206 255
172 206 255
172 206 255
172 206 255
172 206 255
172 206 255
172 206 255
172 205 255
172 205 255
172 205 255
172 205 255
172 205 255
172 205 255
172 205 255
172 205 255
172 205 255
172 205 255
172 205 255
172 205 255
172 205 255
172 205 255
172 205 255
172 205 255
172 205 255
172 205 255
172 205 255
172 205 255
172 205 255
172 205 255
172 205 255
172 205 255
172 205 255
172 205 255
172 205 255
172 205 255
172 205 255
172 205 255
171 205 255
171 205 255
171 205 255
171 205 255
171 205 255
171 205 255
171 205 255
171 205 255
171 205 255
171 205 255
171 205 255
171 205 255
171 205 255
171 205 255
171 205 255
171 205 255
171 205 255
171 205 255
171 205 255
171 205 255
171 205 255
171 205 255
171 205 255
171 205 255
171 205 255
171 205 255
171 205 255
171 205 255
171 205 255
171 205 255
171 205 255
171 205 255
171 205 255
171 205 255
171 205 255
171 205 255
171 205 255
171 205 255
171 205 255
171 205 255
171 205 255
171 205 255
171 205 255
171 205 255
171 205 255
171 205 255
171 205 255
171 205 255
171 205 255
171 205 255
171 205 255
171 205 255
171 205 255
171 205 255
171 205 255
171 205 255
171 205 255
170 204 255
170 204 255
170 204 255
170 204 255
170 204 255
170 204 255
170 204 255
170 204 255
170 204 255
170 204 255
170 204 255
170 204 255
170 204 255
170 204 255
170 204 255
170 204 255
170 204 255
170 204 255
170 204 255
170 204 255
170 204 255
170 204 255
170 204 255
170 204 255
170 204 255
170 204 255
170 204 255
170 204 255
170 204 255
170 204 255
170 204 255
170 204 255
170 204 255
170 204 255
170 204 255
170 204 255
170 204 255
170 204 255
170 204 255
170 204 255
170 204 255
170 204 255
170 204 255
170 204 255
170 204 255
170 204 255
170 204 255
170 204 255
170 204 255
170 204 255
170 204 255
170 204 255
171 205 255
171 205 255
171 205 255
171 205 255
171 205 255
171 205 255
171 205 255
171 205 255
171 205 255
171 205 255
171 205 255
171 205 255
171 205 255
171 205 255
171 205 255
171 205 255
171 205 255
171 205 255
171 205 255
171 205 255
171 205 255
171 205 255
171 205 255
171 205 255
171 205 255
171 205 255
171 205 255
171 205 255
171 205 255
171 205 255
171 205 255
171 205 255
171 205 255
171 205 255
171 205 255
171 205 255
171 205 255
171 205 255
171 205 255
171 205 255
171 205 255
171 205 255
171 205 255
171 205 255
171 205 255
171 205 255
171 205 255
171 205 255
171 205 255
171 205 255
171 205 255
171 205 255
171 205 255
171 205 255
171 205 255
171 205 255
171 205 255
172 205 255
172 205 255
172 205 255
172 205 255
172 205 255
172 205 255
172 205 255
172 205 255
172 205 255
172 205 255
172 205 255
172 205 255
172 205 255
172 205 255
172 205 255
172 205 255
172 205 255
172 205 255
172 205 255
172 205 255
172 205 255
172 205 255
172 205 255
172 205 255
172 205 255
172 205 255
172 205 255
172 205 255
172 205 255
172 205 255
172 206 255
172 206 255
172 206 255
172 206 255
172 206 255
172 206 255
172 206 255
172 206 255
172 206 255
172 206 255
172 206 255
172 206 255
172 206 255
172 206 255
172 206 255
173 206 255
173 206 255
173 206 255
173 206 255
173 206 255
173 206 255
173 206 255
173 206 255
173 206 255
173 206 255
173 206 255
173 206 255
173 206 255
173 206 255
173 206 255
173 206 255
173 206 255
173 206 255
173 206 255
173 206 255
173 206 255
173 206 255
173 206 255
173 206 255
173 206 255
173 206 255
173 206 255
173 206 255
173 206 255
173 206 255
173 206 255
173 206 255
173 206 255
173 206 255
173 206 255
173 206 255
173 206 255
173 206 255
173 206 255
173 206 255
173 206 255
173 206 255
173 206 255
173 206 255
173 206 255
173 206 255
173 206 255
173 206 255
173 206 255
173 206 255
173 206 255
173 206 255
173 206 255
173 206 255
174 206 255
174 206 255
174 206 255
174 206 255
174 206 255
174 206 255
174 206 255
174 206 255
174 206 255
174 206 255
174 206 255
174 206 255
174 206 255
174 206 255
174 206 255
174 206 255
174 206 255
174 206 255
174 207 255
174 207 255
174 207 255
174 207 255
174 207 255
174 207 255
174 207 255
174 207 255
174 207 255
174 207 255
174 207 255
174 207 255
174 206 255
174 206 255
174 206 255
174 206 255
174 206 255
174 206 255
174 206 255
174 206 255
174 206 255
174 206 255
174 206 255
174 206 255
174 206 255
174 206 255
174 206 255
174 206 255
174 206 255
174 206 255
174 206 255
174 206 255
174 206 255
173 206 255
173 206 255
173 206 255
173 206 255
173 206 255
173 206 255
173 206 255
173 206 255
173 206 255
173 206 255
173 206 255
173 206 255
173 206 255
173 206 255
173 206 255
173 206 255
173 206 255
173 206 255
173 206 255
173 206 255
173 206 255
173 206 255
173 206 255
173 206 255
173 206 255
173 206 255
173 206 255
173 206 255
173 206 255
173 206 255
173 206 255
173 206 255
173 206 255
173 206 255
173 206 255
173 206 255
173 206 255
173 206 255
173 206 255
173 206 255
173 206 255
173 206 255
173 206 255
173 206 255
173 206 255
173 206 255
173 206 255
173 206 255
173 206 255
173 206 255
173 206 255
172 206 255
172 206 255
172 206 255
172 206 255
172 206 255
172 206 255
172 206 255
172 206 255
172 206 255
172 206 255
172 206 255
172 206 255
172 206 255
172 206 255
172 206 255
172 206 255
172 205 255
172 205 255
172 205 255
172 205 255
172 205 255
172 205 255
172 205 255
172 205 255
172 205 255
172 205 255
172 205 255
172 205 255
172 205 255
172 205 255
172 205 255
172 205 255
172 205 255
172 205 255
172 205 255
172 205 255
172 205 255
172 205 255
172 205 255
172 205 255
172 205 255
172 205 255
172 205 255
172 205 255
172 205 255
172 205 255
171 205 255
171 205 255
171 205 255
171 205 255
171 205 255
171 205 255
171 205 255
171 205 255
171 205 255
171 205 255
171 205 255
171 205 255
171 205 255
171 205 255
171 205 255
171 205 255
171 205 255
171 205 255
171 205 255
171 205 255
171 205 255
171 205 255
171 205 255
171 205 255
171 205 255
171 205 255
171 205 255
171 205 255
171 205 255
171 205 255
171 205 255
171 205 255
171 205 255
171 205 255
171 205 255
171 205 255
171 205 255
171 205 255
171 205 255
171 205 255
171 205 255
171 205 255
171 205 255
171 205 255
171 205 255
171 205 255
171 205 255
171 205 255
171 205 255
171 205 255
171 205 255
171 205 255
171 205 255
171 205 255
171 205 255
171 205 255
171 205 255
171 205 255
171 205 255
171 205 255
171 205 255
171 205 255
171 205 255
171 205 255
171 205 255
171 205 255
171 205 255
171 205 255
171 205 255
171 205 255
171 205 255
171 205 255
171 205 255
171 205 255
171 205 255
171 205 255
171 205 255
171 205 255
171 205 255
171 205 255
171 205 255
171 205 255
171 205 255
171 205 255
171 205 255
171 205 255
171 205 255
171 205 255
171 205 255
171 205 255
171 205 255
171 205 255
171 205 255
171 205 255
171 205 255
171 205 255
171 205 255
171 205 255
171 205 255
171 205 255
171 205 255
171 205 255
171 205 255
171 205 255
171 205 255
171 205 255
171 205 255
171 205 255
171 205 255
171 205 255
171 205 255
171 205 255
171 205 255
171 205 255
171 205 255
171 205 255
171 205 255
171 205 255
171 205 255
171 205 255
171 205 255
171 205 255
171 205 255
171 205 255
171 205 255
171 205 255
171 205 255
171 205 255
171 205 255
171 205 255
171 205 255
171 205 255
171 205 255
171 205 255
171 205 255
171 205 255
171 205 255
171 205 255
171 205 255
171 205 255
171 205 255
172 205 255
172 205 255
172 205 255
172 205 255
172 205 255
172 205 255
172 205 255
172 205 255
172 205 255
172 205 255
172 205 255
172 205 255
172 205 255
172 205 255
172 205 255
172 205 255
172 205 255
172 205 255
172 205 255
172 205 255
172 205 255
172 205 255
172 205 255
172 205 255
172 205 255
172 205 255
172 205 255
172 205 255
172 205 255
172 206 255
172 206 255
172 206 255
172 206 255
172 206 255
172 206 255
172 206 255
172 206 255
172 206 255
172 206 255
172 206 255
172 206 255
172 206 255
172 206 255
172 206 255
172 206 255
173 206 255
173 206 255
173 206 255
173 206 255
173 206 255
173 206 255
173 206 255
173 206 255
173 206 255
173 206 255
173 206 255
173 206 255
173 206 255
173 206 255
173 206 255
173 206 255
173 206 255
173 206 255
173 206 255
173 206 255
173 206 255
173 206 255
173 206 255
173 206 255
173 206 255
173 206 255
173 206 255
173 206 255
173 206 255
173 206 255
173 206 255
173 206 255
173 206 255
173 206 255
173 206 255
173 206 255
173 206 255
173 206 255
173 206 255
173 206 255
173 206 255
173 206 255
173 206 255
173 206 255
173 206 255
173 206 255
173 206 255
173 206 255
173 206 255
173 206 255
173 206 255
173 206 255
174 206 255
174 206 255
174 206 255
174 206 255
174 206 255
174 206 255
174 206 255
174 206 255
174 206 255
174 206 255
174 206 255
174 206 255
174 206 255
174 206 255
174 206 255
174 206 255
174 206 255
174 206 255
174 206 255
174 206 255
174 206 255
174 207 255
174 207 255
174 207 255
174 207 255
174 207 255
174 207 255
174 207 255
174 207 255
174 207 255
174 207 255
174 207 255
174 207 255
174 207 255
174 207 255
174 207 255
174 207 255
174 207 255
174 207 255
174 207 255
174 207 255
174 207 255
174 207 255
174 207 255
174 207 255
174 207 255
174 207 255
174 207 255
174 207 255
174 207 255
174 207 255
174 207 255
174 207 255
174 207 255
174 207 255
174 207 255
174 207 255
174 207 255
174 207 255
174 206 255
174 206 255
174 206 255
174 206 255
174 206 255
174 206 255
174 206 255
174 206 255
174 206 255
174 206 255
174 206 255
174 206 255
174 206 255
174 206 255
174 206 255
174 206 255
174 206 255
174 206 255
174 206 255
174 206 255
173 206 255
173 206 255
173 206 255
173 206 255
173 206 255
173 206 255
173 206 255
173 206 255
173 206 255
173 206 255
173 206 255
173 206 255
173 206 255
173 206 255
173 206 255
173 206 255
173 206 255
173 206 255
173 206 255
173 206 255
173 206 255
173 206 255
173 206 255
173 206 255
173 206 255
173 206 255
173 206 255
173 206 255
173 206 255
173 206 255
173 206 255
173 206 255
173 206 255
173 206 255
173 206 255
173 206 255
173 206 255
173 206 255
173 206 255
173 206 255
173 206 255
173 206 255
173 206 255
173 206 255
173 206 255
173 206 255
173 206 255
173 206 255
173 206 255
172 206 255
172 206 255
172 206 255
172 206 255
172 206 255
172 206 255
172 206 255
172 206 255
172 206 255
172 206 255
172 206 255
172 206 255
172 206 255
172 206 255
172 206 255
172 205 255
172 205 255
172 205 255
172 205 255
172 205 255
172 205 255
172 205 255
172 205 255
172 205 255
172 205 255
172 205 255
172 205 255
172 205 255
172 205 255
172 205 255
172 205 255
172 205 255
172 205 255
172 205 255
172 205 255
172 205 255
172 205 255
172 205 255
172 205 255
172 205 255
172 205 255
172 205 255
172 205 255
172 205 255
172 205 255
172 205 255
172 205 255
172 205 255
171 205 255
171 205 255
171 205 255
171 205 255
171 205 255
171 205 255
171 205 255
171 205 255
171 205 255
171 205 255
171 205 255
171 205 255
171 205 255
171 205 255
171 205 255
171 205 255
171 205 255
171 205 255
171 205 255
171 205 255
171 205 255
171 205 255
171 205 255
171 205 255
171 205 255
171 205 255
171 205 255
171 205 255
171 205 255
171 205 255
171 205 255
171 205 255
171 205 255
171 205 255
171 205 255
171 205 255
171 205 255
171 205 255
171 205 255
171 205 255
171 205 255
171 205 255
171 205 255
171 205 255
171 205 255
171 205 255
171 205 255
171 205 255
171 205 255
171 205 255
171 205 255
171 205 255
171 205 255
171 205 255
171 205 255
171 205 255
171 205 255
171 205 255
171 205 255
171 205 255
171 205 255
171 205 255
171 205 255
171 205 255
171 205 255
171 205 255
171 205 255
171 205 255
171 205 255
171 205 255
171 205 255
171 205 255
171 205 255
171 205 255
171 205 255
171 205 255
171 205 255
171 205 255
171 205 255
171 205 255
171 205 255
171 205 255
171 205 255
171 205 255
171 205 255
171 205 255
171 205 255
171 205 255
171 205 255
171 205 255
171 205 255
171 205 255
171 205 255
171 205 255
171 205 255
171 205 255
171 205 255
171 205 255
171 205 255
171 205 255
171 205 255
171 205 255
171 205 255
171 205 255
171 205 255
171 205 255
171 205 255
171 205 255
171 205 255
171 205 255
171 205 255
171 205 255
171 205 255
172 205 255
172 205 255
172 205 255
172 205 255
172 205 255
172 205 255
172 205 255
172 205 255
172 205 255
172 205 255
172 205 255
172 205 255
172 205 255
172 205 255
172 205 255
172 205 255
172 205 255
172 205 255
172 205 255
172 205 255
172 205 255
172 205 255
172 205 255
172 205 255
172 205 255
172 205 255
172 205 255
172 205 255
172 205 255
172 205 255
172 205 255
172 205 255
172 206 255
172 206 255
172 206 255
172 206 255
172 206 255
172 206 255
172 206 255
172 206 255
172 206 255
172 206 255
172 206 255
172 206 255
172 206 255
172 206 255
172 206 255
173 206 255
173 206 255
173 206 255
173 206 255
173 206 255
173 206 255
173 206 255
173 206 255
173 206 255
173 206 255
173 206 255
173 206 255
173 206 255
173 206 255
173 206 255
173 206 255
173 206 255
173 206 255
173 206 255
173 206 255
173 206 255
173 206 255
173 206 255
173 206 255
173 206 255
173 206 255
173 206 255
173 206 255
173 206 255
173 206 255
173 206 255
173 206 255
173 206 255
173 206 255
173 206 255
173 206 255
173 206 255
173 206 255
173 206 255
173 206 255
173 206 255
173 206 255
173 206 255
173 206 255
173 206 255
173 206 255
173 206 255
173 206 255
173 206 255
174 206 255
174 206 255
174 206 255
174 206 255
174 206 255
174 206 255
174 206 255
174 206 255
174 206 255
174 206 255
174 206 255
174 206 255
174 206 255
174 206 255
174 206 255
174 206 255
174 206 255
174 206 255
174 206 255
174 206 255
174 207 255
174 207 255
174 207 255
174 207 255
174 207 255
174 207 255
174 207 255
174 207 255
174 207 255
174 207 255
174 207 255
174 207 255
174 207 255
174 207 255
174 207 255
174 207 255
174 207 255
174 207 255
174 207 255
174 207 255
174 207 255
174 207 255
174 207 255
174 207 255
174 207 255
174 207 255
174 207 255
174 207 255
174 207 255
174 207 255
174 207 255
174 207 255
174 207 255
174 207 255
174 207 255
174 207 255
174 207 255
174 207 255
174 207 255
174 207 255
174 207 255
174 207 255
174 207 255
174 207 255
174 207 255
174 207 255
174 207 255
174 207 255
174 207 255
174 207 255
174 207 255
174 207 255
174 207 255
174 207 255
174 207 255
174 207 255
174 207 255
174 207 255
174 207 255
174 207 255
174 207 255
174 207 255
174 207 255
174 207 255
174 207 255
174 207 255
174 207 255
174 207 255
174 207 255
174 206 255
174 206 255
174 206 255
174 206 255
174 206 255
174 206 255
174 206 255
174 206 255
174 206 255
174 206 255
174 206 255
174 206 255
174 206 255
174 206 255
174 206 255
174 206 255
174 206 255
173 206 255
173 206 255
173 206 255
173 206 255
173 206 255
173 206 255
173 206 255
173 206 255
173 206 255
173 206 255
173 206 255
173 206 255
173 206 255
173 206 255
173 206 255
173 206 255
173 206 255
173 206 255
173 206 255
173 206 255
173 206 255
173 206 255
173 206 255
173 206 255
173 206 255
173 206 255
173 206 255
173 206 255
173 206 255
173 206 255
173 206 255
173 206 255
173 206 255
173 206 255
173 206 255
173 206 255
173 206 255
173 206 255
173 206 255
173 206 255
173 206 255
173 206 255
173 206 255
173 206 255
173 206 255
173 206 255
173 206 255
173 206 255
172 206 255
172 206 255
172 206 255
172 206 255
172 206 255
172 206 255
172 206 255
172 206 255
172 206 255
172 206 255
172 206 255
172 206 255
172 206 255
172 206 255
172 206 255
172 206 255
172 205 255
172 205 255
172 205 255
172 205 255
172 205 255
172 205 255
172 205 255
172 205 255
172 205 255
172 205 255
172 205 255
172 205 255
172 205 255
172 205 255
172 205 255
172 205 255
172 205 255
172 205 255
172 205 255
172 205 255
172 205 255
172 205 255
172 205 255
172 205 255
172 205 255
172 205 255
172 205 255
172 205 255
172 205 255
172 205 255
172 205 255
172 205 255
172 205 255
172 205 255
172 205 255
172 205 255
171 205 255
171 205 255
171 205 255
171 205 255
171 205 255
171 205 255
171 205 255
171 205 255
171 205 255
171 205 255
171 205 255
171 205 255
171 205 255
171 205 255
171 205 255
171 205 255
171 205 255
171 205 255
171 205 255
171 205 255
171 205 255
171 205 255
171 205 255
171 205 255
171 205 255
171 205 255
171 205 255
171 205 255
171 205 255
171 205 255
171 205 255
171 205 255
171 205 255
171 205 255
171 205 255
171 205 255
171 205 255
171 205 255
171 205 255
171 205 255
171 205 255
171 205 255
171 205 255
171 205 255
171 205 255
171 205 255
171 205 255
171 205 255
171 205 255
171 205 255
171 205 255
171 205 255
171 205 255
171 205 255
171 205 255
171 205 255
171 205 255
171 205 255
171 205 255
171 205 255
171 205 255
171 205 255
171 205 255
171 205 255
171 205 255
171 205 255
171 205 255
171 205 255
171 205 255
171 205 255
171 205 255
171 205 255
171 205 255
171 205 255
171 205 255
171 205 255
171 205 255
171 205 255
171 205 255
171 205 255
171 205 255
171 205 255
172 205 255
172 205 255
172 205 255
172 205 255
172 205 255
172 205 255
172 205 255
172 205 255
172 205 255
172 205 255
172 205 255
172 205 255
172 205 255
172 205 255
172 205 255
172 205 255
172 205 255
172 205 255
172 205 255
172 205 255
172 205 255
172 205 255
172 205 255
172 205 255
172 205 255
172 205 255
172 205 255
172 205 255
172 205 255
172 205 255
172 205 255
172 205 255
172 205 255
172 205 255
172 205 255
172 205 255
172 205 255
172 206 255
172 206 255
172 206 255
172 206 255
172 206 255
172 206 255
172 206 255
172 206 255
172 206 255
172 206 255
172 206 255
172 206 255
172 206 255
172 206 255
172 206 255
173 206 255
173 206 255
173 206 255
173 206 255
173 206 255
173 206 255
173 206 255
173 206 255
173 206 255
173 206 255
173 206 255
173 206 255
173 206 255
173 206 255
173 206 255
173 206 255
173 206 255
173 206 255
173 206 255
173 206 255
173 206 255
173 206 255
173 206 255
173 206 255
173 206 255
173 206 255
173 206 255
173 206 255
173 206 255
173 206 255
173 206 255
173 206 255
173 206 255
173 206 255
173 206 255
173 206 255
173 206 255
173 206 255
173 206 255
173 206 255
173 206 255
173 206 255
173 206 255
173 206 255
173 206 255
173 206 255
173 206 255
174 206 255
174 206 255
174 206 255
174 206 255
174 206 255
174 206 255
174 206 255
174 206 255
174 206 255
174 206 255
174 206 255
174 206 255
174 206 255
174 206 255
174 206 255
174 206 255
174 206 255
174 206 255
174 206 255
174 207 255
174 207 255
174 207 255
174 207 255
174 207 255
174 207 255
174 207 255
174 207 255
174 207 255
174 207 255
174 207 255
174 207 255
174 207 255
174 207 255
174 207 255
174 207 255
174 207 255
174 207 255
174 207 255
174 207 255
174 207 255
174 207 255
174 207 255
174 207 255
174 207 255
174 207 255
174 207 255
174 207 255
174 207 255
174 207 255
174 207 255
174 207 255
174 207 255
174 207 255
174 207 255
174 207 255
174 207 255
174 207 255
174 207 255
174 207 255
174 207 255
175 207 255
175 207 255
175 207 255
175 207 255
175 207 255
175 207 255
175 207 255
175 207 255
175 207 255
175 207 255
175 207 255
175 207 255
175 207 255
175 207 255
175 207 255
174 207 255
174 207 255
174 207 255
174 207 255
174 207 255
174 207 255
174 207 255
174 207 255
174 207 255
174 207 255
174 207 255
174 207 255
174 207 255
174 207 255
174 207 255
174 207 255
174 207 255
174 207 255
174 207 255
174 207 255
174 207 255
174 207 255
174 207 255
174 207 255
174 207 255
174 207 255
174 207 255
174 207 255
174 207 255
174 207 255
174 207 255
174 207 255
174 207 255
174 207 255
174 207 255
174 207 255
174 207 255
174 207 255
174 207 255
174 207 255
174 206 255
174 206 255
174 206 255
174 206 255
174 206 255
174 206 255
174 206 255
174 206 255
174 206 255
174 206 255
174 206 255
174 206 255
174 206 255
174 206 255
174 206 255
174 206 255
174 206 255
174 206 255
173 206 255
173 206 255
173 206 255
173 206 255
173 206 255
173 206 255
173 206 255
173 206 255
173 206 255
173 206 255
173 206 255
173 206 255
173 206 255
173 206 255
173 206 255
173 206 255
173 206 255
173 206 255
173 206 255
173 206 255
173 206 255
173 206 255
173 206 255
173 206 255
173 206 255
173 206 255
173 206 255
173 206 255
173 206 255
173 206 255
173 206 255
173 206 255
173 206 255
173 206 255
173 206 255
173 206 255
173 206 255
173 206 255
173 206 255
173 206 255
173 206 255
173 206 255
173 206 255
173 206 255
173 206 255
173 206 255
173 206 255
172 206 255
172 206 255
172 206 255
172 206 255
172 206 255
172 206 255
172 206 255
172 206 255
172 206 255
172 206 255
172 206 255
172 206 255
172 206 255
172 206 255
172 206 255
172 206 255
172 205 255
172 205 255
172 205 255
172 205 255
172 205 255
172 205 255
172 205 255
172 205 255
172 205 255
172 205 255
172 205 255
172 205 255
172 205 255
172 205 255
172 205 255
172 205 255
172 205 255
172 205 255
172 205 255
172 205 255
172 205 255
172 205 255
172 205 255
172 205 255
172 205 255
172 205 255
172 205 255
172 205 255
172 205 255
172 205 255
172 205 255
172 205 255
172 205 255
172 205 255
172 205 255
172 205 255
172 205 255
172 205 255
172 205 255
172 205 255
172 205 255
172 205 255
172 205 255
172 205 255
172 205 255
172 205 255
172 205 255
171 205 255
172 205 255
171 205 255
171 205 255
171 205 255
171 205 255
171 205 255
171 205 255
171 205 255
171 205 255
171 205 255
171 205 255
171 205 255
171 205 255
171 205 255
171 205 255
171 205 255
171 205 255
171 205 255
171 205 255
171 205 255
171 205 255
171 205 255
171 205 255
171 205 255
171 205 255
171 205 255
171 205 255
171 205 255
171 205 255
171 205 255
171 205 255
171 205 255
172 205 255
171 205 255
172 205 255
172 205 255
172 205 255
172 205 255
172 205 255
172 205 255
172 205 255
172 205 255
172 205 255
172 205 255
172 205 255
172 205 255
172 205 255
172 205 255
172 205 255
172 205 255
172 205 255
172 205 255
172 205 255
172 205 255
172 205 255
172 205 255
172 205 255
172 205 255
172 205 255
172 205 255
172 205 255
172 205 255
172 205 255
172 205 255
172 205 255
172 205 255
172 205 255
172 205 255
172 205 255
172 205 255
172 205 255
172 205 255
172 205 255
172 205 255
172 205 255
172 205 255
172 205 255
172 205 255
172 205 255
172 205 255
172 206 255
172 206 255
172 206 255
172 206 255
172 206 255
172 206 255
172 206 255
172 206 255
172 206 255
172 206 255
172 206 255
172 206 255
172 206 255
172 206 255
172 206 255
172 206 255
172 206 255
173 206 255
173 206 255
173 206 255
173 206 255
173 206 255
173 206 255
173 206 255
173 206 255
173 206 255
173 206 255
173 206 255
173 206 255
173 206 255
173 206 255
173 206 255
173 206 255
173 206 255
173 206 255
173 206 255
173 206 255
173 206 255
173 206 255
173 206 255
173 206 255
173 206 255
173 206 255
173 206 255
173 206 255
173 206 255
173 206 255
173 206 255
173 206 255
173 206 255
173 206 255
173 206 255
173 206 255
173 206 255
173 206 255
173 206 255
173 206 255
173 206 255
173 206 255
173 206 255
173 206 255
173 206 255
173 206 255
173 206 255
174 206 255
174 206 255
174 206 255
174 206 255
174 206 255
174 206 255
174 206 255
174 206 255
174 206 255
174 206 255
174 206 255
174 206 255
174 206 255
174 206 255
174 206 255
174 206 255
174 207 255
174 207 255
174 207 255
174 207 255
174 207 255
174 207 255
174 207 255
174 207 255
174 207 255
174 207 255
174 207 255
174 207 255
174 207 255
174 207 255
174 207 255
174 207 255
174 207 255
174 207 255
174 207 255
174 207 255
174 207 255
174 207 255
174 207 255
174 207 255
174 207 255
174 207 255
174 207 255
174 207 255
174 207 255
174 207 255
174 207 255
174 207 255
174 207 255
174 207 255
174 207 255
174 207 255
174 207 255
174 207 255
174 207 255
174 207 255
174 207 255
175 207 255
175 207 255
175 207 255
175 207 255
175 207 255
175 207 255
175 207 255
175 207 255
175 207 255
175 207 255
175 207 255
175 207 255
175 207 255
175 207 255
175 207 255
175 207 255
175 207 255
175 207 255
175 207 255
175 207 255
175 207 255
175 207 255
175 207 255
175 207 255
175 207 255
175 207 255
175 207 255
175 207 255
175 207 255
175 207 255
175 207 255
175 207 255
175 207 255
175 207 255
175 207 255
175 207 255
175 207 255
175 207 255
175 207 255
175 207 255
175 207 255
175 207 255
175 207 255
175 207 255
175 207 255
175 207 255
175 207 255
174 207 255
174 207 255
174 207 255
174 207 255
174 207 255
174 207 255
174 207 255
174 207 255
174 207 255
174 207 255
174 207 255
174 207 255
174 207 255
174 207 255
174 207 255
174 207 255
174 207 255
174 207 255
174 207 255
174 207 255
174 207 255
174 207 255
174 207 255
174 207 255
174 207 255
174 207 255
174 207 255
174 207 255
174 207 255
174 207 255
174 207 255
174 207 255
174 207 255
174 207 255
174 207 255
174 207 255
174 206 255
174 206 255
174 206 255
174 206 255
174 206 255
174 206 255
174 206 255
174 206 255
174 206 255
174 206 255
174 206 255
174 206 255
174 206 255
174 206 255
174 206 255
174 206 255
174 206 255
173 206 255
173 206 255
173 206 255
173 206 255
173 206 255
173 206 255
173 206 255
173 206 255
173 206 255
173 206 255
173 206 255
173 206 255
173 206 255
173 206 255
173 206 255
173 206 255
173 206 255
173 206 255
173 206 255
173 206 255
173 206 255
173 206 255
173 206 255
173 206 255
173 206 255
173 206 255
173 206 255
173 206 255
173 206 255
173 206 255
173 206 255
173 206 255
173 206 255
173 206 255
173 206 255
173 206 255
173 206 255
173 206 255
173 206 255
173 206 255
173 206 255
173 206 255
173 206 255
173 206 255
173 206 255
173 206 255
173 206 255
172 206 255
172 206 255
172 206 255
172 206 255
172 206 255
172 206 255
172 206 255
172 206 255
172 206 255
172 206 255
172 206 255
172 206 255
172 206 255
172 206 255
172 206 255
172 206 255
172 206 255
172 206 255
172 206 255
172 205 255
172 205 255
172 205 255
172 205 255
172 205 255
172 205 255
172 205 255
172 205 255
172 205 255
172 205 255
172 205 255
172 205 255
172 205 255
172 205 255
172 205 255
172 205 255
172 205 255
172 205 255
172 205 255
172 205 255
172 205 255
172 205 255
172 205 255
172 205 255
172 205 255
172 205 255
172 205 255
172 205 255
172 205 255
172 205 255
172 205 255
172 205 255
172 205 255
172 205 255
172 205 255
172 205 255
172 205 255
172 205 255
172 205 255
172 205 255
172 205 255
172 205 255
172 205 255
172 205 255
172 205 255
172 205 255
172 205 255
172 205 255
172 205 255
172 205 255
172 205 255
172 205 255
172 205 255
172 205 255
172 205 255
172 205 255
172 205 255
172 205 255
172 205 255
172 205 255
172 205 255
172 205 255
172 205 255
172 205 255
172 205 255
172 205 255
172 205 255
172 205 255
172 205 255
172 205 255
172 205 255
172 205 255
172 205 255
172 205 255
172 205 255
172 205 255
172 205 255
172 205 255
172 205 255
172 205 255
172 205 255
172 205 255
172 205 255
172 205 255
172 205 255
172 205 255
172 205 255
172 205 255
172 205 255
172 205 255
172 205 255
172 205 255
172 205 255
172 205 255
172 205 255
172 205 255
172 205 255
172 205 255
172 206 255
172 206 255
172 206 255
172 206 255
172 206 255
172 206 255
172 206 255
172 206 255
172 206 255
172 206 255
172 206 255
172 206 255
172 206 255
172 206 255
172 206 255
172 206 255
172 206 255
172 206 255
173 206 255
173 206 255
173 206 255
173 206 255
173 206 255
173 206 255
173 206 255
173 206 255
173 206 255
173 206 255
173 206 255
173 206 255
173 206 255
173 206 255
173 206 255
173 206 255
173 206 255
173 206 255
173 206 255
173 206 255
173 206 255
173 206 255
173 206 255
173 206 255
173 206 255
173 206 255
173 206 255
173 206 255
173 206 255
173 206 255
173 206 255
173 206 255
173 206 255
173 206 255
173 206 255
173 206 255
173 206 255
173 206 255
173 206 255
173 206 255
173 206 255
173 206 255
173 206 255
173 206 255
173 206 255
173 206 255
173 206 255
173 206 255
174 206 255
174 206 255
174 206 255
174 206 255
174 206 255
174 206 255
174 206 255
174 206 255
174 206 255
174 206 255
174 206 255
174 206 255
174 206 255
174 206 255
174 206 255
174 206 255
174 206 255
174 207 255
174 207 255
174 207 255
174 207 255
174 207 255
174 207 255
174 207 255
174 207 255
174 207 255
174 207 255
174 207 255
174 207 255
174 207 255
174 207 255
174 207 255
174 207 255
174 207 255
174 207 255
174 207 255
174 207 255
174 207 255
174 207 255
174 207 255
174 207 255
174 207 255
174 207 255
174 207 255
174 207 255
174 207 255
174 207 255
174 207 255
174 207 255
174 207 255
174 207 255
174 207 255
174 207 255
174 207 255
175 207 255
175 207 255
175 207 255
175 207 255
175 207 255
175 207 255
175 207 255
175 207 255
175 207 255
175 207 255
175 207 255
175 207 255
175 207 255
175 207 255
175 207 255
175 207 255
175 207 255
175 207 255
175 207 255
175 207 255
175 207 255
175 207 255
175 207 255
175 207 255
175 207 255
175 207 255
175 207 255
175 207 255
175 207 255
175 207 255
175 207 255
175 207 255
175 207 255
175 207 255
175 207 255
175 207 255
175 207 255
175 207 255
175 207 255
175 207 255
175 207 255
175 207 255
175 207 255
175 207 255
175 207 255
175 207 255
175 207 255
175 207 255
175 207 255
175 207 255
175 207 255
175 207 255
175 207 255
175 207 255
175 207 255
175 207 255
175 207 255
175 207 255
175 207 255
175 207 255
175 207 255
175 207 255
175 207 255
175 207 255
175 207 255
175 207 255
175 207 255
175 207 255
175 207 255
175 207 255
175 207 255
175 207 255
175 207 255
175 207 255
175 207 255
175 207 255
175 207 255
174 207 255
174 207 255
174 207 255
174 207 255
174 207 255
174 207 255
174 207 255
174 207 255
174 207 255
174 207 255
174 207 255
174 207 255
174 207 255
174 207 255
174 207 255
174 207 255
174 207 255
174 207 255
174 207 255
174 207 255
174 207 255
174 207 255
174 207 255
174 207 255
174 207 255
174 207 255
174 207 255
174 207 255
174 207 255
174 207 255
174 207 255
174 207 255
174 207 255
174 207 255
174 207 255
174 206 255
174 206 255
174 206 255
174 206 255
174 206 255
174 206 255
174 206 255
174 206 255
174 206 255
174 206 255
174 206 255
174 206 255
174 206 255
174 206 255
174 206 255
174 206 255
173 206 255
173 206 255
173 206 255
173 206 255
173 206 255
173 206 255
173 206 255
173 206 255
173 206 255
173 206 255
173 206 255
173 206 255
173 206 255
173 206 255
173 206 255
173 206 255
173 206 255
173 206 255
173 206 255
173 206 255
173 206 255
173 206 255
173 206 255
173 206 255
173 206 255
173 206 255
173 206 255
173 206 255
173 206 255
173 206 255
173 206 255
173 206 255
173 206 255
173 206 255
173 206 255
173 206 255
173 206 255
173 206 255
173 206 255
173 206 255
173 206 255
173 206 255
173 206 255
173 206 255
173 206 255
173 206 255
173 206 255
173 206 255
173 206 255
173 206 255
172 206 255
172 206 255
172 206 255
172 206 255
172 206 255
172 206 255
172 206 255
172 206 255
172 206 255
172 206 255
172 206 255
172 206 255
172 206 255
172 206 255
172 206 255
172 206 255
172 206 255
172 206 255
172 206 255
172 206 255
172 206 255
172 206 255
172 206 255
172 205 255
172 205 255
172 205 255
172 205 255
172 205 255
172 205 255
172 205 255
172 205 255
172 205 255
172 205 255
172 205 255
172 205 255
172 205 255
172 205 255
172 205 255
172 205 255
172 205 255
172 205 255
172 205 255
172 205 255
172 205 255
172 205 255
172 205 255
172 205 255
172 205 255
172 205 255
172 205 255
172 205 255
172 205 255
172 205 255
172 205 255
172 205 255
172 205 255
172 205 255
172 205 255
172 205 255
172 205 255
172 205 255
172 205 255
172 205 255
172 205 255
172 205 255
172 205 255
172 205 255
172 205 255
172 205 255
172 205 255
172 205 255
172 205 255
172 205 255
172 205 255
172 205 255
172 205 255
172 205 255
172 205 255
172 205 255
172 205 255
172 205 255
172 205 255
172 206 255
172 205 255
172 206 255
172 206 255
172 206 255
172 206 255
172 206 255
172 206 255
172 206 255
172 206 255
172 206 255
172 206 255
172 206 255
172 206 255
172 206 255
172 206 255
172 206 255
172 206 255
172 206 255
172 206 255
172 206 255
172 206 255
172 206 255
172 206 255
172 206 255
173 206 255
173 206 255
173 206 255
173 206 255
173 206 255
173 206 255
173 206 255
173 206 255
173 206 255
173 206 255
173 206 255
173 206 255
173 206 255
173 206 255
173 206 255
173 206 255
173 206 255
173 206 255
173 206 255
173 206 255
173 206 255
173 206 255
173 206 255
173 206 255
173 206 255
173 206 255
173 206 255
173 206 255
173 206 255
173 206 255
173 206 255
173 206 255
173 206 255
173 206 255
173 206 255
173 206 255
173 206 255
173 206 255
173 206 255
173 206 255
173 206 255
173 206 255
173 206 255
173 206 255
173 206 255
173 206 255
173 206 255
173 206 255
174 206 255
174 206 255
174 206 255
174 206 255
174 206 255
174 206 255
174 206 255
174 206 255
174 206 255
174 206 255
174 206 255
174 206 255
174 206 255
174 206 255
174 206 255
174 206 255
174 206 255
174 207 255
174 207 255
174 207 255
174 207 255
174 207 255
174 207 255
174 207 255
174 207 255
174 207 255
174 207 255
174 207 255
174 207 255
174 207 255
174 207 255
174 207 255
174 207 255
174 207 255
174 207 255
174 207 255
174 207 255
174 207 255
174 207 255
174 207 255
174 207 255
174 207 255
174 207 255
174 207 255
174 207 255
174 207 255
174 207 255
174 207 255
174 207 255
174 207 255
174 207 255
174 207 255
175 207 255
175 207 255
175 207 255
175 207 255
175 207 255
175 207 255
175 207 255
175 207 255
175 207 255
175 207 255
175 207 255
175 207 255
175 207 255
175 207 255
175 207 255
175 207 255
175 207 255
175 207 255
175 207 255
175 207 255
175 207 255
175 207 255
175 207 255
175 207 255
175 207 255
175 207 255
175 207 255
175 207 255
175 207 255
175 207 255
175 207 255
175 207 255
175 207 255
175 207 255
175 207 255
175 207 255
175 207 255
175 207 255
175 207 255
175 207 255
175 207 255
175 207 255
175 207 255
175 207 255
175 207 255
175 207 255
175 207 255
175 207 255
175 207 255
175 207 255
175 207 255
175 207 255
175 207 255
175 207 255
175 207 255
175 207 255
175 207 255
175 207 255
175 207 255
175 207 255
175 207 255
175 207 255
175 207 255
175 207 255
175 207 255
175 207 255
175 207 255
175 207 255
175 207 255
175 207 255
175 207 255
175 207 255
175 207 255
175 207 255
175 207 255
175 207 255
175 207 255
175 207 255
175 207 255
175 207 255
175 207 255
175 207 255
175 207 255
175 207 255
175 207 255
175 207 255
175 207 255
175 207 255
175 207 255
175 207 255
175 207 255
175 207 255
175 207 255
175 207 255
175 207 255
175 207 255
175 207 255
175 207 255
175 207 255
175 207 255
175 207 255
175 207 255
175 207 255
175 207 255
175 207 255
175 207 255
175 207 255
174 207 255
174 207 255
174 207 255
174 207 255
174 207 255
174 207 255
174 207 255
174 207 255
174 207 255
174 207 255
174 207 255
174 207 255
174 207 255
174 207 255
174 207 255
174 207 255
174 207 255
174 207 255
174 207 255
174 207 255
174 207 255
174 207 255
174 207 255
174 207 255
174 207 255
174 207 255
174 207 255
174 207 255
174 207 255
174 207 255
174 207 255
174 207 255
174 207 255
174 206 255
174 206 255
174 206 255
174 206 255
174 206 255
174 206 255
174 206 255
174 206 255
174 206 255
174 206 255
174 206 255
174 206 255
174 206 255
174 206 255
174 206 255
174 206 255
174 206 255
173 206 255
173 206 255
173 206 255
173 206 255
173 206 255
173 206 255
173 206 255
173 206 255
173 206 255
173 206 255
173 206 255
173 206 255
173 206 255
173 206 255
173 206 255
173 206 255
173 206 255
173 206 255
173 206 255
173 206 255
173 206 255
173 206 255
173 206 255
173 206 255
173 206 255
173 206 255
173 206 255
173 206 255
173 206 255
173 206 255
173 206 255
173 206 255
173 206 255
173 206 255
173 206 255
173 206 255
173 206 255
173 206 255
173 206 255
173 206 255
173 206 255
173 206 255
173 206 255
173 206 255
173 206 255
173 206 255
173 206 255
173 206 255
173 206 255
173 206 255
173 206 255
173 206 255
173 206 255
173 206 255
172 206 255
172 206 255
172 206 255
172 206 255
172 206 255
172 206 255
172 206 255
172 206 255
172 206 255
172 206 255
172 206 255
172 206 255
172 206 255
172 206 255
172 206 255
172 206 255
172 206 255
172 206 255
172 206 255
172 206 255
172 206 255
172 206 255
172 206 255
172 206 255
172 206 255
172 206 255
172 206 255
172 206 255
172 206 255
172 206 255
172 206 255
172 206 255
172 206 255
172 206 255
172 206 255
172 206 255
172 206 255
172 206 255
172 206 255
172 206 255
172 206 255
172 206 255
172 206 255
172 206 255
172 206 255
172 206 255
172 206 255
172 206 255
172 206 255
172 206 255
172 206 255
172 206 255
172 206 255
172 206 255
172 206 255
172 206 255
172 206 255
172 206 255
172 206 255
172 206 255
172 206 255
172 206 255
172 206 255
172 206 255
172 206 255
172 206 255
172 206 255
172 206 255
172 206 255
172 206 255
173 206 255
173 206 255
173 206 255
173 206 255
173 206 255
173 206 255
173 206 255
173 206 255
173 206 255
173 206 255
173 206 255
173 206 255
173 206 255
173 206 255
173 206 255
173 206 255
173 206 255
173 206 255
173 206 255
173 206 255
173 206 255
173 206 255
173 206 255
173 206 255
173 206 255
173 206 255
173 206 255
173 206 255
173 206 255
173 206 255
173 206 255
173 206 255
173 206 255
173 206 255
173 206 255
173 206 255
173 206 255
173 206 255
173 206 255
173 206 255
173 206 255
173 206 255
173 206 255
173 206 255
173 206 255
173 206 255
173 206 255
173 206 255
173 206 255
173 206 255
173 206 255
173 206 255
173 206 255
173 206 255
173 206 255
174 206 255
174 206 255
174 206 255
174 206 255
174 206 255
174 206 255
174 206 255
174 206 255
174 206 255
174 206 255
174 206 255
174 206 255
174 206 255
174 206 255
174 206 255
174 207 255
174 207 255
174 207 255
174 207 255
174 207 255
174 207 255
174 207 255
174 207 255
174 207 255
174 207 255
174 207 255
174 207 255
174 207 255
174 207 255
174 207 255
174 207 255
174 207 255
174 207 255
174 207 255
174 207 255
174 207 255
174 207 255
174 207 255
174 207 255
174 207 255
174 207 255
174 207 255
174 207 255
174 207 255
174 207 255
174 207 255
174 207 255
174 207 255
174 207 255
174 207 255
175 207 255
175 207 255
175 207 255
175 207 255
175 207 255
175 207 255
175 207 255
175 207 255
175 207 255
175 207 255
175 207 255
175 207 255
175 207 255
175 207 255
175 207 255
175 207 255
175 207 255
175 207 255
175 207 255
175 207 255
175 207 255
175 207 255
175 207 255
175 207 255
175 207 255
175 207 255
175 207 255
175 207 255
175 207 255
175 207 255
175 207 255
175 207 255
175 207 255
175 207 255
175 207 255
175 207 255
175 207 255
175 207 255
175 207 255
175 207 255
175 207 255
175 207 255
175 207 255
175 207 255
175 207 255
175 207 255
175 207 255
175 207 255
175 207 255
175 207 255
175 207 255
175 207 255
175 207 255
175 207 255
175 207 255
175 207 255
175 207 255
175 207 255
175 207 255
175 207 255
176 208 255
176 208 255
176 208 255
176 208 255
176 208 255
176 208 255
176 208 255
176 208 255
176 208 255
176 208 255
176 208 255
176 208 255
176 208 255
176 208 255
175 207 255
175 207 255
175 207 255
175 207 255
175 207 255
175 207 255
175 207 255
175 207 255
175 207 255
175 207 255
175 207 255
175 207 255
175 207 255
175 207 255
175 207 255
175 207 255
175 207 255
175 207 255
175 207 255
175 207 255
175 207 255
175 207 255
175 207 255
175 207 255
175 207 255
175 207 255
175 207 255
175 207 255
175 207 255
175 207 255
175 207 255
175 207 255
175 207 255
175 207 255
175 207 255
175 207 255
175 207 255
175 207 255
175 207 255
175 207 255
175 207 255
175 207 255
175 207 255
175 207 255
175 207 255
175 207 255
175 207 255
175 207 255
175 207 255
175 207 255
175 207 255
175 207 255
175 207 255
175 207 255
175 207 255
175 207 255
175 207 255
175 207 255
175 207 255
175 207 255
174 207 255
174 207 255
174 207 255
174 207 255
174 207 255
174 207 255
174 207 255
174 207 255
174 207 255
174 207 255
174 207 255
174 207 255
174 207 255
174 207 255
174 207 255
174 207 255
174 207 255
174 207 255
174 207 255
174 207 255
174 207 255
174 207 255
174 207 255
174 207 255
174 207 255
174 207 255
174 207 255
174 207 255
174 207 255
174 207 255
174 207 255
174 207 255
174 207 255
174 207 255
174 206 255
174 206 255
174 206 255
174 206 255
174 206 255
174 206 255
174 206 255
174 206 255
174 206 255
174 206 255
174 206 255
174 206 255
174 206 255
174 206 255
174 206 255
174 206 255
173 206 255
173 206 255
173 206 255
173 206 255
173 206 255
173 206 255
173 206 255
173 206 255
173 206 255
173 206 255
173 206 255
173 206 255
173 206 255
173 206 255
173 206 255
173 206 255
173 206 255
173 206 255
173 206 255
173 206 255
173 206 255
173 206 255
173 206 255
173 206 255
173 206 255
173 206 255
173 206 255
173 206 255
173 206 255
173 206 255
173 206 255
173 206 255
173 206 255
173 206 255
173 206 255
173 206 255
173 206 255
173 206 255
173 206 255
173 206 255
173 206 255
173 206 255
173 206 255
173 206 255
173 206 255
173 206 255
173 206 255
173 206 255
173 206 255
173 206 255
173 206 255
173 206 255
173 206 255
173 206 255
173 206 255
173 206 255
173 206 255
173 206 255
173 206 255
173 206 255
173 206 255
173 206 255
173 206 255
173 206 255
173 206 255
173 206 255
173 206 255
173 206 255
173 206 255
173 206 255
173 206 255
173 206 255
173 206 255
173 206 255
173 206 255
173 206 255
173 206 255
173 206 255
173 206 255
173 206 255
173 206 255
173 206 255
173 206 255
173 206 255
173 206 255
173 206 255
173 206 255
173 206 255
173 206 255
173 206 255
173 206 255
173 206 255
173 206 255
173 206 255
173 206 255
173 206 255
173 206 255
173 206 255
173 206 255
173 206 255
173 206 255
173 206 255
173 206 255
173 206 255
173 206 255
173 206 255
173 206 255
173 206 255
173 206 255
173 206 255
173 206 255
173 206 255
173 206 255
173 206 255
173 206 255
173 206 255
173 206 255
173 206 255
173 206 255
173 206 255
173 206 255
173 206 255
173 206 255
173 206 255
173 206 255
173 206 255
173 206 255
173 206 255
173 206 255
173 206 255
173 206 255
173 206 255
173 206 255
173 206 255
173 206 255
173 206 255
173 206 255
173 206 255
173 206 255
173 206 255
173 206 255
173 206 255
173 206 255
173 206 255
173 206 255
173 206 255
173 206 255
173 206 255
173 206 255
173 206 255
173 206 255
173 206 255
173 206 255
174 206 255
174 206 255
174 206 255
174 206 255
174 206 255
174 206 255
174 206 255
174 206 255
174 206 255
174 206 255
174 206 255
174 206 255
174 206 255
174 206 255
174 206 255
174 207 255
174 207 255
174 207 255
174 207 255
174 207 255
174 207 255
174 207 255
174 207 255
174 207 255
174 207 255
174 207 255
174 207 255
174 207 255
174 207 255
174 207 255
174 207 255
174 207 255
174 207 255
174 207 255
174 207 255
174 207 255
174 207 255
174 207 255
174 207 255
174 207 255
174 207 255
174 207 255
174 207 255
174 207 255
174 207 255
174 207 255
174 207 255
174 207 255
174 207 255
175 207 255
175 207 255
175 207 255
175 207 255
175 207 255
175 207 255
175 207 255
175 207 255
175 207 255
175 207 255
175 207 255
175 207 255
175 207 255
175 207 255
175 207 255
175 207 255
175 207 255
175 207 255
175 207 255
175 207 255
175 207 255
175 207 255
175 207 255
175 207 255
175 207 255
175 207 255
175 207 255
175 207 255
175 207 255
175 207 255
175 207 255
175 207 255
175 207 255
175 207 255
175 207 255
175 207 255
175 207 255
175 207 255
175 207 255
175 207 255
175 207 255
175 207 255
175 207 255
175 207 255
175 207 255
175 207 255
175 207 255
175 207 255
175 207 255
175 207 255
175 207 255
175 207 255
175 207 255
175 207 255
175 207 255
175 207 255
175 207 255
175 207 255
175 207 255
175 207 255
175 207 255
176 208 255
176 208 255
176 208 255
176 208 255
176 208 255
176 208 255
176 208 255
176 208 255
176 208 255
176 208 255
176 208 255
176 208 255
176 208 255
176 208 255
176 208 255
176 208 255
176 208 255
176 208 255
176 208 255
176 208 255
176 208 255
176 208 255
176 208 255
176 208 255
176 208 255
176 208 255
176 208 255
176 208 255
176 208 255
176 208 255
176 208 255
176 208 255
176 208 255
176 208 255
176 208 255
176 208 255
176 208 255
176 208 255
176 208 255
176 208 255
176 208 255
176 208 255
176 208 255
176 208 255
175 207 255
175 207 255
175 207 255
175 207 255
175 207 255
175 207 255
175 207 255
175 207 255
175 207 255
175 207 255
175 207 255
175 207 255
175 207 255
175 207 255
175 207 255
175 207 255
175 207 255
175 207 255
175 207 255
175 207 255
175 207 255
175 207 255
175 207 255
175 207 255
175 207 255
175 207 255
175 207 255
175 207 255
175 207 255
175 207 255
175 207 255
175 207 255
175 207 255
175 207 255
175 207 255
175 207 255
175 207 255
175 207 255
175 207 255
175 207 255
175 207 255
175 207 255
175 207 255
175 207 255
175 207 255
175 207 255
175 207 255
175 207 255
175 207 255
175 207 255
175 207 255
175 207 255
175 207 255
175 207 255
175 207 255
175 207 255
174 207 255
174 207 255
174 207 255
174 207 255
174 207 255
174 207 255
174 207 255
174 207 255
174 207 255
174 207 255
174 207 255
174 207 255
174 207 255
174 207 255
174 207 255
174 207 255
174 207 255
174 207 255
174 207 255
174 207 255
174 207 255
174 207 255
174 207 255
174 207 255
174 207 255
174 207 255
174 207 255
174 207 255
174 207 255
174 207 255
174 207 255
174 207 255
174 206 255
174 206 255
174 206 255
174 206 255
174 206 255
174 206 255
174 206 255
174 206 255
174 206 255
174 206 255
174 206 255
174 206 255
174 206 255
174 206 255
174 206 255
174 206 255
174 206 255
174 206 255
173 206 255
173 206 255
173 206 255
173 206 255
173 206 255
173 206 255
173 206 255
173 206 255
173 206 255
173 206 255
173 206 255
173 206 255
173 206 255
173 206 255
173 206 255
173 206 255
173 206 255
173 206 255
173 206 255
173 206 255
173 206 255
173 206 255
173 206 255
173 206 255
173 206 255
173 206 255
173 206 255
173 206 255
173 206 255
173 206 255
173 206 255
173 206 255
173 206 255
173 206 255
173 206 255
173 206 255
173 206 255
173 206 255
173 206 255
173 206 255
173 206 255
173 206 255
173 206 255
173 206 255
173 206 255
173 206 255
173 206 255
173 206 255
173 206 255
173 206 255
173 206 255
173 206 255
173 206 255
173 206 255
173 206 255
173 206 255
173 206 255
173 206 255
173 206 255
173 206 255
173 206 255
173 206 255
173 206 255
173 206 255
173 206 255
173 206 255
173 206 255
173 206 255
173 206 255
173 206 255
173 206 255
173 206 255
173 206 255
173 206 255
173 206 255
173 206 255
173 206 255
173 206 255
173 206 255
173 206 255
173 206 255
173 206 255
173 206 255
173 206 255
173 206 255
173 206 255
173 206 255
173 206 255
173 206 255
173 206 255
173 206 255
173 206 255
173 206 255
173 206 255
173 206 255
173 206 255
173 206 255
173 206 255
173 206 255
173 206 255
173 206 255
173 206 255
173 206 255
173 206 255
173 206 255
173 206 255
173 206 255
173 206 255
173 206 255
173 206 255
173 206 255
173 206 255
173 206 255
173 206 255
173 206 255
173 206 255
173 206 255
173 206 255
173 206 255
173 206 255
173 206 255
173 206 255
173 206 255
173 206 255
173 206 255
173 206 255
174 206 255
174 206 255
174 206 255
174 206 255
174 206 255
174 206 255
174 206 255
174 206 255
174 206 255
174 206 255
174 206 255
174 206 255
174 206 255
174 206 255
174 206 255
174 206 255
174 206 255
174 207 255
174 207 255
174 207 255
174 207 255
174 207 255
174 207 255
174 207 255
174 207 255
174 207 255
174 207 255
174 207 255
174 207 255
174 207 255
174 207 255
174 207 255
174 207 255
174 207 255
174 207 255
174 207 255
174 207 255
174 207 255
174 207 255
174 207 255
174 207 255
174 207 255
174 207 255
174 207 255
174 207 255
174 207 255
174 207 255
174 207 255
174 207 255
174 207 255
175 207 255
175 207 255
175 207 255
175 207 255
175 207 255
175 207 255
175 207 255
175 207 255
175 207 255
175 207 255
175 207 255
175 207 255
175 207 255
175 207 255
175 207 255
175 207 255
175 207 255
175 207 255
175 207 255
175 207 255
175 207 255
175 207 255
175 207 255
175 207 255
175 207 255
175 207 255
175 207 255
175 207 255
175 207 255
175 207 255
175 207 255
175 207 255
175 207 255
175 207 255
175 207 255
175 207 255
175 207 255
175 207 255
175 207 255
175 207 255
175 207 255
175 207 255
175 207 255
175 207 255
175 207 255
175 207 255
175 207 255
175 207 255
175 207 255
175 207 255
175 207 255
175 207 255
175 207 255
175 207 255
175 207 255
175 207 255
176 208 255
176 208 255
176 208 255
176 208 255
176 208 255
176 208 255
176 208 255
176 208 255
176 208 255
176 208 255
176 208 255
176 208 255
176 208 255
176 208 255
176 208 255
176 208 255
176 208 255
176 208 255
176 208 255
176 208 255
176 208 255
176 208 255
176 208 255
176 208 255
176 208 255
176 208 255
176 208 255
176 208 255
176 208 255
176 208 255
176 208 255
176 208 255
176 208 255
176 208 255
176 208 255
176 208 255
176 208 255
176 208 255
176 208 255
176 208 255
176 208 255
176 208 255
176 208 255
176 208 255
176 208 255
176 208 255
176 208 255
176 208 255
176 208 255
176 208 255
176 208 255
176 208 255
176 208 255
176 208 255
176 208 255
176 208 255
176 208 255
176 208 255
176 208 255
176 208 255
176 208 255
176 208 255
176 208 255
176 208 255
176 208 255
176 208 255
176 208 255
176 208 255
176 208 255
176 208 255
176 208 255
176 208 255
176 208 255
176 208 255
176 208 255
176 208 255
176 208 255
176 207 255
175 207 255
175 207 255
175 207 255
175 207 255
175 207 255
175 207 255
175 207 255
175 207 255
175 207 255
175 207 255
175 207 255
175 207 255
175 207 255
175 207 255
175 207 255
175 207 255
175 207 255
175 207 255
175 207 255
175 207 255
175 207 255
175 207 255
175 207 255
175 207 255
175 207 255
175 207 255
175 207 255
175 207 255
175 207 255
175 207 255
175 207 255
175 207 255
175 207 255
175 207 255
175 207 255
175 207 255
175 207 255
175 207 255
175 207 255
175 207 255
175 207 255
175 207 255
175 207 255
175 207 255
175 207 255
175 207 255
175 207 255
175 207 255
175 207 255
175 207 255
175 207 255
175 207 255
175 207 255
175 207 255
174 207 255
174 207 255
174 207 255
174 207 255
174 207 255
174 207 255
174 207 255
174 207 255
174 207 255
174 207 255
174 207 255
174 207 255
174 207 255
174 207 255
174 207 255
174 207 255
174 207 255
174 207 255
174 207 255
174 207 255
174 207 255
174 207 255
174 207 255
174 207 255
174 207 255
174 207 255
174 207 255
174 207 255
174 207 255
174 207 255
174 207 255
174 207 255
174 207 255
174 206 255
174 206 255
174 206 255
174 206 255
174 206 255
174 206 255
174 206 255
174 206 255
174 206 255
174 206 255
174 206 255
174 206 255
174 206 255
174 206 255
174 206 255
174 206 255
174 206 255
174 206 255
174 206 255
174 206 255
173 206 255
173 206 255
173 206 255
173 206 255
173 206 255
173 206 255
173 206 255
173 206 255
173 206 255
173 206 255
173 206 255
173 206 255
173 206 255
173 206 255
173 206 255
173 206 255
173 206 255
173 206 255
173 206 255
173 206 255
173 206 255
173 206 255
173 206 255
173 206 255
173 206 255
173 206 255
173 206 255
173 206 255
173 206 255
173 206 255
173 206 255
173 206 255
173 206 255
173 206 255
173 206 255
173 206 255
173 206 255
173 206 255
173 206 255
173 206 255
173 206 255
173 206 255
173 206 255
173 206 255
173 206 255
173 206 255
173 206 255
173 206 255
173 206 255
173 206 255
173 206 255
173 206 255
173 206 255
173 206 255
173 206 255
173 206 255
173 206 255
173 206 255
173 206 255
173 206 255
173 206 255
173 206 255
173 206 255
173 206 255
173 206 255
173 206 255
173 206 255
173 206 255
173 206 255
173 206 255
173 206 255
173 206 255
173 206 255
173 206 255
173 206 255
173 206 255
173 206 255
173 206 255
173 206 255
173 206 255
173 206 255
173 206 255
173 206 255
173 206 255
173 206 255
173 206 255
173 206 255
173 206 255
173 206 255
173 206 255
173 206 255
173 206 255
174 206 255
174 206 255
174 206 255
174 206 255
174 206 255
174 206 255
174 206 255
174 206 255
174 206 255
174 206 255
174 206 255
174 206 255
174 206 255
174 206 255
174 206 255
174 206 255
174 206 255
174 206 255
174 206 255
174 206 255
174 207 255
174 207 255
174 207 255
174 207 255
174 207 255
174 207 255
174 207 255
174 207 255
174 207 255
174 207 255
174 207 255
174 207 255
174 207 255
174 207 255
174 207 255
174 207 255
174 207 255
174 207 255
174 207 255
174 207 255
174 207 255
174 207 255
174 207 255
174 207 255
174 207 255
174 207 255
174 207 255
174 207 255
174 207 255
174 207 255
174 207 255
174 207 255
174 207 255
175 207 255
175 207 255
175 207 255
175 207 255
175 207 255
175 207 255
175 207 255
175 207 255
175 207 255
175 207 255
175 207 255
175 207 255
175 207 255
175 207 255
175 207 255
175 207 255
175 207 255
175 207 255
175 207 255
175 207 255
175 207 255
175 207 255
175 207 255
175 207 255
175 207 255
175 207 255
175 207 255
175 207 255
175 207 255
175 207 255
175 207 255
175 207 255
175 207 255
175 207 255
175 207 255
175 207 255
175 207 255
175 207 255
175 207 255
175 207 255
175 207 255
175 207 255
175 207 255
175 207 255
175 207 255
175 207 255
175 207 255
175 207 255
175 207 255
175 207 255
175 207 255
175 207 255
175 207 255
175 207 255
176 208 255
176 208 255
176 208 255
176 208 255
176 208 255
176 208 255
176 208 255
176 208 255
176 208 255
176 208 255
176 208 255
176 208 255
176 208 255
176 208 255
176 208 255
176 208 255
176 208 255
176 208 255
176 208 255
176 208 255
176 208 255
176 208 255
176 208 255
176 208 255
176 208 255
176 208 255
176 208 255
176 208 255
176 208 255
176 208 255
176 208 255
176 208 255
176 208 255
176 208 255
176 208 255
176 208 255
176 208 255
176 208 255
176 208 255
176 208 255
176 208 255
176 208 255
176 208 255
176 208 255
176 208 255
176 208 255
176 208 255
176 208 255
176 208 255
176 208 255
176 208 255
176 208 255
176 208 255
176 208 255
176 208 255
176 208 255
176 208 255
176 208 255
176 208 255
176 208 255
176 208 255
176 208 255
176 208 255
176 208 255
176 208 255
176 208 255
176 208 255
176 208 255
176 208 255
176 208 255
176 208 255
176 208 255
176 208 255
176 208 255
176 208 255
176 208 255
176 208 255
176 208 255
176 208 255
176 208 255
176 208 255
176 208 255
176 208 255
176 208 255
176 208 255
176 208 255
176 208 255
176 208 255
176 208 255
176 208 255
176 208 255
176 208 255
176 208 255
176 208 255
176 208 255
176 208 255
176 208 255
176 208 255
176 208 255
176 208 255
176 208 255
176 208 255
176 208 255
176 208 255
176 208 255
176 208 255
176 208 255
176 208 255
176 208 255
175 207 255
175 207 255
175 207 255
175 207 255
175 207 255
175 207 255
175 207 255
175 207 255
175 207 255
175 207 255
175 207 255
175 207 255
175 207 255
175 207 255
175 207 255
175 207 255
175 207 255
175 207 255
175 207 255
175 207 255
175 207 255
175 207 255
175 207 255
175 207 255
175 207 255
175 207 255
175 207 255
175 207 255
175 207 255
175 207 255
175 207 255
175 207 255
175 207 255
175 207 255
175 207 255
175 207 255
175 207 255
175 207 255
175 207 255
175 207 255
175 207 255
175 207 255
175 207 255
175 207 255
175 207 255
175 207 255
175 207 255
175 207 255
175 207 255
175 207 255
175 207 255
175 207 255
174 207 255
174 207 255
174 207 255
174 207 255
174 207 255
174 207 255
174 207 255
174 207 255
174 207 255
174 207 255
174 207 255
174 207 255
174 207 255
174 207 255
174 207 255
174 207 255
174 207 255
174 207 255
174 207 255
174 207 255
174 207 255
174 207 255
174 207 255
174 207 255
174 207 255
174 207 255
174 207 255
174 207 255
174 207 255
174 207 255
174 207 255
174 207 255
174 207 255
174 207 255
174 207 255
174 207 255
174 206 255
174 206 255
174 206 255
174 206 255
174 206 255
174 206 255
174 206 255
174 206 255
174 206 255
174 206 255
174 206 255
174 206 255
174 206 255
174 206 255
174 206 255
174 206 255
174 206 255
174 206 255
174 206 255
174 206 255
174 206 255
174 206 255
174 206 255
174 206 255
174 206 255
173 206 255
173 206 255
173 206 255
173 206 255
173 206 255
173 206 255
173 206 255
173 206 255
173 206 255
173 206 255
173 206 255
173 206 255
173 206 255
173 206 255
173 206 255
173 206 255
173 206 255
173 206 255
173 206 255
173 206 255
173 206 255
173 206 255
173 206 255
173 206 255
173 206 255
173 206 255
173 206 255
173 206 255
173 206 255
173 206 255
173 206 255
173 206 255
173 206 255
173 206 255
173 206 255
173 206 255
173 206 255
173 206 255
173 206 255
173 206 255
173 206 255
173 206 255
173 206 255
173 206 255
173 206 255
173 206 255
173 206 255
173 206 255
173 206 255
174 206 255
174 206 255
174 206 255
174 206 255
174 206 255
174 206 255
174 206 255
174 206 255
174 206 255
174 206 255
174 206 255
174 206 255
174 206 255
174 206 255
174 206 255
174 206 255
174 206 255
174 206 255
174 206 255
174 206 255
174 206 255
174 206 255
174 206 255
174 206 255
174 206 255
174 206 255
174 207 255
174 207 255
174 207 255
174 207 255
174 207 255
174 207 255
174 207 255
174 207 255
174 207 255
174 207 255
174 207 255
174 207 255
174 207 255
174 207 255
174 207 255
174 207 255
174 207 255
174 207 255
174 207 255
174 207 255
174 207 255
174 207 255
174 207 255
174 207 255
174 207 255
174 207 255
174 207 255
174 207 255
174 207 255
174 207 255
174 207 255
174 207 255
174 207 255
174 207 255
174 207 255
174 207 255
174 207 255
175 207 255
175 207 255
175 207 255
175 207 255
175 207 255
175 207 255
175 207 255
175 207 255
175 207 255
175 207 255
175 207 255
175 207 255
175 207 255
175 207 255
175 207 255
175 207 255
175 207 255
175 207 255
175 207 255
175 207 255
175 207 255
175 207 255
175 207 255
175 207 255
175 207 255
175 207 255
175 207 255
175 207 255
175 207 255
175 207 255
175 207 255
175 207 255
175 207 255
175 207 255
175 207 255
175 207 255
175 207 255
175 207 255
175 207 255
175 207 255
175 207 255
175 207 255
175 207 255
175 207 255
175 207 255
175 207 255
175 207 255
175 207 255
175 207 255
175 207 255
175 207 255
175 207 255
176 208 255
176 208 255
176 208 255
176 208 255
176 208 255
176 208 255
176 208 255
176 208 255
176 208 255
176 208 255
176 208 255
176 208 255
176 208 255
176 208 255
176 208 255
176 208 255
176 208 255
176 208 255
176 208 255
176 208 255
176 208 255
176 208 255
176 208 255
176 208 255
176 208 255
176 208 255
176 208 255
176 208 255
176 208 255
176 208 255
176 208 255
176 208 255
176 208 255
176 208 255
176 208 255
176 208 255
176 208 255
176 208 255
176 208 255
176 208 255
176 208 255
176 208 255
176 208 255
176 208 255
176 208 255
176 208 255
176 208 255
176 208 255
176 208 255
176 208 255
176 208 255
176 208 255
176 208 255
176 208 255
176 208 255
176 208 255
176 208 255
176 208 255
176 208 255
176 208 255
176 208 255
177 208 255
177 208 255
177 208 255
177 208 255
177 208 255
177 208 255
177 208 255
177 208 255
177 208 255
177 208 255
177 208 255
177 208 255
177 208 255
176 208 255
176 208 255
176 208 255
176 208 255
176 208 255
176 208 255
176 208 255
176 208 255
176 208 255
176 208 255
176 208 255
176 208 255
176 208 255
176 208 255
176 208 255
176 208 255
176 208 255
176 208 255
176 208 255
176 208 255
176 208 255
176 208 255
176 208 255
176 208 255
176 208 255
176 208 255
176 208 255
176 208 255
176 208 255
176 208 255
176 208 255
176 208 255
176 208 255
176 208 255
176 208 255
176 208 255
176 208 255
176 208 255
176 208 255
176 208 255
176 208 255
176 208 255
176 208 255
176 208 255
176 208 255
176 208 255
176 208 255
176 208 255
176 208 255
176 208 255
176 208 255
176 208 255
176 208 255
176 208 255
176 208 255
176 208 255
176 208 255
176 208 255
176 208 255
176 208 255
176 208 255
176 208 255
176 208 255
176 207 255
175 207 255
175 207 255
175 207 255
175 207 255
175 207 255
175 207 255
175 207 255
175 207 255
175 207 255
175 207 255
175 207 255
175 207 255
175 207 255
175 207 255
175 207 255
175 207 255
175 207 255
175 207 255
175 207 255
175 207 255
175 207 255
175 207 255
175 207 255
175 207 255
175 207 255
175 207 255
175 207 255
175 207 255
175 207 255
175 207 255
175 207 255
175 207 255
175 207 255
175 207 255
175 207 255
175 207 255
175 207 255
175 207 255
175 207 255
175 207 255
175 207 255
175 207 255
175 207 255
175 207 255
175 207 255
175 207 255
175 207 255
175 207 255
175 207 255
175 207 255
175 207 255
174 207 255
174 207 255
174 207 255
174 207 255
174 207 255
174 207 255
174 207 255
174 207 255
174 207 255
174 207 255
174 207 255
174 207 255
174 207 255
174 207 255
174 207 255
174 207 255
174 207 255
174 207 255
174 207 255
174 207 255
174 207 255
174 207 255
174 207 255
174 207 255
174 207 255
174 207 255
174 207 255
174 207 255
174 207 255
174 207 255
174 207 255
174 207 255
174 207 255
174 207 255
174 207 255
174 207 255
174 207 255
174 207 255
174 207 255
174 207 255
174 207 255
174 207 255
174 207 255
174 206 255
174 206 255
174 206 255
174 206 255
174 206 255
174 206 255
174 206 255
174 206 255
174 206 255
174 206 255
174 206 255
174 206 255
174 206 255
174 206 255
174 206 255
174 206 255
174 206 255
174 206 255
174 206 255
174 206 255
174 206 255
174 206 255
174 206 255
174 206 255
174 206 255
174 206 255
174 206 255
174 206 255
174 206 255
174 206 255
174 206 255
174 206 255
174 206 255
174 206 255
174 206 255
174 206 255
174 206 255
174 206 255
174 206 255
174 206 255
174 206 255
174 206 255
174 206 255
174 206 255
174 206 255
174 206 255
174 206 255
174 206 255
174 206 255
174 206 255
174 206 255
174 206 255
174 206 255
174 206 255
174 206 255
174 206 255
174 206 255
174 206 255
174 207 255
174 206 255
174 207 255
174 207 255
174 207 255
174 207 255
174 207 255
174 207 255
174 207 255
174 207 255
174 207 255
174 207 255
174 207 255
174 207 255
174 207 255
174 207 255
174 207 255
174 207 255
174 207 255
174 207 255
174 207 255
174 207 255
174 207 255
174 207 255
174 207 255
174 207 255
174 207 255
174 207 255
174 207 255
174 207 255
174 207 255
174 207 255
174 207 255
174 207 255
174 207 255
174 207 255
174 207 255
174 207 255
174 207 255
174 207 255
174 207 255
174 207 255
174 207 255
175 207 255
175 207 255
175 207 255
175 207 255
175 207 255
175 207 255
175 207 255
175 207 255
175 207 255
175 207 255
175 207 255
175 207 255
175 207 255
175 207 255
175 207 255
175 207 255
175 207 255
175 207 255
175 207 255
175 207 255
175 207 255
175 207 255
175 207 255
175 207 255
175 207 255
175 207 255
175 207 255
175 207 255
175 207 255
175 207 255
175 207 255
175 207 255
175 207 255
175 207 255
175 207 255
175 207 255
175 207 255
175 207 255
175 207 255
175 207 255
175 207 255
175 207 255
175 207 255
175 207 255
175 207 255
175 207 255
175 207 255
175 207 255
175 207 255
175 207 255
175 207 255
175 207 255
176 208 255
176 208 255
176 208 255
176 208 255
176 208 255
176 208 255
176 208 255
176 208 255
176 208 255
176 208 255
176 208 255
176 208 255
176 208 255
176 208 255
176 208 255
176 208 255
176 208 255
176 208 255
176 208 255
176 208 255
176 208 255
176 208 255
176 208 255
176 208 255
176 208 255
176 208 255
176 208 255
176 208 255
176 208 255
176 208 255
176 208 255
176 208 255
176 208 255
176 208 255
176 208 255
176 208 255
176 208 255
176 208 255
176 208 255
176 208 255
176 208 255
176 208 255
176 208 255
176 208 255
176 208 255
176 208 255
176 208 255
176 208 255
176 208 255
176 208 255
176 208 255
176 208 255
176 208 255
176 208 255
176 208 255
176 208 255
176 208 255
176 208 255
176 208 255
176 208 255
176 208 255
176 208 255
176 208 255
177 208 255
177 208 255
177 208 255
177 208 255
177 208 255
177 208 255
177 208 255
177 208 255
177 208 255
177 208 255
177 208 255
177 208 255
177 208 255
177 208 255
177 208 255
177 208 255
177 208 255
177 208 255
177 208 255
177 208 255
177 208 255
177 208 255
177 208 255
177 208 255
177 208 255
177 208 255
177 208 255
177 208 255
177 208 255
177 208 255
177 208 255
177 208 255
177 208 255
177 208 255
177 208 255
177 208 255
177 208 255
177 208 255
177 208 255
177 208 255
177 208 255
177 208 255
177 208 255
177 208 255
176 208 255
176 208 255
176 208 255
176 208 255
176 208 255
176 208 255
176 208 255
176 208 255
176 208 255
176 208 255
176 208 255
176 208 255
176 208 255
176 208 255
176 208 255
176 208 255
176 208 255
176 208 255
176 208 255
176 208 255
176 208 255
176 208 255
176 208 255
176 208 255
176 208 255
176 208 255
176 208 255
176 208 255
176 208 255
176 208 255
176 208 255
176 208 255
176 208 255
176 208 255
176 208 255
176 208 255
176 208 255
176 208 255
176 208 255
176 208 255
176 208 255
176 208 255
176 208 255
176 208 255
176 208 255
176 208 255
176 208 255
176 208 255
176 208 255
176 208 255
176 208 255
176 208 255
176 208 255
176 208 255
176 208 255
176 208 255
176 208 255
176 208 255
176 208 255
176 208 255
175 207 255
175 207 255
175 207 255
175 207 255
175 207 255
175 207 255
175 207 255
175 207 255
175 207 255
175 207 255
175 207 255
175 207 255
175 207 255
175 207 255
175 207 255
175 207 255
175 207 255
175 207 255
175 207 255
175 207 255
175 207 255
175 207 255
175 207 255
175 207 255
175 207 255
175 207 255
175 207 255
175 207 255
175 207 255
175 207 255
175 207 255
175 207 255
175 207 255
175 207 255
175 207 255
175 207 255
175 207 255
175 207 255
175 207 255
175 207 255
175 207 255
175 207 255
175 207 255
175 207 255
175 207 255
175 207 255
175 207 255
175 207 255
175 207 255
175 207 255
175 207 255
175 207 255
175 207 255
174 207 255
174 207 255
174 207 255
174 207 255
174 207 255
174 207 255
174 207 255
174 207 255
174 207 255
174 207 255
174 207 255
174 207 255
174 207 255
174 207 255
174 207 255
174 207 255
174 207 255
174 207 255
174 207 255
174 207 255
174 207 255
174 207 255
174 207 255
174 207 255
174 207 255
174 207 255
174 207 255
174 207 255
174 207 255
174 207 255
174 207 255
174 207 255
174 207 255
174 207 255
174 207 255
174 207 255
174 207 255
174 207 255
174 207 255
174 207 255
174 207 255
174 207 255
174 207 255
174 207 255
174 207 255
174 207 255
174 207 255
174 207 255
174 207 255
174 207 255
174 207 255
174 207 255
174 207 255
174 207 255
174 207 255
174 207 255
174 207 255
174 207 255
174 207 255
174 207 255
174 207 255
174 207 255
174 207 255
174 207 255
174 207 255
174 207 255
174 207 255
174 207 255
174 207 255
174 207 255
174 207 255
174 207 255
174 207 255
174 207 255
174 207 255
174 207 255
174 207 255
174 207 255
174 207 255
174 207 255
174 207 255
174 207 255
174 207 255
174 207 255
174 207 255
174 207 255
174 207 255
174 207 255
174 207 255
174 207 255
174 207 255
174 207 255
174 207 255
174 207 255
174 207 255
174 207 255
174 207 255
174 207 255
174 207 255
174 207 255
174 207 255
174 207 255
174 207 255
174 207 255
174 207 255
174 207 255
174 207 255
174 207 255
174 207 255
174 207 255
174 207 255
174 207 255
174 207 255
174 207 255
175 207 255
175 207 255
175 207 255
175 207 255
175 207 255
175 207 255
175 207 255
175 207 255
175 207 255
175 207 255
175 207 255
175 207 255
175 207 255
175 207 255
175 207 255
175 207 255
175 207 255
175 207 255
175 207 255
175 207 255
175 207 255
175 207 255
175 207 255
175 207 255
175 207 255
175 207 255
175 207 255
175 207 255
175 207 255
175 207 255
175 207 255
175 207 255
175 207 255
175 207 255
175 207 255
175 207 255
175 207 255
175 207 255
175 207 255
175 207 255
175 207 255
175 207 255
175 207 255
175 207 255
175 207 255
175 207 255
175 207 255
175 207 255
175 207 255
175 207 255
175 207 255
175 207 255
176 208 255
176 208 255
176 208 255
176 208 255
176 208 255
176 208 255
176 208 255
176 208 255
176 208 255
176 208 255
176 208 255
176 208 255
176 208 255
176 208 255
176 208 255
176 208 255
176 208 255
176 208 255
176 208 255
176 208 255
176 208 255
176 208 255
176 208 255
176 208 255
176 208 255
176 208 255
176 208 255
176 208 255
176 208 255
176 208 255
176 208 255
176 208 255
176 208 255
176 208 255
176 208 255
176 208 255
176 208 255
176 208 255
176 208 255
176 208 255
176 208 255
176 208 255
176 208 255
176 208 255
176 208 255
176 208 255
176 208 255
176 208 255
176 208 255
176 208 255
176 208 255
176 208 255
176 208 255
176 208 255
176 208 255
176 208 255
176 208 255
176 208 255
176 208 255
177 208 255
177 208 255
177 208 255
177 208 255
177 208 255
177 208 255
177 208 255
177 208 255
177 208 255
177 208 255
177 208 255
177 208 255
177 208 255
177 208 255
177 208 255
177 208 255
177 208 255
177 208 255
177 208 255
177 208 255
177 208 255
177 208 255
177 208 255
177 208 255
177 208 255
177 208 255
177 208 255
177 208 255
177 208 255
177 208 255
177 208 255
177 208 255
177 208 255
177 208 255
177 208 255
177 208 255
177 208 255
177 208 255
177 208 255
177 208 255
177 208 255
177 208 255
177 208 255
177 208 255
177 208 255
177 208 255
177 208 255
177 208 255
177 208 255
177 208 255
177 208 255
177 208 255
177 208 255
177 208 255
177 208 255
177 208 255
177 208 255
177 208 255
177 208 255
177 208 255
177 208 255
177 208 255
177 208 255
177 208 255
177 208 255
177 208 255
177 208 255
177 208 255
177 208 255
177 208 255
177 208 255
177 208 255
177 208 255
177 208 255
177 208 255
177 208 255
177 208 255
177 208 255
177 208 255
176 208 255
176 208 255
176 208 255
176 208 255
176 208 255
176 208 255
176 208 255
176 208 255
176 208 255
176 208 255
176 208 255
176 208 255
176 208 255
176 208 255
176 208 255
176 208 255
176 208 255
176 208 255
176 208 255
176 208 255
176 208 255
176 208 255
176 208 255
176 208 255
176 208 255
176 208 255
176 208 255
176 208 255
176 208 255
176 208 255
176 208 255
176 208 255
176 208 255
176 208 255
176 208 255
176 208 255
176 208 255
176 208 255
176 208 255
176 208 255
176 208 255
176 208 255
176 208 255
176 208 255
176 208 255
176 208 255
176 208 255
176 208 255
176 208 255
176 208 255
176 208 255
176 208 255
176 208 255
176 208 255
176 208 255
176 208 255
175 207 255
175 207 255
175 207 255
175 207 255
175 207 255
175 207 255
175 207 255
175 207 255
175 207 255
175 207 255
175 207 255
175 207 255
175 207 255
175 207 255
175 207 255
175 207 255
175 207 255
175 207 255
175 207 255
175 207 255
175 207 255
175 207 255
175 207 255
175 207 255
175 207 255
175 207 255
175 207 255
175 207 255
175 207 255
175 207 255
175 207 255
175 207 255
175 207 255
175 207 255
175 207 255
175 207 255
175 207 255
175 207 255
175 207 255
175 207 255
175 207 255
175 207 255
175 207 255
175 207 255
175 207 255
175 207 255
175 207 255
175 207 255
175 207 255
175 207 255
175 207 255
175 207 255
175 207 255
175 207 255
175 207 255
175 207 255
175 207 255
174 207 255
174 207 255
174 207 255
174 207 255
174 207 255
174 207 255
174 207 255
174 207 255
174 207 255
174 207 255
174 207 255
174 207 255
174 207 255
174 207 255
174 207 255
174 207 255
174 207 255
174 207 255
174 207 255
174 207 255
174 207 255
174 207 255
174 207 255
174 207 255
174 207 255
174 207 255
174 207 255
174 207 255
174 207 255
174 207 255
174 207 255
174 207 255
174 207 255
174 207 255
174 207 255
174 207 255
174 207 255
174 207 255
174 207 255
174 207 255
174 207 255
174 207 255
174 207 255
174 207 255
174 207 255
174 207 255
174 207 255
174 207 255
174 207 255
174 207 255
174 207 255
174 207 255
174 207 255
174 207 255
174 207 255
174 207 255
174 207 255
174 207 255
174 207 255
174 207 255
174 207 255
174 207 255
174 207 255
174 207 255
174 207 255
174 207 255
174 207 255
174 207 255
174 207 255
174 207 255
174 207 255
174 207 255
174 207 255
174 207 255
174 207 255
174 207 255
174 207 255
175 207 255
175 207 255
175 207 255
175 207 255
175 207 255
175 207 255
175 207 255
175 207 255
175 207 255
175 207 255
175 207 255
175 207 255
175 207 255
175 207 255
175 207 255
175 207 255
175 207 255
175 207 255
175 207 255
175 207 255
175 207 255
175 207 255
175 207 255
175 207 255
175 207 255
175 207 255
175 207 255
175 207 255
175 207 255
175 207 255
175 207 255
175 207 255
175 207 255
175 207 255
175 207 255
175 207 255
175 207 255
175 207 255
175 207 255
175 207 255
175 207 255
175 207 255
175 207 255
175 207 255
175 207 255
175 207 255
175 207 255
175 207 255
175 207 255
175 207 255
175 207 255
175 207 255
175 207 255
175 207 255
175 207 255
175 207 255
175 207 255
175 207 255
176 208 255
176 208 255
176 208 255
176 208 255
176 208 255
176 208 255
176 208 255
176 208 255
176 208 255
176 208 255
176 208 255
176 208 255
176 208 255
176 208 255
176 208 255
176 208 255
176 208 255
176 208 255
176 208 255
176 208 255
176 208 255
176 208 255
176 208 255
176 208 255
176 208 255
176 208 255
176 208 255
176 208 255
176 208 255
176 208 255
176 208 255
176 208 255
176 208 255
176 208 255
176 208 255
176 208 255
176 208 255
176 208 255
176 208 255
176 208 255
176 208 255
176 208 255
176 208 255
176 208 255
176 208 255
176 208 255
176 208 255
176 208 255
176 208 255
176 208 255
176 208 255
176 208 255
176 208 255
176 208 255
176 208 255
176 208 255
177 208 255
177 208 255
177 208 255
177 208 255
177 208 255
177 208 255
177 208 255
177 208 255
177 208 255
177 208 255
177 208 255
177 208 255
177 208 255
177 208 255
177 208 255
177 208 255
177 208 255
177 208 255
177 208 255
177 208 255
177 208 255
177 208 255
177 208 255
177 208 255
177 208 255
177 208 255
177 208 255
177 208 255
177 208 255
177 208 255
177 208 255
177 208 255
177 208 255
177 208 255
177 208 255
177 208 255
177 208 255
177 208 255
177 208 255
177 208 255
177 208 255
177 208 255
177 208 255
177 208 255
177 208 255
177 208 255
177 208 255
177 208 255
177 209 255
177 209 255
177 209 255
177 209 255
177 209 255
177 209 255
177 209 255
177 209 255
177 209 255
177 209 255
177 209 255
177 209 255
177 209 255
177 209 255
177 209 255
177 209 255
177 209 255
177 209 255
177 209 255
177 208 255
177 208 255
177 208 255
177 208 255
177 208 255
177 208 255
177 208 255
177 208 255
177 208 255
177 208 255
177 208 255
177 208 255
177 208 255
177 208 255
177 208 255
177 208 255
177 208 255
177 208 255
177 208 255
177 208 255
177 208 255
177 208 255
177 208 255
177 208 255
177 208 255
177 208 255
177 208 255
177 208 255
177 208 255
177 208 255
177 208 255
177 208 255
177 208 255
177 208 255
177 208 255
177 208 255
177 208 255
177 208 255
177 208 255
177 208 255
177 208 255
177 208 255
177 208 255
177 208 255
177 208 255
176 208 255
176 208 255
176 208 255
176 208 255
176 208 255
176 208 255
176 208 255
176 208 255
176 208 255
176 208 255
176 208 255
176 208 255
176 208 255
176 208 255
176 208 255
176 208 255
176 208 255
176 208 255
176 208 255
176 208 255
176 208 255
176 208 255
176 208 255
176 208 255
176 208 255
176 208 255
176 208 255
176 208 255
176 208 255
176 208 255
176 208 255
176 208 255
176 208 255
176 208 255
176 208 255
176 208 255
176 208 255
176 208 255
176 208 255
176 208 255
176 208 255
176 208 255
176 208 255
176 208 255
176 208 255
176 208 255
176 208 255
176 208 255
176 208 255
176 208 255
176 208 255
176 208 255
176 208 255
176 208 255
175 207 255
175 207 255
175 207 255
175 207 255
175 207 255
175 207 255
175 207 255
175 207 255
175 207 255
175 207 255
175 207 255
175 207 255
175 207 255
175 207 255
175 207 255
175 207 255
175 207 255
175 207 255
175 207 255
175 207 255
175 207 255
175 207 255
175 207 255
175 207 255
175 207 255
175 207 255
175 207 255
175 207 255
175 207 255
175 207 255
175 207 255
175 207 255
175 207 255
175 207 255
175 207 255
175 207 255
175 207 255
175 207 255
175 207 255
175 207 255
175 207 255
175 207 255
175 207 255
175 207 255
175 207 255
175 207 255
175 207 255
175 207 255
175 207 255
175 207 255
175 207 255
175 207 255
175 207 255
175 207 255
175 207 255
175 207 255
175 207 255
175 207 255
175 207 255
175 207 255
175 207 255
175 207 255
175 207 255
175 207 255
175 207 255
175 207 255
175 207 255
175 207 255
175 207 255
175 207 255
175 207 255
175 207 255
175 207 255
175 207 255
175 207 255
175 207 255
175 207 255
175 207 255
175 207 255
175 207 255
175 207 255
175 207 255
175 207 255
175 207 255
175 207 255
175 207 255
175 207 255
175 207 255
175 207 255
175 207 255
175 207 255
175 207 255
175 207 255
175 207 255
175 207 255
175 207 255
175 207 255
175 207 255
175 207 255
175 207 255
175 207 255
175 207 255
175 207 255
175 207 255
175 207 255
175 207 255
175 207 255
175 207 255
175 207 255
175 207 255
175 207 255
175 207 255
175 207 255
175 207 255
175 207 255
175 207 255
175 207 255
175 207 255
175 207 255
175 207 255
175 207 255
175 207 255
175 207 255
175 207 255
175 207 255
175 207 255
175 207 255
175 207 255
175 207 255
175 207 255
175 207 255
175 207 255
175 207 255
175 207 255
175 207 255
175 207 255
175 207 255
175 207 255
175 207 255
175 207 255
175 207 255
175 207 255
175 207 255
175 207 255
175 207 255
175 207 255
175 207 255
175 207 255
175 207 255
175 207 255
175 207 255
175 207 255
175 207 255
175 207 255
175 207 255
175 207 255
175 207 255
175 207 255
175 207 255
175 207 255
175 207 255
175 207 255
175 207 255
175 207 255
176 208 255
176 208 255
176 208 255
176 208 255
176 208 255
176 208 255
176 208 255
176 208 255
176 208 255
176 208 255
176 208 255
176 208 255
176 208 255
176 208 255
176 208 255
176 208 255
176 208 255
176 208 255
176 208 255
176 208 255
176 208 255
176 208 255
176 208 255
176 208 255
176 208 255
176 208 255
176 208 255
176 208 255
176 208 255
176 208 255
176 208 255
176 208 255
176 208 255
176 208 255
176 208 255
176 208 255
176 208 255
176 208 255
176 208 255
176 208 255
176 208 255
176 208 255
176 208 255
176 208 255
176 208 255
176 208 255
176 208 255
176 208 255
176 208 255
176 208 255
176 208 255
176 208 255
176 208 255
176 208 255
176 208 255
177 208 255
177 208 255
177 208 255
177 208 255
177 208 255
177 208 255
177 208 255
177 208 255
177 208 255
177 208 255
177 208 255
177 208 255
177 208 255
177 208 255
177 208 255
177 208 255
177 208 255
177 208 255
177 208 255
177 208 255
177 208 255
177 208 255
177 208 255
177 208 255
177 208 255
177 208 255
177 208 255
177 208 255
177 208 255
177 208 255
177 208 255
177 208 255
177 208 255
177 208 255
177 208 255
177 208 255
177 208 255
177 208 255
177 208 255
177 208 255
177 208 255
177 208 255
177 208 255
177 208 255
177 209 255
177 209 255
177 209 255
177 209 255
177 209 255
177 209 255
177 209 255
177 209 255
177 209 255
177 209 255
177 209 255
177 209 255
177 209 255
177 209 255
177 209 255
177 209 255
177 209 255
177 209 255
177 209 255
178 209 255
178 209 255
178 209 255
178 209 255
178 209 255
178 209 255
178 209 255
178 209 255
178 209 255
178 209 255
178 209 255
178 209 255
178 209 255
177 209 255
177 209 255
177 209 255
177 209 255
177 209 255
177 209 255
177 209 255
177 209 255
177 209 255
177 209 255
177 209 255
177 209 255
177 209 255
177 209 255
177 209 255
177 209 255
177 209 255
177 209 255
177 209 255
177 209 255
177 209 255
177 209 255
177 209 255
177 209 255
177 209 255
177 208 255
177 208 255
177 208 255
177 208 255
177 208 255
177 208 255
177 208 255
177 208 255
177 208 255
177 208 255
177 208 255
177 208 255
177 208 255
177 208 255
177 208 255
177 208 255
177 208 255
177 208 255
177 208 255
177 208 255
177 208 255
177 208 255
177 208 255
177 208 255
177 208 255
177 208 255
177 208 255
177 208 255
177 208 255
177 208 255
177 208 255
177 208 255
177 208 255
177 208 255
177 208 255
177 208 255
177 208 255
177 208 255
177 208 255
177 208 255
177 208 255
176 208 255
176 208 255
176 208 255
176 208 255
176 208 255
176 208 255
176 208 255
176 208 255
176 208 255
176 208 255
176 208 255
176 208 255
176 208 255
176 208 255
176 208 255
176 208 255
176 208 255
176 208 255
176 208 255
176 208 255
176 208 255
176 208 255
176 208 255
176 208 255
176 208 255
176 208 255
176 208 255
176 208 255
176 208 255
176 208 255
176 208 255
176 208 255
176 208 255
176 208 255
176 208 255
176 208 255
176 208 255
176 208 255
176 208 255
176 208 255
176 208 255
176 208 255
176 208 255
176 208 255
176 208 255
176 208 255
176 208 255
176 208 255
176 208 255
176 208 255
176 208 255
176 208 255
176 208 255
176 208 255
176 208 255
175 207 255
175 207 255
175 207 255
175 207 255
175 207 255
175 207 255
175 207 255
175 207 255
175 207 255
175 207 255
175 207 255
175 207 255
175 207 255
175 207 255
175 207 255
175 207 255
175 207 255
175 207 255
175 207 255
175 207 255
175 207 255
175 207 255
175 207 255
175 207 255
175 207 255
175 207 255
175 207 255
175 207 255
175 207 255
175 207 255
175 207 255
175 207 255
175 207 255
175 207 255
175 207 255
175 207 255
175 207 255
175 207 255
175 207 255
175 207 255
175 207 255
175 207 255
175 207 255
175 207 255
175 207 255
175 207 255
175 207 255
175 207 255
175 207 255
175 207 255
175 207 255
175 207 255
175 207 255
175 207 255
175 207 255
175 207 255
175 207 255
175 207 255
175 207 255
175 207 255
175 207 255
175 207 255
175 207 255
175 207 255
175 207 255
175 207 255
175 207 255
175 207 255
175 207 255
175 207 255
175 207 255
175 207 255
175 207 255
175 207 255
175 207 255
175 207 255
175 207 255
175 207 255
175 207 255
175 207 255
175 207 255
175 207 255
175 207 255
175 207 255
175 207 255
175 207 255
175 207 255
175 207 255
175 207 255
175 207 255
175 207 255
175 207 255
175 207 255
175 207 255
175 207 255
175 207 255
175 207 255
175 207 255
175 207 255
175 207 255
175 207 255
175 207 255
175 207 255
175 207 255
175 207 255
175 207 255
175 207 255
175 207 255
175 207 255
175 207 255
175 207 255
175 207 255
175 207 255
175 207 255
175 207 255
175 207 255
175 207 255
175 207 255
175 207 255
175 207 255
175 207 255
175 207 255
175 207 255
175 207 255
175 207 255
175 207 255
175 207 255
175 207 255
175 207 255
175 207 255
175 207 255
175 207 255
175 207 255
176 208 255
176 208 255
176 208 255
176 208 255
176 208 255
176 208 255
176 208 255
176 208 255
176 208 255
176 208 255
176 208 255
176 208 255
176 208 255
176 208 255
176 208 255
176 208 255
176 208 255
176 208 255
176 208 255
176 208 255
176 208 255
176 208 255
176 208 255
176 208 255
176 208 255
176 208 255
176 208 255
176 208 255
176 208 255
176 208 255
176 208 255
176 208 255
176 208 255
176 208 255
176 208 255
176 208 255
176 208 255
176 208 255
176 208 255
176 208 255
176 208 255
176 208 255
176 208 255
176 208 255
176 208 255
176 208 255
176 208 255
176 208 255
176 208 255
176 208 255
176 208 255
176 208 255
176 208 255
176 208 255
177 208 255
177 208 255
177 208 255
177 208 255
177 208 255
177 208 255
177 208 255
177 208 255
177 208 255
177 208 255
177 208 255
177 208 255
177 208 255
177 208 255
177 208 255
177 208 255
177 208 255
177 208 255
177 208 255
177 208 255
177 208 255
177 208 255
177 208 255
177 208 255
177 208 255
177 208 255
177 208 255
177 208 255
177 208 255
177 208 255
177 208 255
177 208 255
177 208 255
177 208 255
177 208 255
177 208 255
177 208 255
177 208 255
177 208 255
177 208 255
177 208 255
177 209 255
177 209 255
177 209 255
177 209 255
177 209 255
177 209 255
177 209 255
177 209 255
177 209 255
177 209 255
177 209 255
177 209 255
177 209 255
177 209 255
177 209 255
177 209 255
177 209 255
177 209 255
177 209 255
177 209 255
177 209 255
177 209 255
177 209 255
177 209 255
177 209 255
178 209 255
178 209 255
178 209 255
178 209 255
178 209 255
178 209 255
178 209 255
178 209 255
178 209 255
178 209 255
178 209 255
178 209 255
178 209 255
178 209 255
178 209 255
178 209 255
178 209 255
178 209 255
178 209 255
178 209 255
178 209 255
178 209 255
178 209 255
178 209 255
178 209 255
178 209 255
178 209 255
178 209 255
178 209 255
178 209 255
178 209 255
178 209 255
178 209 255
178 209 255
178 209 255
178 209 255
178 209 255
178 209 255
178 209 255
178 209 255
178 209 255
178 209 255
178 209 255
178 209 255
178 209 255
177 209 255
177 209 255
177 209 255
177 209 255
177 209 255
177 209 255
177 209 255
177 209 255
177 209 255
177 209 255
177 209 255
177 209 255
177 209 255
177 209 255
177 209 255
177 209 255
177 209 255
177 209 255
177 209 255
177 209 255
177 209 255
177 209 255
177 209 255
177 208 255
177 208 255
177 208 255
177 208 255
177 208 255
177 208 255
177 208 255
177 208 255
177 208 255
177 208 255
177 208 255
177 208 255
177 208 255
177 208 255
177 208 255
177 208 255
177 208 255
177 208 255
177 208 255
177 208 255
177 208 255
177 208 255
177 208 255
177 208 255
177 208 255
177 208 255
177 208 255
177 208 255
177 208 255
177 208 255
177 208 255
177 208 255
177 208 255
177 208 255
177 208 255
177 208 255
177 208 255
177 208 255
177 208 255
176 208 255
176 208 255
176 208 255
176 208 255
176 208 255
176 208 255
176 208 255
176 208 255
176 208 255
176 208 255
176 208 255
176 208 255
176 208 255
176 208 255
176 208 255
176 208 255
176 208 255
176 208 255
176 208 255
176 208 255
176 208 255
176 208 255
176 208 255
176 208 255
176 208 255
176 208 255
176 208 255
176 208 255
176 208 255
176 208 255
176 208 255
176 208 255
176 208 255
176 208 255
176 208 255
176 208 255
176 208 255
176 208 255
176 208 255
176 208 255
176 208 255
176 208 255
176 208 255
176 208 255
176 208 255
176 208 255
176 208 255
176 208 255
176 208 255
176 208 255
176 208 255
176 208 255
176 208 255
176 208 255
176 208 255
176 208 255
175 207 255
175 207 255
175 207 255
175 207 255
175 207 255
175 207 255
175 207 255
175 207 255
175 207 255
175 207 255
175 207 255
175 207 255
175 207 255
175 207 255
175 207 255
175 207 255
175 207 255
175 207 255
175 207 255
175 207 255
175 207 255
175 207 255
175 207 255
175 207 255
175 207 255
175 207 255
175 207 255
175 207 255
175 207 255
175 207 255
175 207 255
175 207 255
175 207 255
175 207 255
175 207 255
175 207 255
175 207 255
175 207 255
175 207 255
175 207 255
175 207 255
175 207 255
175 207 255
175 207 255
175 207 255
175 207 255
175 207 255
175 207 255
175 207 255
175 207 255
175 207 255
175 207 255
175 207 255
175 207 255
175 207 255
175 207 255
175 207 255
175 207 255
175 207 255
175 207 255
175 207 255
175 207 255
175 207 255
175 207 255
175 207 255
175 207 255
175 207 255
175 207 255
175 207 255
175 207 255
175 207 255
175 207 255
175 207 255
175 207 255
175 207 255
175 207 255
175 207 255
175 207 255
175 207 255
175 207 255
175 207 255
175 207 255
175 207 255
175 207 255
175 207 255
175 207 255
175 207 255
175 207 255
175 207 255
175 207 255
175 207 255
175 207 255
175 207 255
175 207 255
175 207 255
175 207 255
175 207 255
175 207 255
175 207 255
176 208 255
176 208 255
176 208 255
176 208 255
176 208 255
176 208 255
176 208 255
176 208 255
176 208 255
176 208 255
176 208 255
176 208 255
176 208 255
176 208 255
176 208 255
176 208 255
176 208 255
176 208 255
176 208 255
176 208 255
176 208 255
176 208 255
176 208 255
176 208 255
176 208 255
176 208 255
176 208 255
176 208 255
176 208 255
176 208 255
176 208 255
176 208 255
176 208 255
176 208 255
176 208 255
176 208 255
176 208 255
176 208 255
176 208 255
176 208 255
176 208 255
176 208 255
176 208 255
176 208 255
176 208 255
176 208 255
176 208 255
176 208 255
176 208 255
176 208 255
176 208 255
176 208 255
176 208 255
176 208 255
176 208 255
176 208 255
176 208 255
176 208 255
177 208 255
177 208 255
177 208 255
177 208 255
177 208 255
177 208 255
177 208 255
177 208 255
177 208 255
177 208 255
177 208 255
177 208 255
177 208 255
177 208 255
177 208 255
177 208 255
177 208 255
177 208 255
177 208 255
177 208 255
177 208 255
177 208 255
177 208 255
177 208 255
177 208 255
177 208 255
177 208 255
177 208 255
177 208 255
177 208 255
177 208 255
177 208 255
177 208 255
177 208 255
177 208 255
177 208 255
177 208 255
177 208 255
177 208 255
177 209 255
177 209 255
177 209 255
177 209 255
177 209 255
177 209 255
177 209 255
177 209 255
177 209 255
177 209 255
177 209 255
177 209 255
177 209 255
177 209 255
177 209 255
177 209 255
177 209 255
177 209 255
177 209 255
177 209 255
177 209 255
177 209 255
177 209 255
178 209 255
178 209 255
178 209 255
178 209 255
178 209 255
178 209 255
178 209 255
178 209 255
178 209 255
178 209 255
178 209 255
178 209 255
178 209 255
178 209 255
178 209 255
178 209 255
178 209 255
178 209 255
178 209 255
178 209 255
178 209 255
178 209 255
178 209 255
178 209 255
178 209 255
178 209 255
178 209 255
178 209 255
178 209 255
178 209 255
178 209 255
178 209 255
178 209 255
178 209 255
178 209 255
178 209 255
178 209 255
178 209 255
178 209 255
178 209 255
178 209 255
178 209 255
178 209 255
178 209 255
178 209 255
178 209 255
178 209 255
178 209 255
178 209 255
178 209 255
178 209 255
178 209 255
178 209 255
178 209 255
178 209 255
178 209 255
178 209 255
178 209 255
178 209 255
178 209 255
178 209 255
178 209 255
178 209 255
178 209 255
178 209 255
178 209 255
178 209 255
178 209 255
178 209 255
178 209 255
178 209 255
178 209 255
178 209 255
178 209 255
178 209 255
178 209 255
178 209 255
178 209 255
178 209 255
178 209 255
178 209 255
177 209 255
177 209 255
177 209 255
177 209 255
177 209 255
177 209 255
177 209 255
177 209 255
177 209 255
177 209 255
177 209 255
177 209 255
177 209 255
177 209 255
177 209 255
177 209 255
177 209 255
177 209 255
177 209 255
177 209 255
177 209 255
177 208 255
177 208 255
177 208 255
177 208 255
177 208 255
177 208 255
177 208 255
177 208 255
177 208 255
177 208 255
177 208 255
177 208 255
177 208 255
177 208 255
177 208 255
177 208 255
177 208 255
177 208 255
175 206 253
175 206 253
173 204 250
173 204 250
164 193 238
173 204 250
173 204 250
177 208 255
177 208 255
177 208 255
177 208 255
177 208 255
177 208 255
177 208 255
177 208 255
177 208 255
177 208 255
177 208 255
177 208 255
177 208 255
176 208 255
176 208 255
176 208 255
176 208 255
176 208 255
176 208 255
176 208 255
176 208 255
176 208 255
176 208 255
176 208 255
176 208 255
176 208 255
176 208 255
176 208 255
176 208 255
176 208 255
176 208 255
176 208 255
176 208 255
176 208 255
176 208 255
176 208 255
176 208 255
176 208 255
176 208 255
176 208 255
176 208 255
176 208 255
176 208 255
176 208 255
176 208 255
176 208 255
176 208 255
176 208 255
176 208 255
176 208 255
176 208 255
176 208 255
176 208 255
176 208 255
176 208 255
176 208 255
176 208 255
176 208 255
176 208 255
176 208 255
176 208 255
176 208 255
176 208 255
176 208 255
176 208 255
176 208 255
176 208 255
176 208 255
176 208 255
176 208 255
176 208 255
176 208 255
176 208 255
176 208 255
176 208 255
176 208 255
176 208 255
176 208 255
176 208 255
176 208 255
175 207 255
175 207 255
175 207 255
175 207 255
175 207 255
175 207 255
175 207 255
175 207 255
175 207 255
175 207 255
175 207 255
175 207 255
175 207 255
175 207 255
175 207 255
175 207 255
175 207 255
175 207 255
175 207 255
175 207 255
175 207 255
175 207 255
175 207 255
175 207 255
175 207 255
175 207 255
175 207 255
175 207 255
175 207 255
175 207 255
175 207 255
175 207 255
175 207 255
175 207 255
175 207 255
175 207 255
175 207 255
175 207 255
175 207 255
175 207 255
175 207 255
175 207 255
175 207 255
175 207 255
175 207 255
175 207 255
175 207 255
175 207 255
176 208 255
176 208 255
176 208 255
176 208 255
176 208 255
176 208 255
176 208 255
176 208 255
176 208 255
176 208 255
176 208 255
176 208 255
176 208 255
176 208 255
176 208 255
176 208 255
176 208 255
176 208 255
176 208 255
176 208 255
176 208 255
176 208 255
176 208 255
176 208 255
176 208 255
176 208 255
176 208 255
176 208 255
176 208 255
176 208 255
176 208 255
176 208 255
176 208 255
176 208 255
176 208 255
176 208 255
176 208 255
176 208 255
176 208 255
176 208 255
176 208 255
176 208 255
176 208 255
176 208 255
176 208 255
176 208 255
176 208 255
176 208 255
176 208 255
176 208 255
176 208 255
176 208 255
176 208 255
176 208 255
176 208 255
176 208 255
176 208 255
176 208 255
176 208 255
176 208 255
176 208 255
176 208 255
176 208 255
176 208 255
176 208 255
176 208 255
176 208 255
177 208 255
177 208 255
177 208 255
177 208 255
177 208 255
177 208 255
177 208 255
177 208 255
177 208 255
177 208 255
177 208 255
175 204 250
169 189 230
172 195 238
160 184 224
166 186 227
167 192 235
167 191 233
165 188 229
175 204 250
177 208 255
177 208 255
177 208 255
177 208 255
177 208 255
177 208 255
177 208 255
177 208 255
177 208 255
177 208 255
177 208 255
177 208 255
177 208 255
177 208 255
177 208 255
177 208 255
177 208 255
177 208 255
177 209 255
177 209 255
177 209 255
177 209 255
177 209 255
177 209 255
177 209 255
177 209 255
177 209 255
177 209 255
177 209 255
177 209 255
177 209 255
177 209 255
177 209 255
177 209 255
177 209 255
177 209 255
177 209 255
177 209 255
178 209 255
178 209 255
178 209 255
178 209 255
178 209 255
178 209 255
178 209 255
178 209 255
178 209 255
178 209 255
178 209 255
178 209 255
178 209 255
178 209 255
178 209 255
178 209 255
178 209 255
178 209 255
178 209 255
178 209 255
178 209 255
178 209 255
178 209 255
178 209 255
178 209 255
178 209 255
178 209 255
178 209 255
178 209 255
178 209 255
178 209 255
178 209 255
178 209 255
178 209 255
178 209 255
178 209 255
178 209 255
178 209 255
178 209 255
178 209 255
178 209 255
178 209 255
178 209 255
178 209 255
178 209 255
178 209 255
178 209 255
178 209 255
178 209 255
178 209 255
178 209 255
178 209 255
178 209 255
178 209 255
178 209 255
178 209 255
178 209 255
178 209 255
178 209 255
178 209 255
178 209 255
178 209 255
178 209 255
178 209 255
178 209 255
178 209 255
178 209 255
178 209 255
178 209 255
178 209 255
178 209 255
178 209 255
178 209 255
178 209 255
178 209 255
178 209 255
178 209 255
178 209 255
178 209 255
178 209 255
178 209 255
178 209 255
178 209 255
178 209 255
178 209 255
178 209 255
178 209 255
178 209 255
178 209 255
178 209 255
178 209 255
178 209 255
178 209 255
178 209 255
178 209 255
178 209 255
178 209 255
178 209 255
178 209 255
178 209 255
178 209 255
178 209 255
178 209 255
178 209 255
178 209 255
178 209 255
178 209 255
178 209 255
178 209 255
178 209 255
178 209 255
178 209 255
178 209 255
178 209 255
178 209 255
178 209 255
178 209 255
178 209 255
177 209 255
177 209 255
177 209 255
177 209 255
177 209 255
177 209 255
177 209 255
177 209 255
177 209 255
177 209 255
177 209 255
177 209 255
177 209 255
177 209 255
172 202 248
168 198 243
159 188 232
120 144 179
128 154 194
122 146 184
103 124 156
92 112 143
77 94 120
66 82 104
68 83 107
70 87 112
70 87 112
68 85 110
85 105 135
82 101 130
78 96 122
79 96 122
108 130 163
116 139 174
120 143 179
145 173 215
150 178 220
171 202 248
177 208 255
177 208 255
177 208 255
177 208 255
177 208 255
177 208 255
177 208 255
177 208 255
177 208 255
177 208 255
177 208 255
177 208 255
177 208 255
177 208 255
177 208 255
177 208 255
177 208 255
177 208 255
177 208 255
177 208 255
176 208 255
176 208 255
176 208 255
176 208 255
176 208 255
176 208 255
176 208 255
176 208 255
176 208 255
176 208 255
176 208 255
176 208 255
176 208 255
176 208 255
176 208 255
176 208 255
176 208 255
176 208 255
176 208 255
176 208 255
176 208 255
176 208 255
176 208 255
176 208 255
176 208 255
176 208 255
176 208 255
176 208 255
176 208 255
176 208 255
176 208 255
176 208 255
176 208 255
176 208 255
176 208 255
176 208 255
176 208 255
176 208 255
176 208 255
176 208 255
176 208 255
176 208 255
176 208 255
176 208 255
176 208 255
176 208 255
176 208 255
176 208 255
176 208 255
176 208 255
176 208 255
176 208 255
176 208 255
176 208 255
176 208 255
176 208 255
176 208 255
176 208 255
176 208 255
176 208 255
176 208 255
176 208 255
176 208 255
176 208 255
176 208 255
176 208 255
176 208 255
176 208 255
176 208 255
176 208 255
176 208 255
176 208 255
176 208 255
176 208 255
176 208 255
176 208 255
176 208 255
176 208 255
176 208 255
176 208 255
176 208 255
176 208 255
176 208 255
176 208 255
176 208 255
176 208 255
176 208 255
176 208 255
176 208 255
176 208 255
176 208 255
176 208 255
176 208 255
176 208 255
176 208 255
176 208 255
176 208 255
176 208 255
176 208 255
176 208 255
176 208 255
176 208 255
176 208 255
176 208 255
176 208 255
176 208 255
176 208 255
176 208 255
176 208 255
176 208 255
176 208 255
176 208 255
176 208 255
176 208 255
176 208 255
176 208 255
176 208 255
176 208 255
176 208 255
176 208 255
176 208 255
176 208 255
176 208 255
176 208 255
176 208 255
176 208 255
176 208 255
176 208 255
176 208 255
176 208 255
176 208 255
176 208 255
176 208 255
176 208 255
176 208 255
176 208 255
176 208 255
176 208 255
176 208 255
176 208 255
176 208 255
176 208 255
176 208 255
176 208 255
176 208 255
176 208 255
176 208 255
176 208 255
176 208 255
176 208 255
177 208 255
177 208 255
177 208 255
177 208 255
177 208 255
177 208 255
177 208 255
177 208 255
177 208 255
177 208 255
177 208 255
177 208 255
177 208 255
177 208 255
177 208 255
177 208 255
177 208 255
177 208 255
177 208 255
175 205 251
161 179 217
145 155 187
136 133 159
131 112 130
123 92 104
125 93 105
116 73 80
121 71 77
123 72 78
111 65 70
121 71 77
121 71 77
118 69 75
117 68 74
121 70 76
110 64 69
108 67 74
120 89 101
123 94 108
118 107 127
131 119 141
149 150 180
154 165 200
173 200 244
177 209 255
177 209 255
177 209 255
177 209 255
177 209 255
177 209 255
177 209 255
177 209 255
177 209 255
177 209 255
177 209 255
177 209 255
177 209 255
177 209 255
178 209 255
178 209 255
178 209 255
178 209 255
178 209 255
178 209 255
178 209 255
178 209 255
178 209 255
178 209 255
178 209 255
178 209 255
178 209 255
178 209 255
178 209 255
178 209 255
178 209 255
178 209 255
178 209 255
178 209 255
178 209 255
178 209 255
178 209 255
178 209 255
178 209 255
178 209 255
178 209 255
178 209 255
178 209 255
178 209 255
178 209 255
178 209 255
178 209 255
178 209 255
178 209 255
178 209 255
178 209 255
178 209 255
178 209 255
178 209 255
178 209 255
178 209 255
178 209 255
178 209 255
178 209 255
178 209 255
178 209 255
178 209 255
178 209 255
178 209 255
178 209 255
178 209 255
178 209 255
178 209 255
178 209 255
178 209 255
178 209 255
178 209 255
178 209 255
178 209 255
178 209 255
178 209 255
178 209 255
178 209 255
178 209 255
178 209 255
178 209 255
179 209 255
179 209 255
179 209 255
179 209 255
179 209 255
179 209 255
179 209 255
179 209 255
179 209 255
179 209 255
179 209 255
179 209 255
179 209 255
178 209 255
178 209 255
178 209 255
178 209 255
178 209 255
178 209 255
178 209 255
178 209 255
178 209 255
178 209 255
178 209 255
178 209 255
178 209 255
178 209 255
178 209 255
178 209 255
178 209 255
178 209 255
178 209 255
178 209 255
178 209 255
178 209 255
178 209 255
178 209 255
178 209 255
178 209 255
178 209 255
178 209 255
178 209 255
178 209 255
178 209 255
178 209 255
178 209 255
178 209 255
178 209 255
178 209 255
178 209 255
178 209 255
178 209 255
178 209 255
178 209 255
178 209 255
178 209 255
178 209 255
178 209 255
178 209 255
178 209 255
178 209 255
178 209 255
178 209 255
178 209 255
178 209 255
178 209 255
178 209 255
178 209 255
178 209 255
178 209 255
178 209 255
178 209 255
178 209 255
178 209 255
178 209 255
178 209 255
178 209 255
168 198 243
158 188 232
127 152 189
109 132 166
86 106 135
65 81 104
63 79 102
50 62 81
48 64 81
71 103 127
65 98 116
79 115 138
89 127 149
106 140 164
100 139 162
121 163 195
117 163 189
112 145 171
124 166 196
127 167 194
103 141 168
115 166 192
105 144 173
101 140 167
99 145 172
78 115 138
66 94 115
67 86 109
93 114 145
112 134 168
127 152 189
158 187 230
172 202 248
177 208 255
177 208 255
177 208 255
177 208 255
177 208 255
177 208 255
177 208 255
177 208 255
177 208 255
177 208 255
177 208 255
177 208 255
177 208 255
177 208 255
177 208 255
177 208 255
177 208 255
177 208 255
177 208 255
177 208 255
177 208 255
177 208 255
177 208 255
177 208 255
177 208 255
177 208 255
177 208 255
177 208 255
177 208 255
177 208 255
177 208 255
176 208 255
176 208 255
176 208 255
176 208 255
176 208 255
176 208 255
176 208 255
176 208 255
176 208 255
176 208 255
176 208 255
176 208 255
176 208 255
176 208 255
176 208 255
176 208 255
176 208 255
176 208 255
176 208 255
176 208 255
176 208 255
176 208 255
176 208 255
176 208 255
176 208 255
176 208 255
176 208 255
176 208 255
176 208 255
176 208 255
176 208 255
176 208 255
176 208 255
176 208 255
176 208 255
176 208 255
176 208 255
176 208 255
176 208 255
176 208 255
176 208 255
176 208 255
176 208 255
176 208 255
176 208 255
176 208 255
176 208 255
176 208 255
176 208 255
176 208 255
176 208 255
176 208 255
176 208 255
176 208 255
176 208 255
176 208 255
176 208 255
176 208 255
176 208 255
176 208 255
176 208 255
176 208 255
176 208 255
176 208 255
176 208 255
176 208 255
176 208 255
176 208 255
176 208 255
176 208 255
176 208 255
176 208 255
176 208 255
176 208 255
176 208 255
176 208 255
176 208 255
176 208 255
176 208 255
176 208 255
176 208 255
176 208 255
176 208 255
176 208 255
176 208 255
176 208 255
176 208 255
176 208 255
176 208 255
176 208 255
176 208 255
176 208 255
176 208 255
176 208 255
176 208 255
176 208 255
176 208 255
176 208 255
176 208 255
176 208 255
176 208 255
176 208 255
176 208 255
176 208 255
176 208 255
176 208 255
176 208 255
176 208 255
176 208 255
176 208 255
176 208 255
176 208 255
176 208 255
176 208 255
176 208 255
176 208 255
176 208 255
176 208 255
176 208 255
177 208 255
177 208 255
177 208 255
177 208 255
177 208 255
177 208 255
177 208 255
177 208 255
177 208 255
177 208 255
177 208 255
177 208 255
177 208 255
177 208 255
177 208 255
177 208 255
177 208 255
177 208 255
177 208 255
177 208 255
177 208 255
177 208 255
177 208 255
177 208 255
177 208 255
177 208 255
177 208 255
177 208 255
177 208 255
177 208 255
166 191 234
144 141 169
141 129 153
125 93 105
115 74 82
115 67 73
115 68 74
132 78 85
127 76 84
124 73 81
127 76 84
138 83 91
123 74 83
135 81 90
134 81 89
137 82 91
129 78 86
127 76 84
131 79 87
138 83 91
130 77 85
125 74 82
135 80 88
129 77 84
123 73 80
114 68 74
131 77 84
120 70 76
102 60 65
117 86 97
132 114 134
152 152 182
164 181 219
177 208 254
178 209 255
178 209 255
178 209 255
178 209 255
178 209 255
178 209 255
178 209 255
178 209 255
178 209 255
178 209 255
178 209 255
178 209 255
178 209 255
178 209 255
178 209 255
178 209 255
178 209 255
178 209 255
178 209 255
178 209 255
178 209 255
178 209 255
178 209 255
178 209 255
178 209 255
178 209 255
178 209 255
178 209 255
178 209 255
178 209 255
178 209 255
178 209 255
178 209 255
178 209 255
178 209 255
178 209 255
178 209 255
178 209 255
178 209 255
178 209 255
178 209 255
178 209 255
178 209 255
178 209 255
178 209 255
178 209 255
178 209 255
178 209 255
178 209 255
178 209 255
178 209 255
178 209 255
178 209 255
178 209 255
178 209 255
178 209 255
178 209 255
178 209 255
178 209 255
178 209 255
178 209 255
178 209 255
178 209 255
178 209 255
179 209 255
179 209 255
179 209 255
179 209 255
179 209 255
179 209 255
179 209 255
179 209 255
179 209 255
179 209 255
179 209 255
179 209 255
179 210 255
179 210 255
179 210 255
179 210 255
179 209 255
179 209 255
179 209 255
179 209 255
179 209 255
179 209 255
179 209 255
179 209 255
179 209 255
179 209 255
179 209 255
179 209 255
179 209 255
179 209 255
179 209 255
179 209 255
179 209 255
179 209 255
179 209 255
179 209 255
179 209 255
179 209 255
179 209 255
179 209 255
179 209 255
179 209 255
179 209 255
179 209 255
179 209 255
179 209 255
178 209 255
178 209 255
178 209 255
178 209 255
178 209 255
178 209 255
178 209 255
178 209 255
178 209 255
178 209 255
178 209 255
178 209 255
178 209 255
178 209 255
178 209 255
178 209 255
178 209 255
178 209 255
178 209 255
178 209 255
178 209 255
178 209 255
178 209 255
178 209 255
178 209 255
178 209 255
178 209 255
178 209 255
178 209 255
178 209 255
178 209 255
178 209 255
178 209 255
178 209 255
178 209 255
178 209 255
178 209 255
178 209 255
178 209 255
178 209 255
158 187 230
119 142 176
88 107 135
71 88 112
79 99 127
68 86 112
52 69 89
60 87 104
85 108 130
101 132 156
150 192 229
166 207 244
178 211 251
181 211 255
181 212 253
179 211 253
177 210 252
178 210 253
179 210 254
175 208 254
179 210 255
177 209 255
175 208 253
180 211 254
177 210 253
180 211 255
182 212 253
181 211 255
185 213 255
171 208 248
156 203 239
145 191 224
120 162 191
109 148 179
83 123 147
95 122 153
105 126 158
135 161 199
162 191 235
177 208 255
177 209 255
177 209 255
177 209 255
177 208 255
177 208 255
177 208 255
177 208 255
177 208 255
177 208 255
177 208 255
177 208 255
177 208 255
177 208 255
177 208 255
177 208 255
177 208 255
177 208 255
177 208 255
177 208 255
177 208 255
177 208 255
177 208 255
177 208 255
177 208 255
177 208 255
177 208 255
177 208 255
177 208 255
177 208 255
177 208 255
177 208 255
177 208 255
177 208 255
177 208 255
177 208 255
177 208 255
177 208 255
177 208 255
177 208 255
177 208 255
177 208 255
177 208 255
177 208 255
177 208 255
177 208 255
177 208 255
177 208 255
177 208 255
177 208 255
176 208 255
176 208 255
176 208 255
176 208 255
176 208 255
176 208 255
176 208 255
176 208 255
176 208 255
176 208 255
176 208 255
176 208 255
176 208 255
176 208 255
176 208 255
176 208 255
176 208 255
176 208 255
176 208 255
176 208 255
176 208 255
176 208 255
176 208 255
176 208 255
176 208 255
176 208 255
176 208 255
176 208 255
176 208 255
176 208 255
176 208 255
176 208 255
176 208 255
176 208 255
176 208 255
176 208 255
176 208 255
176 208 255
176 208 255
176 208 255
176 208 255
176 208 255
176 208 255
176 208 255
176 208 255
176 208 255
176 208 255
176 208 255
176 208 255
176 208 255
176 208 255
176 208 255
176 208 255
176 208 255
176 208 255
176 208 255
176 208 255
176 208 255
176 208 255
176 208 255
176 208 255
176 208 255
176 208 255
176 208 255
176 208 255
176 208 255
176 208 255
176 208 255
176 208 255
176 208 255
176 208 255
176 208 255
176 208 255
176 208 255
176 208 255
177 208 255
176 208 255
177 208 255
177 208 255
177 208 255
177 208 255
177 208 255
177 208 255
177 208 255
177 208 255
177 208 255
177 208 255
177 208 255
177 208 255
177 208 255
177 208 255
177 208 255
177 208 255
177 208 255
177 208 255
177 208 255
177 208 255
177 208 255
177 208 255
177 208 255
177 208 255
177 208 255
177 208 255
177 208 255
177 208 255
177 208 255
177 208 255
177 208 255
177 208 255
177 208 255
177 208 255
177 208 255
177 208 255
177 208 255
177 208 255
177 208 255
177 208 255
177 208 255
177 208 255
177 208 255
177 209 255
177 209 255
177 209 255
175 205 251
162 173 210
130 112 131
119 83 93
101 59 64
121 71 78
127 75 83
131 78 86
137 82 90
127 76 84
137 82 91
131 79 88
137 83 93
139 84 94
138 83 93
135 82 92
134 82 92
138 84 94
139 85 95
135 83 93
137 84 94
137 83 93
140 85 95
137 84 94
136 83 93
139 84 94
134 82 91
140 84 94
135 82 91
139 83 92
129 78 86
138 82 91
126 75 83
125 74 82
125 73 80
111 65 71
122 71 77
106 69 76
136 119 139
149 158 191
175 202 247
178 209 255
178 209 255
178 209 255
178 209 255
178 209 255
178 209 255
178 209 255
178 209 255
178 209 255
178 209 255
178 209 255
178 209 255
178 209 255
178 209 255
178 209 255
178 209 255
178 209 255
178 209 255
178 209 255
178 209 255
178 209 255
178 209 255
178 209 255
178 209 255
178 209 255
178 209 255
178 209 255
178 209 255
178 209 255
178 209 255
178 209 255
178 209 255
178 209 255
178 209 255
178 209 255
178 209 255
178 209 255
178 209 255
178 209 255
178 209 255
179 209 255
179 209 255
179 209 255
179 209 255
179 209 255
179 209 255
179 209 255
179 209 255
179 209 255
179 209 255
179 209 255
179 209 255
179 209 255
179 209 255
179 209 255
179 209 255
179 209 255
179 209 255
179 209 255
179 209 255
179 209 255
179 209 255
179 209 255
179 209 255
179 209 255
179 209 255
179 209 255
179 209 255
179 210 255
179 210 255
179 210 255
179 210 255
179 210 255
179 210 255
179 210 255
179 210 255
179 210 255
179 210 255
179 210 255
179 210 255
179 210 255
179 210 255
179 210 255
179 210 255
179 210 255
179 210 255
179 210 255
179 210 255
179 210 255
179 210 255
179 210 255
179 210 255
179 210 255
179 210 255
179 210 255
179 210 255
179 210 255
179 210 255
179 210 255
179 210 255
179 209 255
179 209 255
179 209 255
179 209 255
179 209 255
179 209 255
179 209 255
179 209 255
179 209 255
179 209 255
179 209 255
179 209 255
179 209 255
179 209 255
179 209 255
179 209 255
179 209 255
179 209 255
179 209 255
179 209 255
179 209 255
179 209 255
179 209 255
179 209 255
179 209 255
179 209 255
178 209 255
178 209 255
178 209 255
178 209 255
178 209 255
178 209 255
178 209 255
178 209 255
178 209 255
178 209 255
178 209 255
178 209 255
178 209 255
178 209 255
178 209 255
178 209 255
178 209 255
178 209 255
155 183 225
111 133 166
81 99 125
66 81 104
52 65 84
52 66 87
49 69 86
104 132 159
151 186 222
161 203 237
184 213 254
178 210 253
178 210 253
177 209 255
176 209 254
173 207 253
172 207 253
171 205 254
173 207 253
170 206 252
170 205 253
170 205 254
173 206 255
168 204 253
170 204 255
173 206 255
168 205 252
170 205 254
171 205 254
167 204 252
171 206 254
173 207 253
175 208 254
176 208 254
171 207 251
177 209 254
177 209 253
176 210 251
167 207 246
139 183 214
117 162 194
81 118 141
89 112 140
136 162 202
168 198 243
177 209 255
177 209 255
177 209 255
177 209 255
177 209 255
177 209 255
177 209 255
177 209 255
177 209 255
177 209 255
177 209 255
177 209 255
177 209 255
177 209 255
177 209 255
177 209 255
177 209 255
177 209 255
177 209 255
177 208 255
177 208 255
177 208 255
177 208 255
177 208 255
177 208 255
177 208 255
177 208 255
177 208 255
177 208 255
177 208 255
177 208 255
177 208 255
177 208 255
177 208 255
177 208 255
177 208 255
177 208 255
177 208 255
177 208 255
177 208 255
177 208 255
177 208 255
177 208 255
177 208 255
177 208 255
177 208 255
177 208 255
177 208 255
177 208 255
177 208 255
177 208 255
177 208 255
177 208 255
177 208 255
177 208 255
177 208 255
177 208 255
177 208 255
177 208 255
177 208 255
177 208 255
177 208 255
177 208 255
177 208 255
177 208 255
177 208 255
177 208 255
177 208 255
177 208 255
177 208 255
177 208 255
177 208 255
177 208 255
177 208 255
177 208 255
177 208 255
177 208 255
177 208 255
177 208 255
177 208 255
177 208 255
177 208 255
177 208 255
177 208 255
177 208 255
177 208 255
177 208 255
177 208 255
177 208 255
177 208 255
177 208 255
177 208 255
177 208 255
177 208 255
177 208 255
177 208 255
177 208 255
177 208 255
177 208 255
177 208 255
177 208 255
177 208 255
177 208 255
177 208 255
177 208 255
177 208 255
177 208 255
177 208 255
177 208 255
177 208 255
177 208 255
177 208 255
177 208 255
177 208 255
177 208 255
177 208 255
177 208 255
177 208 255
177 208 255
177 208 255
177 208 255
177 208 255
177 208 255
177 208 255
177 208 255
177 208 255
177 208 255
177 208 255
177 208 255
177 208 255
177 208 255
177 208 255
177 208 255
177 208 255
177 208 255
177 208 255
177 208 255
177 208 255
177 208 255
177 208 255
177 208 255
177 208 255
177 208 255
177 208 255
177 208 255
177 208 255
177 208 255
177 208 255
177 208 255
177 208 255
177 209 255
177 209 255
177 209 255
177 209 255
177 209 255
177 209 255
177 209 255
177 209 255
177 209 255
177 209 255
177 209 255
177 209 255
177 209 255
177 209 255
177 209 255
177 209 255
177 209 255
177 209 255
162 180 218
123 114 134
118 77 85
115 67 73
128 76 83
131 78 86
132 79 87
132 80 88
136 83 92
136 82 92
136 83 93
138 84 95
138 84 95
136 84 95
136 84 95
136 84 95
135 84 95
135 84 95
135 84 95
135 83 95
134 83 95
135 83 95
134 83 95
135 84 95
135 84 95
135 84 95
136 84 95
136 84 95
136 84 95
138 84 95
139 85 95
138 84 95
138 85 95
137 84 94
140 84 94
139 84 93
133 80 88
133 79 87
126 75 83
124 73 80
130 76 83
116 68 73
109 66 72
127 106 123
140 143 172
176 205 250
178 209 255
178 209 255
178 209 255
178 209 255
178 209 255
178 209 255
178 209 255
178 209 255
178 209 255
178 209 255
178 209 255
178 209 255
178 209 255
178 209 255
178 209 255
178 209 255
178 209 255
178 209 255
179 209 255
179 209 255
179 209 255
179 209 255
179 209 255
179 209 255
179 209 255
179 209 255
179 209 255
179 209 255
179 209 255
179 209 255
179 209 255
179 209 255
179 209 255
179 209 255
179 209 255
179 209 255
179 209 255
179 209 255
179 209 255
179 209 255
179 209 255
179 209 255
179 209 255
179 209 255
179 210 255
179 210 255
179 210 255
179 210 255
179 210 255
179 210 255
179 210 255
179 210 255
179 210 255
179 210 255
179 210 255
179 210 255
179 210 255
179 210 255
179 210 255
179 210 255
179 210 255
179 210 255
179 210 255
179 210 255
179 210 255
179 210 255
179 210 255
179 210 255
179 210 255
179 210 255
179 210 255
179 210 255
179 210 255
179 210 255
179 210 255
179 210 255
179 210 255
179 210 255
179 210 255
179 210 255
179 210 255
179 210 255
179 210 255
179 210 255
179 210 255
179 210 255
179 210 255
179 210 255
179 210 255
179 210 255
179 210 255
179 210 255
179 210 255
179 210 255
179 210 255
179 210 255
179 210 255
179 210 255
179 210 255
179 210 255
179 210 255
179 210 255
179 210 255
179 210 255
179 210 255
179 210 255
179 210 255
179 210 255
179 210 255
179 210 255
179 210 255
179 210 255
179 210 255
179 210 255
179 210 255
179 210 255
179 210 255
179 210 255
179 209 255
179 209 255
179 209 255
179 209 255
179 209 255
179 209 255
179 209 255
179 209 255
179 209 255
179 209 255
179 209 255
179 209 255
179 209 255
179 209 255
179 209 255
179 209 255
179 209 255
179 209 255
179 209 255
179 209 255
168 197 240
132 157 194
75 91 115
66 81 104
45 57 74
33 42 55
67 92 112
105 132 157
155 192 228
180 211 253
179 211 253
177 209 255
177 209 253
175 208 254
174 207 254
173 207 253
171 205 254
168 203 254
165 202 253
169 203 255
169 204 255
164 202 253
167 202 255
165 201 255
164 201 254
164 201 254
164 200 255
163 200 255
164 201 254
162 200 253
165 202 255
160 200 251
163 201 253
166 202 255
167 202 255
166 202 254
168 204 254
170 205 255
171 205 254
170 205 255
173 207 254
173 206 255
178 210 254
181 211 253
175 210 250
148 194 229
121 164 194
100 143 172
108 133 166
152 180 222
177 209 255
178 209 255
178 209 255
178 209 255
178 209 255
178 209 255
178 209 255
178 209 255
178 209 255
178 209 255
178 209 255
178 209 255
178 209 255
177 209 255
178 209 255
177 209 255
177 209 255
177 209 255
177 209 255
177 209 255
177 209 255
177 209 255
177 209 255
177 209 255
177 209 255
177 209 255
177 209 255
177 209 255
177 209 255
177 209 255
177 209 255
177 209 255
177 209 255
177 209 255
177 209 255
177 209 255
177 209 255
177 209 255
177 208 255
177 208 255
177 208 255
177 208 255
177 208 255
177 208 255
177 208 255
177 208 255
177 208 255
177 208 255
177 208 255
177 208 255
177 208 255
177 208 255
177 208 255
177 208 255
177 208 255
177 208 255
177 208 255
177 208 255
177 208 255
177 208 255
177 208 255
177 208 255
177 208 255
177 208 255
177 208 255
177 208 255
177 208 255
177 208 255
177 208 255
177 208 255
177 208 255
177 208 255
177 208 255
177 208 255
177 208 255
177 208 255
177 208 255
177 208 255
176 205 248
174 202 240
172 197 230
169 188 207
171 193 220
168 187 204
174 202 240
175 203 243
177 208 255
177 208 255
177 208 255
177 208 255
177 208 255
177 208 255
177 208 255
177 208 255
177 208 255
177 208 255
177 208 255
177 208 255
177 208 255
177 208 255
177 208 255
177 208 255
177 208 255
177 208 255
177 208 255
177 208 255
177 208 255
177 208 255
177 208 255
177 208 255
177 208 255
177 208 255
177 208 255
177 208 255
177 208 255
177 208 255
177 208 255
177 208 255
177 208 255
177 208 255
177 208 255
177 208 255
177 208 255
177 208 255
177 208 255
177 208 255
177 209 255
177 209 255
177 209 255
177 209 255
177 209 255
177 209 255
177 209 255
177 209 255
177 209 255
177 209 255
177 209 255
177 209 255
177 209 255
177 209 255
177 209 255
177 209 255
177 209 255
177 209 255
177 209 255
177 209 255
177 209 255
177 209 255
177 209 255
177 209 255
178 209 255
178 209 255
178 209 255
178 209 255
178 209 255
178 209 255
178 209 255
178 209 255
178 209 255
178 209 255
178 209 255
178 209 255
178 209 255
173 199 242
143 134 159
113 78 88
109 64 69
125 74 81
130 78 85
137 82 90
135 82 91
138 84 94
138 84 94
138 84 95
137 84 95
136 84 95
135 84 95
135 84 95
133 83 95
134 83 95
133 83 95
132 83 95
132 83 95
132 83 95
133 83 95
132 83 95
132 83 95
131 82 95
131 83 95
131 82 95
132 83 95
132 83 95
132 83 95
133 83 95
133 83 95
134 83 95
135 84 95
136 84 95
136 84 95
138 84 95
137 84 95
137 84 95
139 85 95
140 85 95
142 85 94
144 86 95
132 79 87
129 76 84
131 78 85
135 79 85
125 74 80
132 79 85
128 117 138
154 169 204
179 209 255
179 209 255
179 209 255
179 209 255
179 209 255
179 209 255
179 209 255
179 209 255
179 209 255
179 209 255
179 209 255
179 209 255
179 209 255
179 209 255
179 209 255
179 209 255
179 209 255
179 209 255
179 209 255
179 209 255
179 210 255
179 210 255
179 210 255
179 210 255
179 210 255
179 210 255
179 210 255
179 210 255
179 210 255
179 210 255
179 210 255
179 210 255
179 210 255
179 210 255
179 210 255
179 210 255
179 210 255
179 210 255
179 210 255
179 210 255
179 210 255
179 210 255
179 210 255
179 210 255
179 210 255
179 210 255
179 210 255
179 210 255
179 210 255
179 210 255
179 210 255
179 210 255
179 210 255
179 210 255
179 210 255
179 210 255
179 210 255
179 210 255
179 210 255
179 210 255
179 210 255
179 210 255
179 210 255
179 210 255
179 210 255
179 210 255
179 210 255
179 210 255
180 210 255
180 210 255
180 210 255
180 210 255
180 210 255
180 210 255
180 210 255
180 210 255
180 210 255
180 210 255
180 210 255
180 210 255
180 210 255
179 210 255
179 210 255
179 210 255
179 210 255
179 210 255
179 210 255
179 210 255
179 210 255
179 210 255
179 210 255
179 210 255
179 210 255
179 210 255
179 210 255
179 210 255
179 210 255
179 210 255
179 210 255
179 210 255
179 210 255
179 210 255
179 210 255
179 210 255
179 210 255
179 210 255
179 210 255
179 210 255
179 210 255
179 210 255
179 210 255
179 210 255
179 210 255
179 210 255
179 210 255
179 210 255
179 210 255
179 210 255
179 210 255
179 210 255
179 210 255
179 210 255
179 210 255
179 210 255
179 210 255
179 210 255
179 210 255
179 210 255
179 210 255
179 210 255
179 210 255
179 210 255
179 210 255
179 209 255
154 181 222
123 146 181
73 90 115
67 83 107
37 47 61
52 73 91
95 123 147
166 200 237
183 213 254
183 212 255
176 209 253
176 208 255
175 208 255
168 204 253
169 205 253
169 204 255
166 203 253
164 202 253
164 201 255
162 200 254
162 200 254
162 199 255
161 199 255
160 199 255
159 198 255
160 198 255
158 197 255
160 198 255
159 198 255
158 197 255
159 198 255
159 198 255
159 198 255
159 197 255
161 199 255
159 198 255
162 200 255
161 200 254
163 200 255
161 199 253
165 201 255
163 201 253
166 202 255
171 205 255
170 205 254
171 205 254
177 208 255
173 207 253
178 210 254
176 209 253
150 199 236
124 171 202
101 132 164
143 171 211
168 198 243
178 209 255
178 209 255
178 209 255
178 209 255
178 209 255
178 209 255
178 209 255
178 209 255
178 209 255
178 209 255
178 209 255
178 209 255
178 209 255
178 209 255
178 209 255
178 209 255
178 209 255
178 209 255
178 209 255
178 209 255
178 209 255
178 209 255
178 209 255
178 209 255
178 209 255
178 209 255
178 209 255
178 209 255
178 209 255
178 209 255
177 209 255
177 209 255
177 209 255
177 209 255
177 209 255
177 209 255
177 209 255
177 209 255
177 209 255
177 209 255
177 209 255
177 209 255
177 209 255
177 209 255
177 209 255
177 209 255
177 209 255
177 209 255
177 209 255
177 209 255
177 209 255
177 209 255
177 209 255
177 209 255
177 209 255
177 209 255
177 209 255
177 209 255
177 209 255
177 209 255
177 209 255
177 209 255
177 209 255
177 209 255
177 209 255
177 209 255
177 209 255
177 209 255
175 204 245
166 181 191
159 162 145
154 145 104
147 126 58
143 118 40
138 103 5
139 102 0
137 101 0
137 101 0
137 101 0
137 101 0
138 101 0
138 101 0
136 101 0
141 107 12
141 113 28
148 129 66
153 142 97
160 159 138
172 193 220
177 206 250
177 209 255
177 209 255
177 209 255
177 209 255
177 209 255
177 209 255
177 209 255
177 209 255
177 209 255
177 209 255
177 209 255
177 209 255
177 209 255
177 209 255
177 209 255
177 209 255
177 209 255
177 209 255
177 209 255
177 209 255
177 209 255
177 209 255
177 209 255
177 209 255
177 209 255
177 209 255
177 209 255
177 209 255
177 209 255
177 209 255
177 209 255
177 209 255
177 209 255
177 209 255
177 209 255
177 209 255
177 209 255
178 209 255
178 209 255
178 209 255
178 209 255
178 209 255
178 209 255
178 209 255
178 209 255
178 209 255
178 209 255
178 209 255
178 209 255
178 209 255
178 209 255
178 209 255
178 209 255
178 209 255
178 209 255
178 209 255
178 209 255
178 209 255
178 209 255
178 209 255
178 209 255
178 209 255
178 209 255
178 209 255
178 209 255
178 209 255
178 209 255
178 209 255
168 190 231
138 123 145
109 66 72
118 70 76
127 76 84
130 78 86
140 84 93
138 83 93
137 84 94
137 84 95
138 84 95
136 84 95
135 84 95
135 84 95
133 83 95
132 83 95
132 83 95
132 83 95
129 82 95
131 82 95
130 82 95
129 82 95
130 82 95
129 82 95
129 82 95
130 82 95
129 82 95
129 82 95
129 82 95
130 82 95
130 82 95
131 82 95
131 82 95
130 82 95
131 82 95
132 83 95
131 83 95
133 83 95
133 83 95
134 83 95
136 84 95
136 84 95
136 84 95
138 84 95
139 85 95
141 85 95
142 86 95
142 85 93
138 82 90
131 77 84
129 76 83
122 71 77
101 58 63
134 107 123
153 160 193
179 208 254
179 210 255
179 210 255
179 210 255
179 210 255
179 210 255
179 210 255
179 210 255
179 210 255
179 210 255
179 210 255
179 210 255
179 210 255
179 210 255
179 210 255
179 210 255
179 210 255
179 210 255
179 210 255
179 210 255
179 210 255
179 210 255
179 210 255
179 210 255
179 210 255
179 210 255
179 210 255
179 210 255
179 210 255
179 210 255
179 210 255
179 210 255
179 210 255
179 210 255
179 210 255
179 210 255
179 210 255
179 210 255
179 210 255
179 210 255
179 210 255
179 210 255
179 210 255
179 210 255
179 210 255
179 210 255
179 210 255
179 210 255
179 210 255
179 210 255
179 210 255
179 210 255
179 210 255
180 210 255
180 210 255
180 210 255
180 210 255
180 210 255
180 210 255
180 210 255
180 210 255
180 210 255
180 210 255
180 210 255
180 210 255
180 210 255
180 210 255
180 210 255
180 210 255
180 210 255
180 210 255
180 210 255
180 210 255
180 210 255
180 210 255
180 210 255
180 210 255
180 210 255
180 210 255
180 210 255
180 210 255
180 210 255
180 210 255
180 210 255
180 210 255
180 210 255
180 210 255
180 210 255
180 210 255
180 210 255
180 210 255
180 210 255
180 210 255
180 210 255
180 210 255
180 210 255
180 210 255
180 210 255
180 210 255
180 210 255
180 210 255
180 210 255
179 210 255
179 210 255
179 210 255
179 210 255
179 210 255
179 210 255
179 210 255
179 210 255
179 210 255
179 210 255
179 210 255
179 210 255
179 210 255
179 210 255
179 210 255
179 210 255
179 210 255
179 210 255
179 210 255
179 210 255
179 210 255
179 210 255
179 210 255
179 210 255
179 210 255
179 210 255
179 210 255
179 210 255
157 185 227
100 120 151
68 84 107
54 67 87
42 53 69
76 100 121
135 165 195
172 209 247
182 212 254
178 209 255
172 207 252
171 206 253
173 206 255
171 205 255
168 203 255
164 202 252
165 202 255
163 200 255
164 201 255
161 199 255
160 198 255
160 198 255
158 197 255
156 196 255
156 196 255
155 195 255
155 195 255
155 195 255
154 194 255
154 195 255
154 194 255
154 195 255
155 195 255
154 195 255
154 194 255
154 194 255
153 194 255
156 196 255
155 195 255
156 196 255
156 196 255
159 198 255
160 198 255
161 199 255
162 199 255
162 200 254
164 200 255
163 201 253
169 203 255
168 204 253
172 206 255
174 207 255
179 210 255
180 210 255
167 206 248
130 181 211
85 127 150
122 146 181
172 202 248
178 209 255
178 209 255
178 209 255
178 209 255
178 209 255
178 209 255
178 209 255
178 209 255
178 209 255
178 209 255
178 209 255
178 209 255
178 209 255
178 209 255
178 209 255
178 209 255
178 209 255
178 209 255
178 209 255
178 209 255
178 209 255
178 209 255
178 209 255
178 209 255
178 209 255
178 209 255
178 209 255
178 209 255
178 209 255
178 209 255
178 209 255
178 209 255
178 209 255
178 209 255
178 209 255
178 209 255
178 209 255
178 209 255
178 209 255
178 209 255
178 209 255
178 209 255
178 209 255
178 209 255
178 209 255
178 209 255
178 209 255
178 209 255
178 209 255
178 209 255
178 209 255
178 209 255
178 209 255
178 209 255
178 209 255
178 209 255
178 209 255
178 209 255
178 209 255
178 209 255
178 209 255
177 209 255
177 209 255
171 192 215
156 152 120
149 133 76
139 104 7
138 101 0
138 101 0
140 102 0
141 102 0
140 102 0
137 101 0
140 102 0
141 102 0
142 103 0
140 102 0
140 102 0
140 102 0
140 102 0
141 102 0
140 102 0
137 101 0
139 102 0
141 102 0
140 102 0
140 102 0
139 104 7
150 130 66
161 166 153
167 180 186
177 209 255
177 209 255
177 209 255
177 209 255
178 209 255
178 209 255
178 209 255
178 209 255
178 209 255
178 209 255
178 209 255
178 209 255
178 209 255
178 209 255
178 209 255
178 209 255
178 209 255
178 209 255
178 209 255
178 209 255
178 209 255
178 209 255
178 209 255
178 209 255
178 209 255
178 209 255
178 209 255
178 209 255
178 209 255
178 209 255
178 209 255
178 209 255
178 209 255
178 209 255
178 209 255
178 209 255
178 209 255
178 209 255
178 209 255
178 209 255
178 209 255
178 209 255
178 209 255
178 209 255
178 209 255
178 209 255
178 209 255
178 209 255
178 209 255
178 209 255
178 209 255
178 209 255
178 209 255
178 209 255
178 209 255
178 209 255
178 209 255
178 209 255
178 209 255
178 209 255
178 209 255
178 209 255
178 209 255
162 180 219
135 120 141
110 65 70
128 75 82
131 78 85
135 81 89
139 84 93
141 85 95
140 85 95
137 84 95
137 84 95
135 83 95
135 84 95
133 83 95
131 83 95
131 82 95
131 82 95
130 82 95
130 82 95
129 82 95
129 82 95
128 82 95
128 82 95
128 82 95
127 81 95
128 82 95
127 81 95
127 81 95
127 81 95
127 81 95
128 82 95
128 82 95
129 82 95
129 82 95
129 82 95
130 82 95
130 82 95
132 83 95
131 82 95
131 82 95
131 82 95
131 82 95
133 83 95
134 83 95
134 83 95
135 84 95
136 84 95
138 84 95
138 84 95
139 85 95
141 85 95
140 84 93
140 84 92
136 81 88
132 78 84
126 74 80
119 68 73
114 84 95
156 160 191
174 203 248
179 210 255
179 210 255
179 210 255
179 210 255
179 210 255
179 210 255
179 210 255
179 210 255
179 210 255
179 210 255
179 210 255
179 210 255
179 210 255
179 210 255
179 210 255
179 210 255
179 210 255
179 210 255
179 210 255
179 210 255
179 210 255
179 210 255
179 210 255
179 210 255
179 210 255
179 210 255
179 210 255
179 210 255
180 210 255
180 210 255
180 210 255
180 210 255
180 210 255
180 210 255
180 210 255
180 210 255
180 210 255
180 210 255
180 210 255
180 210 255
180 210 255
180 210 255
180 210 255
180 210 255
180 210 255
180 210 255
180 210 255
180 210 255
180 210 255
180 210 255
180 210 255
180 210 255
180 210 255
180 210 255
180 210 255
180 210 255
180 210 255
180 210 255
180 210 255
180 210 255
180 210 255
180 210 255
180 210 255
180 210 255
180 210 255
180 210 255
180 210 255
180 210 255
180 210 255
180 210 255
180 210 255
180 210 255
180 210 255
180 210 255
180 210 255
180 210 255
180 210 255
180 210 255
180 210 255
180 210 255
180 210 255
180 210 255
180 210 255
180 210 255
180 210 255
180 210 255
180 210 255
180 210 255
180 210 255
180 210 255
180 210 255
180 210 255
180 210 255
180 210 255
180 210 255
180 210 255
180 210 255
180 210 255
180 210 255
180 210 255
180 210 255
180 210 255
180 210 255
180 210 255
180 210 255
180 210 255
180 210 255
180 210 255
180 210 255
180 210 255
180 210 255
180 210 255
180 210 255
180 210 255
180 210 255
180 210 255
180 210 255
180 210 255
180 210 255
180 210 255
179 210 255
179 210 255
179 210 255
179 210 255
179 210 255
158 186 227
117 140 174
74 90 115
49 61 79
35 45 58
74 98 117
144 181 215
184 213 254
179 210 253
177 209 254
177 209 255
172 206 254
165 202 253
170 204 255
166 202 255
166 202 255
164 201 255
161 199 255
162 199 255
159 198 255
157 196 255
157 197 255
156 196 255
155 195 255
153 194 255
153 194 255
151 193 255
151 193 255
150 192 255
150 192 255
149 192 255
149 191 255
148 191 255
148 191 255
149 191 255
149 192 255
149 191 255
150 192 255
149 191 255
150 192 255
150 192 255
152 193 255
152 194 255
152 193 255
154 195 255
155 195 255
158 197 255
158 197 255
160 198 255
161 199 255
164 201 255
164 201 255
162 202 251
167 203 253
172 206 254
172 206 254
177 209 254
180 211 255
176 211 249
144 196 231
120 167 199
124 148 182
173 203 248
178 209 255
178 209 255
178 209 255
178 209 255
178 209 255
178 209 255
178 209 255
178 209 255
178 209 255
178 209 255
178 209 255
178 209 255
178 209 255
178 209 255
178 209 255
178 209 255
178 209 255
178 209 255
178 209 255
178 209 255
178 209 255
178 209 255
178 209 255
178 209 255
178 209 255
178 209 255
178 209 255
178 209 255
178 209 255
178 209 255
178 209 255
178 209 255
178 209 255
178 209 255
178 209 255
178 209 255
178 209 255
178 209 255
178 209 255
178 209 255
178 209 255
178 209 255
178 209 255
178 209 255
178 209 255
178 209 255
178 209 255
178 209 255
178 209 255
178 209 255
178 209 255
178 209 255
178 209 255
178 209 255
178 209 255
178 209 255
178 209 255
178 209 255
170 189 207
161 163 145
144 117 35
137 101 0
140 102 0
140 102 0
142 103 0
143 103 0
141 102 0
140 102 0
142 103 0
141 102 0
140 102 0
144 103 0
143 103 0
141 102 0
141 102 0
142 103 0
141 102 0
140 102 0
140 102 0
142 103 0
143 103 0
142 103 0
142 103 0
143 103 0
142 103 0
143 103 0
140 102 0
140 102 0
139 102 0
145 121 46
157 151 117
173 195 222
178 209 255
178 209 255
178 209 255
178 209 255
178 209 255
178 209 255
178 209 255
178 209 255
178 209 255
178 209 255
178 209 255
178 209 255
178 209 255
178 209 255
178 209 255
178 209 255
178 209 255
178 209 255
178 209 255
178 209 255
178 209 255
178 209 255
178 209 255
178 209 255
178 209 255
178 209 255
178 209 255
178 209 255
178 209 255
178 209 255
178 209 255
178 209 255
178 209 255
178 209 255
178 209 255
178 209 255
178 209 255
178 209 255
178 209 255
178 209 255
178 209 255
178 209 255
178 209 255
178 209 255
178 209 255
178 209 255
178 209 255
178 209 255
178 209 255
178 209 255
178 209 255
178 209 255
178 209 255
178 209 255
178 209 255
178 209 255
178 209 255
178 209 255
164 183 222
131 120 141
106 62 66
109 64 70
126 75 83
138 82 90
141 85 94
140 85 95
139 85 95
137 84 95
135 84 95
135 84 95
134 83 95
132 83 95
131 82 95
130 82 95
130 82 95
130 82 95
129 82 95
128 82 95
127 81 95
126 81 95
126 81 95
127 81 95
126 81 95
126 81 95
126 81 95
125 81 95
125 81 95
127 81 95
127 81 95
126 81 95
127 81 95
127 81 95
127 81 95
127 81 95
127 81 95
127 81 95
129 82 95
129 82 95
129 82 95
129 82 95
129 82 95
131 82 95
132 83 95
131 83 95
134 83 95
133 83 95
134 83 95
136 84 95
137 84 95
137 84 95
140 85 95
140 85 95
140 85 95
143 86 95
137 82 90
142 84 92
131 77 84
127 74 80
119 69 74
133 89 98
153 161 193
179 210 255
179 210 255
179 210 255
179 210 255
179 210 255
179 210 255
180 210 255
180 210 255
180 210 255
180 210 255
180 210 255
180 210 255
180 210 255
180 210 255
180 210 255
180 210 255
180 210 255
180 210 255
180 210 255
180 210 255
180 210 255
180 210 255
180 210 255
180 210 255
180 210 255
180 210 255
180 210 255
180 210 255
180 210 255
180 210 255
180 210 255
180 210 255
180 210 255
180 210 255
180 210 255
180 210 255
180 210 255
180 210 255
180 210 255
180 210 255
180 210 255
180 210 255
180 210 255
180 210 255
180 210 255
180 210 255
180 210 255
180 210 255
180 210 255
180 210 255
180 210 255
180 210 255
180 210 255
180 210 255
180 210 255
180 210 255
180 210 255
180 210 255
180 210 255
180 210 255
180 210 255
180 210 255
180 210 255
180 210 255
180 210 255
180 210 255
180 210 255
180 210 255
180 210 255
180 210 255
180 210 255
180 210 255
180 210 255
180 210 255
180 210 255
180 210 255
180 210 255
180 210 255
180 210 255
180 210 255
180 210 255
180 210 255
180 210 255
180 210 255
180 210 255
180 210 255
180 210 255
180 210 255
180 210 255
180 210 255
180 210 255
180 210 255
180 210 255
180 210 255
180 210 255
180 210 255
180 210 255
180 210 255
180 210 255
180 210 255
180 210 255
180 210 255
180 210 255
180 210 255
180 210 255
180 210 255
180 210 255
180 210 255
180 210 255
180 210 255
180 210 255
180 210 255
180 210 255
180 210 255
180 210 255
180 210 255
180 210 255
180 210 255
180 210 255
180 210 255
180 210 255
180 210 255
166 195 238
115 136 168
64 78 99
48 59 76
34 43 56
63 79 96
146 182 217
184 213 253
180 211 254
174 207 254
175 208 254
173 206 255
169 204 255
164 202 253
167 202 255
163 200 255
162 200 255
161 199 255
159 198 255
156 196 255
157 196 255
155 195 255
154 194 255
152 193 255
151 193 255
150 192 255
149 192 255
147 191 255
147 190 255
146 190 255
147 191 255
146 190 255
145 189 255
146 190 255
145 189 255
145 189 255
144 189 255
145 189 255
145 189 255
144 189 255
145 189 255
146 190 255
145 189 255
147 190 255
146 190 255
149 192 255
150 192 255
151 193 255
151 193 255
153 194 255
154 194 255
156 196 255
158 197 255
161 199 255
162 200 255
164 201 255
165 202 254
166 202 255
167 203 253
172 206 255
173 207 254
180 211 254
179 211 253
154 201 236
99 148 174
134 161 198
177 207 253
179 209 255
179 209 255
179 209 255
179 209 255
179 209 255
179 209 255
179 209 255
179 209 255
179 209 255
179 209 255
179 209 255
179 209 255
179 209 255
179 209 255
178 209 255
178 209 255
178 209 255
178 209 255
178 209 255
178 209 255
178 209 255
178 209 255
178 209 255
178 209 255
178 209 255
178 209 255
178 209 255
178 209 255
178 209 255
178 209 255
178 209 255
178 209 255
178 209 255
178 209 255
178 209 255
178 209 255
178 209 255
178 209 255
178 209 255
178 209 255
178 209 255
178 209 255
178 209 255
178 209 255
178 209 255
178 209 255
178 209 255
178 209 255
178 209 255
178 209 255
178 209 255
178 209 255
178 209 255
178 207 250
168 178 181
149 129 63
140 102 0
143 103 0
141 102 0
142 103 0
143 103 0
142 103 0
142 103 0
143 103 0
143 103 0
142 103 0
144 103 0
144 103 0
143 103 0
144 103 0
146 104 0
144 103 0
142 103 0
144 103 0
143 103 0
144 103 0
143 103 0
145 103 0
147 104 0
142 103 0
144 103 0
143 103 0
142 103 0
144 103 0
143 103 0
144 103 0
143 103 0
142 103 0
142 103 0
140 102 0
146 124 53
167 179 184
177 206 248
178 209 255
178 209 255
178 209 255
178 209 255
178 209 255
178 209 255
178 209 255
178 209 255
178 209 255
178 209 255
178 209 255
178 209 255
178 209 255
178 209 255
178 209 255
178 209 255
178 209 255
178 209 255
178 209 255
178 209 255
178 209 255
178 209 255
178 209 255
178 209 255
178 209 255
178 209 255
178 209 255
178 209 255
178 209 255
178 209 255
178 209 255
178 209 255
178 209 255
178 209 255
178 209 255
178 209 255
178 209 255
178 209 255
179 209 255
179 209 255
179 209 255
179 209 255
179 209 255
179 209 255
179 209 255
179 209 255
179 209 255
179 209 255
179 209 255
179 209 255
179 209 255
179 209 255
179 209 255
175 203 247
143 133 158
121 74 80
110 65 70
132 79 86
143 85 94
139 84 93
140 85 95
139 85 95
137 84 95
134 83 95
134 83 95
133 83 95
132 83 95
132 83 95
130 82 95
129 82 95
129 82 95
128 82 95
127 81 95
126 81 95
126 81 95
126 81 95
126 81 95
126 81 95
125 81 95
125 81 95
125 81 95
125 81 95
125 81 95
125 81 95
125 81 95
124 81 95
125 81 95
125 81 95
125 81 95
126 81 95
125 81 95
127 81 95
127 81 95
126 81 95
127 81 95
127 81 95
128 82 95
129 82 95
129 82 95
130 82 95
130 82 95
132 83 95
132 83 95
131 83 95
134 83 95
135 84 95
135 84 95
136 84 95
138 84 95
139 85 95
140 85 95
143 86 95
143 86 95
144 86 94
139 82 89
122 72 78
132 77 83
112 64 68
121 107 124
170 188 228
180 210 255
180 210 255
180 210 255
180 210 255
180 210 255
180 210 255
180 210 255
180 210 255
180 210 255
180 210 255
180 210 255
180 210 255
180 210 255
180 210 255
180 210 255
180 210 255
180 210 255
180 210 255
180 210 255
180 210 255
180 210 255
180 210 255
180 210 255
180 210 255
180 210 255
180 210 255
180 210 255
180 210 255
180 210 255
180 210 255
180 210 255
180 210 255
180 210 255
180 210 255
180 210 255
180 210 255
180 210 255
180 210 255
180 210 255
180 210 255
180 210 255
180 210 255
180 210 255
180 210 255
180 210 255
180 210 255
180 210 255
180 210 255
180 210 255
180 210 255
180 210 255
180 210 255
180 210 255
180 210 255
180 210 255
180 210 255
180 210 255
180 210 255
180 210 255
180 210 255
181 211 255
181 211 255
181 211 255
181 211 255
181 211 255
181 211 255
181 211 255
181 211 255
181 211 255
181 211 255
181 211 255
181 211 255
181 211 255
181 211 255
181 211 255
181 211 255
180 210 255
180 210 255
180 210 255
180 210 255
180 210 255
180 210 255
180 210 255
180 210 255
180 210 255
180 210 255
180 210 255
180 210 255
180 210 255
180 210 255
180 210 255
180 210 255
180 210 255
180 210 255
180 210 255
180 210 255
180 210 255
180 210 255
180 210 255
180 210 255
180 210 255
180 210 255
180 210 255
180 210 255
180 210 255
180 210 255
180 210 255
180 210 255
180 210 255
180 210 255
180 210 255
180 210 255
180 210 255
180 210 255
180 210 255
180 210 255
180 210 255
180 210 255
180 210 255
141 166 204
66 79 99
60 74 94
33 41 53
53 67 84
147 175 209
181 212 251
180 210 255
179 210 255
172 207 252
170 206 252
165 202 253
166 203 253
166 202 255
164 201 255
163 200 255
160 198 255
159 197 255
156 196 255
156 196 255
153 194 255
153 194 255
151 193 255
150 192 255
149 191 255
148 191 255
146 190 255
146 190 255
145 189 255
144 188 255
143 188 255
143 188 255
143 188 255
142 187 255
142 187 255
141 187 255
142 187 255
142 187 255
141 187 255
143 188 255
141 187 255
141 187 255
142 187 255
142 187 255
143 188 255
144 188 255
144 189 255
145 189 255
147 190 255
147 190 255
149 192 255
150 192 255
151 193 255
151 193 255
155 195 255
157 196 255
159 197 255
160 198 255
163 200 255
165 202 255
165 202 253
171 205 255
173 207 254
172 207 253
177 209 254
175 210 250
140 190 225
112 157 186
163 192 235
179 210 255
179 210 255
179 210 255
179 210 255
179 210 255
179 210 255
179 210 255
179 210 255
179 210 255
179 210 255
179 209 255
179 209 255
179 209 255
179 209 255
179 209 255
179 209 255
179 209 255
179 209 255
179 209 255
179 209 255
179 209 255
179 209 255
179 209 255
179 209 255
179 209 255
179 209 255
179 209 255
179 209 255
179 209 255
179 209 255
179 209 255
179 209 255
179 209 255
179 209 255
179 209 255
179 209 255
179 209 255
179 209 255
179 209 255
178 209 255
178 209 255
178 209 255
178 209 255
178 209 255
178 209 255
178 209 255
178 209 255
178 209 255
178 209 255
178 209 255
177 206 248
162 162 143
145 117 35
143 103 0
143 103 0
142 103 0
144 103 0
144 103 0
144 103 0
145 104 0
144 103 0
143 103 0
144 103 0
145 104 0
145 104 0
142 103 0
142 103 0
144 103 0
145 104 0
147 104 0
145 104 0
144 103 0
147 104 0
143 103 0
145 103 0
145 104 0
145 104 0
141 102 0
144 103 0
145 103 0
145 104 0
145 104 0
145 104 0
142 103 0
144 103 0
147 104 0
143 103 0
143 103 0
144 103 0
140 102 0
142 103 0
147 114 25
159 157 130
177 205 245
178 209 255
178 209 255
178 209 255
178 209 255
178 209 255
178 209 255
178 209 255
178 209 255
178 209 255
178 209 255
178 209 255
179 209 255
179 209 255
179 209 255
179 209 255
179 209 255
179 209 255
179 209 255
179 209 255
179 209 255
179 209 255
179 209 255
179 209 255
179 209 255
179 209 255
179 209 255
179 209 255
179 209 255
179 209 255
179 209 255
179 209 255
179 209 255
179 209 255
179 209 255
179 209 255
179 209 255
179 209 255
179 209 255
179 210 255
179 209 255
179 210 255
179 210 255
179 210 255
179 210 255
179 210 255
179 210 255
179 210 255
179 210 255
179 210 255
179 210 255
148 160 193
122 82 91
120 70 76
134 79 86
140 83 91
143 86 95
142 86 95
139 85 95
137 84 95
136 84 95
135 84 95
132 83 95
132 83 95
131 82 95
130 82 95
129 82 95
129 82 95
129 82 95
127 81 95
127 81 95
126 81 95
126 81 95
125 81 95
125 81 95
124 81 95
124 81 95
124 81 95
124 80 95
124 80 95
124 80 95
124 80 95
124 80 95
124 81 95
124 81 95
124 81 95
124 80 95
124 81 95
125 81 95
125 81 95
125 81 95
126 81 95
126 81 95
126 81 95
127 81 95
127 81 95
127 81 95
129 82 95
129 82 95
129 82 95
130 82 95
131 82 95
131 82 95
132 83 95
134 83 95
134 83 95
136 84 95
136 84 95
137 84 95
138 84 95
139 85 95
141 85 95
143 86 95
146 87 95
145 86 94
139 81 88
121 71 77
127 73 79
108 63 67
139 130 152
180 209 254
180 210 255
180 210 255
180 210 255
180 210 255
180 210 255
180 210 255
180 210 255
180 210 255
180 210 255
180 210 255
180 210 255
180 210 255
180 210 255
180 210 255
180 210 255
180 210 255
180 210 255
180 210 255
180 210 255
180 210 255
180 210 255
180 210 255
180 210 255
180 210 255
180 210 255
180 210 255
180 210 255
180 210 255
180 210 255
180 210 255
180 210 255
180 210 255
180 210 255
180 210 255
180 210 255
180 210 255
180 210 255
180 210 255
180 210 255
180 210 255
180 210 255
180 210 255
180 210 255
181 211 255
181 211 255
181 211 255
181 211 255
181 211 255
181 211 255
181 211 255
181 211 255
181 211 255
181 211 255
181 211 255
181 211 255
181 211 255
181 211 255
181 211 255
181 211 255
181 211 255
181 211 255
181 211 255
181 211 255
181 211 255
181 211 255
181 211 255
181 211 255
181 211 255
181 211 255
181 211 255
181 211 255
181 211 255
181 211 255
181 211 255
181 211 255
181 211 255
181 211 255
181 211 255
181 211 255
181 211 255
181 211 255
181 211 255
181 211 255
181 211 255
181 211 255
181 211 255
181 211 255
181 211 255
181 211 255
181 211 255
181 211 255
181 211 255
181 211 255
181 211 255
181 211 255
181 211 255
181 211 255
181 211 255
180 210 255
180 210 255
180 210 255
180 210 255
180 210 255
180 210 255
180 210 255
180 210 255
180 210 255
180 210 255
180 210 255
180 210 255
180 210 255
180 210 255
180 210 255
180 210 255
180 210 255
165 193 235
103 123 153
83 101 127
46 57 74
45 57 72
113 138 163
183 210 249
178 210 254
179 209 255
171 207 252
171 205 253
169 204 254
166 203 253
166 202 255
164 200 255
162 199 255
160 198 255
158 197 255
157 196 255
154 195 255
152 194 255
151 193 255
149 192 255
147 191 255
147 190 255
146 190 255
144 189 255
144 189 255
144 188 255
143 188 255
141 187 255
140 186 255
140 186 255
140 186 255
139 185 255
139 185 255
138 185 255
139 186 255
138 185 255
138 185 255
138 185 255
138 185 255
139 186 255
138 185 255
139 186 255
139 186 255
141 187 255
141 187 255
140 186 255
142 187 255
142 187 255
143 188 255
144 189 255
146 190 255
146 190 255
149 192 255
151 193 255
152 194 255
153 194 255
155 195 255
157 197 255
159 198 255
164 200 255
165 202 255
165 202 253
168 204 253
172 207 253
178 209 255
181 211 255
168 208 245
129 173 207
137 166 203
179 210 255
179 210 255
179 210 255
179 210 255
179 210 255
179 210 255
179 210 255
179 210 255
179 210 255
179 210 255
179 210 255
179 210 255
179 210 255
179 210 255
179 210 255
179 210 255
179 210 255
179 210 255
179 210 255
179 210 255
179 210 255
179 210 255
179 210 255
179 210 255
179 210 255
179 210 255
179 210 255
179 210 255
179 210 255
179 210 255
179 210 255
179 210 255
179 210 255
179 210 255
179 209 255
179 210 255
179 209 255
179 209 255
179 209 255
179 209 255
179 209 255
179 209 255
179 209 255
179 209 255
179 209 255
179 209 255
179 209 255
179 209 255
164 168 158
148 118 35
142 103 0
144 103 0
141 102 0
144 103 0
146 104 0
144 103 0
144 103 0
145 104 0
147 104 0
146 104 0
145 104 0
146 104 0
144 103 0
147 104 0
146 104 0
148 105 0
145 104 0
145 104 0
147 104 0
147 104 0
146 104 0
145 104 0
149 105 0
146 104 0
147 104 0
147 104 0
144 103 0
146 104 0
146 104 0
147 104 0
146 104 0
145 103 0
145 104 0
147 104 0
147 104 0
144 103 0
143 103 0
144 103 0
144 103 0
147 104 0
144 103 0
144 103 0
149 122 46
162 164 148
178 208 253
179 209 255
179 209 255
179 209 255
179 209 255
179 209 255
179 209 255
179 209 255
179 209 255
179 209 255
179 209 255
179 209 255
179 209 255
179 210 255
179 210 255
179 210 255
179 210 255
179 210 255
179 210 255
179 210 255
179 210 255
179 210 255
179 210 255
179 210 255
179 210 255
179 210 255
179 210 255
179 210 255
179 210 255
179 210 255
179 210 255
179 210 255
179 210 255
179 210 255
179 210 255
179 210 255
179 210 255
179 210 255
179 210 255
179 210 255
179 210 255
179 210 255
179 210 255
179 210 255
179 210 255
179 210 255
179 210 255
173 200 243
139 127 149
114 66 71
129 75 82
141 83 91
141 84 93
142 86 95
140 85 95
138 84 95
135 84 95
135 83 95
133 83 95
132 83 95
131 82 95
130 82 95
129 82 95
128 82 95
128 81 95
127 81 95
126 81 95
126 81 95
125 81 95
125 81 95
124 81 95
124 80 95
124 80 95
124 80 95
124 80 95
123 80 95
123 80 95
123 80 95
123 80 95
123 80 95
123 80 95
123 80 95
123 80 95
123 80 95
124 80 95
124 80 95
124 81 95
125 81 95
125 81 95
125 81 95
126 81 95
126 81 95
126 81 95
127 81 95
127 81 95
129 82 95
128 81 95
129 82 95
129 82 95
130 82 95
130 82 95
131 83 95
132 83 95
132 83 95
134 83 95
135 84 95
136 84 95
136 84 95
138 84 95
139 85 95
140 85 95
142 85 95
144 86 95
146 87 95
142 84 92
144 85 92
130 76 82
114 65 69
107 72 79
162 182 220
180 210 255
180 210 255
180 210 255
180 210 255
180 210 255
180 210 255
180 210 255
180 210 255
180 210 255
180 210 255
180 210 255
180 210 255
180 210 255
180 210 255
180 210 255
180 210 255
180 210 255
181 211 255
181 211 255
181 211 255
181 211 255
181 211 255
181 211 255
181 211 255
181 211 255
181 211 255
181 211 255
181 211 255
181 211 255
181 211 255
181 211 255
181 211 255
181 211 255
181 211 255
181 211 255
181 211 255
181 211 255
181 211 255
181 211 255
181 211 255
181 211 255
181 211 255
181 211 255
181 211 255
181 211 255
181 211 255
181 211 255
181 211 255
181 211 255
181 211 255
181 211 255
181 211 255
181 211 255
181 211 255
181 211 255
181 211 255
181 211 255
181 211 255
181 211 255
181 211 255
181 211 255
181 211 255
181 211 255
181 211 255
181 211 255
181 211 255
181 211 255
181 211 255
181 211 255
181 211 255
181 211 255
181 211 255
181 211 255
181 211 255
181 211 255
181 211 255
181 211 255
181 211 255
181 211 255
181 211 255
181 211 255
181 211 255
181 211 255
181 211 255
181 211 255
181 211 255
181 211 255
181 211 255
181 211 255
181 211 255
181 211 255
181 211 255
181 211 255
181 211 255
181 211 255
181 211 255
181 211 255
181 211 255
181 211 255
181 211 255
181 211 255
181 211 255
181 211 255
181 211 255
181 211 255
181 211 255
181 211 255
181 211 255
181 211 255
181 211 255
181 211 255
181 211 255
181 211 255
140 165 202
69 83 104
49 60 76
36 45 58
68 85 104
169 200 239
180 211 253
175 209 253
176 208 255
174 207 255
171 205 255
169 204 255
166 202 255
166 202 255
162 199 255
162 199 255
157 197 255
157 196 255
155 195 255
153 194 255
152 193 255
149 192 255
148 191 255
146 190 255
146 190 255
145 189 255
143 188 255
143 188 255
141 187 255
141 187 255
139 186 255
140 186 255
139 185 255
138 185 255
137 184 255
137 184 255
136 184 255
136 184 255
136 184 255
135 183 255
135 183 255
135 183 255
135 183 255
136 184 255
136 184 255
136 184 255
137 184 255
136 184 255
138 185 255
138 185 255
139 185 255
139 186 255
140 186 255
141 187 255
142 187 255
144 188 255
144 189 255
147 190 255
149 191 255
150 192 255
152 193 255
153 194 255
155 195 255
159 197 255
160 198 255
163 200 255
164 201 254
165 202 253
170 205 254
170 206 251
179 209 255
175 209 251
143 198 230
131 170 206
155 182 222
180 210 255
180 210 255
179 210 255
179 210 255
179 210 255
179 210 255
179 210 255
179 210 255
179 210 255
179 210 255
179 210 255
179 210 255
179 210 255
179 210 255
179 210 255
179 210 255
179 210 255
179 210 255
179 210 255
179 210 255
179 210 255
179 210 255
179 210 255
179 210 255
179 210 255
179 210 255
179 210 255
179 210 255
179 210 255
179 210 255
179 210 255
179 210 255
179 210 255
179 210 255
179 210 255
179 210 255
179 210 255
179 210 255
179 210 255
179 210 255
179 210 255
179 210 255
179 210 255
179 210 255
171 187 202
149 124 51
145 104 0
143 103 0
145 104 0
146 104 0
146 104 0
145 104 0
143 103 0
147 104 0
149 105 0
148 105 0
148 105 0
147 104 0
146 104 0
146 104 0
149 105 0
146 104 0
147 104 0
146 104 0
146 104 0
146 104 0
150 105 0
149 105 0
149 105 0
148 105 0
148 105 0
151 106 0
149 105 0
147 104 0
148 105 0
147 104 0
148 105 0
150 105 0
148 105 0
148 105 0
147 104 0
147 104 0
145 104 0
146 104 0
146 104 0
144 103 0
145 104 0
144 103 0
145 104 0
145 104 0
145 103 0
145 104 0
148 121 43
172 190 209
179 210 255
179 210 255
179 210 255
179 210 255
179 210 255
179 210 255
179 210 255
179 210 255
179 210 255
179 210 255
179 210 255
179 210 255
179 210 255
179 210 255
179 210 255
179 210 255
179 210 255
179 210 255
179 210 255
179 210 255
179 210 255
179 210 255
179 210 255
179 210 255
179 210 255
179 210 255
179 210 255
179 210 255
179 210 255
179 210 255
179 210 255
179 210 255
179 210 255
179 210 255
179 210 255
179 210 255
179 210 255
179 210 255
179 210 255
179 210 255
179 210 255
179 210 255
179 210 255
180 210 255
162 168 201
118 78 86
126 73 79
138 82 89
140 83 91
144 86 95
142 85 95
138 85 95
137 84 95
137 84 95
134 83 95
133 83 95
132 83 95
131 82 95
130 82 95
129 82 95
128 82 95
128 82 95
127 81 95
126 81 95
125 81 95
125 81 95
124 81 95
125 81 95
124 80 95
123 80 95
123 80 95
123 80 95
123 80 95
123 80 95
123 80 95
123 80 95
123 80 95
123 80 95
123 80 95
123 80 95
123 80 95
123 80 95
123 80 95
124 80 95
124 80 95
125 81 95
125 81 95
125 81 95
125 81 95
126 81 95
126 81 95
126 81 95
127 81 95
127 81 95
128 81 95
129 82 95
129 82 95
129 82 95
130 82 95
132 83 95
132 83 95
133 83 95
134 83 95
135 84 95
134 83 95
137 84 95
136 84 95
137 84 95
139 85 95
140 85 95
142 85 95
143 86 95
146 87 95
144 86 94
138 81 87
132 77 84
124 72 77
117 68 72
146 141 166
181 211 255
181 211 255
181 211 255
181 211 255
181 211 255
181 211 255
181 211 255
181 211 255
181 211 255
181 211 255
181 211 255
181 211 255
181 211 255
181 211 255
181 211 255
181 211 255
181 211 255
181 211 255
181 211 255
181 211 255
181 211 255
181 211 255
181 211 255
181 211 255
181 211 255
181 211 255
181 211 255
181 211 255
181 211 255
181 211 255
181 211 255
181 211 255
181 211 255
181 211 255
181 211 255
181 211 255
181 211 255
181 211 255
181 211 255
181 211 255
181 211 255
181 211 255
181 211 255
181 211 255
181 211 255
181 211 255
181 211 255
181 211 255
181 211 255
181 211 255
181 211 255
181 211 255
181 211 255
181 211 255
181 211 255
181 211 255
181 211 255
181 211 255
181 211 255
181 211 255
181 211 255
181 211 255
181 211 255
181 211 255
181 211 255
181 211 255
181 211 255
181 211 255
181 211 255
181 211 255
181 211 255
181 211 255
181 211 255
181 211 255
181 211 255
181 211 255
181 211 255
181 211 255
181 211 255
181 211 255
181 211 255
181 211 255
181 211 255
181 211 255
181 211 255
181 211 255
181 211 255
181 211 255
181 211 255
181 211 255
181 211 255
181 211 255
181 211 255
181 211 255
181 211 255
181 211 255
181 211 255
181 211 255
181 211 255
181 211 255
181 211 255
181 211 255
181 211 255
181 211 255
181 211 255
181 211 255
181 211 255
181 211 255
181 211 255
181 211 255
177 206 250
103 122 151
52 62 79
48 60 76
45 57 73
119 142 170
187 215 254
178 210 253
178 209 255
176 208 254
170 205 253
170 205 255
167 203 254
167 202 255
164 200 255
161 199 255
158 197 255
157 196 255
155 195 255
153 194 255
151 193 255
150 192 255
148 191 255
147 191 255
145 189 255
144 188 255
144 189 255
142 187 255
141 187 255
141 187 255
139 186 255
139 186 255
137 185 255
137 184 255
136 184 255
135 183 255
135 183 255
135 183 255
134 183 255
134 183 255
134 182 255
133 182 255
134 182 255
133 182 255
134 182 255
133 182 255
134 182 255
134 182 255
134 183 255
135 183 255
135 183 255
136 184 255
136 184 255
137 184 255
138 185 255
139 186 255
139 186 255
140 186 255
142 187 255
143 188 255
144 189 255
147 190 255
149 192 255
150 192 255
151 193 255
155 195 255
156 196 255
159 197 255
161 199 255
164 201 255
167 203 255
170 205 255
171 206 253
174 208 253
181 211 255
174 210 249
131 181 213
156 188 228
180 210 255
180 210 255
180 210 255
180 210 255
180 210 255
180 210 255
180 210 255
180 210 255
180 210 255
180 210 255
180 210 255
180 210 255
180 210 255
180 210 255
180 210 255
180 210 255
180 210 255
180 210 255
180 210 255
180 210 255
180 210 255
180 210 255
180 210 255
180 210 255
179 210 255
179 210 255
179 210 255
179 210 255
179 210 255
179 210 255
179 210 255
179 210 255
179 210 255
179 210 255
179 210 255
179 210 255
179 210 255
179 210 255
179 210 255
179 210 255
179 210 255
178 204 240
157 145 102
142 103 0
145 104 0
146 104 0
146 104 0
146 104 0
146 104 0
146 104 0
146 104 0
147 104 0
147 104 0
148 105 0
150 105 0
147 104 0
147 104 0
148 105 0
148 105 0
149 105 0
149 105 0
150 105 0
150 105 0
151 106 0
149 105 0
149 105 0
150 105 0
146 104 0
149 105 0
150 105 0
149 105 0
150 105 0
147 104 0
152 106 0
149 105 0
151 106 0
151 105 0
149 105 0
150 105 0
149 105 0
147 104 0
145 104 0
150 105 0
150 105 0
148 105 0
144 103 0
147 104 0
148 105 0
144 103 0
144 103 0
144 103 0
143 103 0
144 104 2
157 142 92
178 208 250
179 210 255
179 210 255
179 210 255
179 210 255
179 210 255
179 210 255
179 210 255
179 210 255
179 210 255
179 210 255
179 210 255
179 210 255
179 210 255
179 210 255
179 210 255
179 210 255
179 210 255
180 210 255
180 210 255
180 210 255
180 210 255
180 210 255
180 210 255
180 210 255
180 210 255
180 210 255
180 210 255
180 210 255
180 210 255
180 210 255
180 210 255
180 210 255
180 210 255
180 210 255
180 210 255
180 210 255
180 210 255
180 210 255
180 210 255
180 210 255
180 210 255
138 140 166
105 64 69
126 73 79
141 84 91
144 86 94
142 86 95
142 85 95
139 85 95
138 85 95
135 84 95
135 83 95
133 83 95
132 83 95
131 82 95
129 82 95
129 82 95
128 82 95
127 81 95
127 81 95
126 81 95
125 81 95
125 81 95
124 80 95
124 81 95
124 80 95
124 80 95
123 80 95
123 80 95
123 80 95
123 80 95
123 80 95
122 80 95
123 80 95
123 80 95
123 80 95
123 80 95
123 80 95
123 80 95
123 80 95
123 80 95
124 81 95
124 81 95
124 81 95
124 80 95
125 81 95
125 81 95
126 81 95
126 81 95
126 81 95
126 81 95
127 81 95
128 82 95
129 82 95
129 82 95
129 82 95
130 82 95
131 82 95
131 83 95
131 82 95
132 83 95
133 83 95
135 83 95
134 83 95
135 84 95
136 84 95
138 84 95
139 85 95
140 85 95
142 85 95
144 86 95
144 86 95
147 87 95
146 85 92
139 81 87
123 72 77
108 62 65
111 94 108
177 204 247
181 211 255
181 211 255
181 211 255
181 211 255
181 211 255
181 211 255
181 211 255
181 211 255
181 211 255
181 211 255
181 211 255
181 211 255
181 211 255
181 211 255
181 211 255
181 211 255
181 211 255
181 211 255
181 211 255
181 211 255
181 211 255
181 211 255
181 211 255
181 211 255
181 211 255
181 211 255
181 211 255
181 211 255
181 211 255
181 211 255
181 211 255
181 211 255
181 211 255
181 211 255
181 211 255
181 211 255
181 211 255
181 211 255
181 211 255
181 211 255
181 211 255
181 211 255
181 211 255
181 211 255
181 211 255
181 211 255
181 211 255
181 211 255
181 211 255
181 211 255
181 211 255
181 211 255
181 211 255
181 211 255
182 211 255
182 211 255
182 211 255
182 211 255
182 211 255
182 211 255
182 211 255
182 211 255
182 211 255
182 211 255
182 211 255
182 211 255
182 211 255
182 211 255
182 211 255
182 211 255
182 211 255
182 211 255
181 211 255
181 211 255
181 211 255
181 211 255
181 211 255
181 211 255
181 211 255
181 211 255
181 211 255
181 211 255
181 211 255
181 211 255
181 211 255
181 211 255
181 211 255
181 211 255
181 211 255
181 211 255
181 211 255
181 211 255
181 211 255
181 211 255
181 211 255
181 211 255
181 211 255
181 211 255
181 211 255
181 211 255
181 211 255
181 211 255
181 211 255
181 211 255
181 211 255
181 211 255
181 211 255
162 189 230
99 118 145
43 52 66
42 51 66
58 70 86
157 185 217
183 213 253
180 210 255
176 209 254
175 207 255
171 205 255
171 205 255
168 203 255
165 201 255
162 199 255
160 198 255
157 197 255
156 196 255
154 195 255
152 193 255
151 193 255
149 191 255
148 191 255
146 190 255
145 189 255
143 188 255
142 187 255
142 187 255
139 186 255
139 186 255
138 185 255
137 184 255
137 184 255
136 184 255
135 183 255
134 183 255
134 183 255
133 182 255
133 182 255
133 182 255
132 181 255
132 181 255
132 181 255
132 181 255
132 181 255
131 181 255
131 181 255
132 181 255
132 182 255
132 182 255
132 182 255
133 182 255
133 182 255
134 183 255
135 183 255
135 183 255
136 184 255
137 184 255
138 185 255
140 186 255
141 187 255
141 187 255
143 188 255
145 189 255
146 190 255
149 191 255
151 193 255
152 194 255
155 195 255
157 197 255
161 199 255
163 200 255
165 201 255
168 204 254
171 205 255
171 206 253
178 209 255
179 211 252
135 180 213
138 173 209
180 210 255
180 210 255
180 210 255
180 210 255
180 210 255
180 210 255
180 210 255
180 210 255
180 210 255
180 210 255
180 210 255
180 210 255
180 210 255
180 210 255
180 210 255
180 210 255
180 210 255
180 210 255
180 210 255
180 210 255
180 210 255
180 210 255
180 210 255
180 210 255
180 210 255
180 210 255
180 210 255
180 210 255
180 210 255
180 210 255
180 210 255
180 210 255
180 210 255
180 210 255
180 210 255
180 210 255
180 210 255
180 210 255
180 210 255
170 181 186
152 118 33
143 103 0
146 104 0
145 104 0
149 105 0
148 105 0
147 104 0
149 105 0
151 106 0
147 104 0
150 105 0
149 105 0
147 104 0
151 106 0
149 105 0
149 105 0
150 105 0
151 106 0
155 107 0
149 105 0
150 105 0
150 105 0
147 104 0
154 107 0
154 107 0
150 105 0
153 106 0
152 106 0
149 105 0
152 106 0
149 105 0
150 105 0
150 105 0
151 105 0
150 105 0
151 106 0
148 105 0
149 105 0
150 105 0
155 107 0
148 105 0
149 105 0
151 106 0
153 106 0
147 104 0
149 105 0
149 105 0
147 104 0
149 105 0
150 105 0
146 104 0
144 103 0
145 104 0
150 119 35
171 185 197
180 210 255
180 210 255
180 210 255
180 210 255
180 210 255
180 210 255
180 210 255
180 210 255
180 210 255
180 210 255
180 210 255
180 210 255
180 210 255
180 210 255
180 210 255
180 210 255
180 210 255
180 210 255
180 210 255
180 210 255
180 210 255
180 210 255
180 210 255
180 210 255
180 210 255
180 210 255
180 210 255
180 210 255
180 210 255
180 210 255
180 210 255
180 210 255
180 210 255
180 210 255
180 210 255
180 210 255
180 210 255
180 210 255
176 204 247
138 117 136
124 72 77
145 85 91
145 86 94
146 87 95
142 86 95
141 85 95
138 85 95
138 84 95
136 84 95
134 83 95
134 83 95
132 83 95
131 82 95
129 82 95
129 82 95
128 81 95
127 81 95
126 81 95
126 81 95
125 81 95
125 81 95
125 81 95
124 81 95
124 80 95
124 80 95
123 80 95
123 80 95
123 80 95
123 80 95
123 80 95
123 80 95
123 80 95
123 80 95
123 80 95
123 80 95
123 80 95
123 80 95
123 80 95
123 80 95
124 80 95
124 80 95
124 80 95
125 81 95
125 81 95
125 81 95
125 81 95
125 81 95
126 81 95
127 81 95
127 81 95
128 82 95
128 82 95
128 82 95
130 82 95
130 82 95
130 82 95
131 82 95
130 82 95
132 83 95
131 83 95
133 83 95
133 83 95
133 83 95
134 83 95
136 84 95
137 84 95
137 84 95
138 84 95
141 85 95
143 86 95
142 86 95
145 86 95
145 86 95
148 87 94
135 79 85
137 79 84
121 69 73
114 78 86
172 192 231
181 211 255
181 211 255
181 211 255
181 211 255
181 211 255
181 211 255
181 211 255
181 211 255
181 211 255
181 211 255
181 211 255
181 211 255
181 211 255
181 211 255
181 211 255
181 211 255
181 211 255
181 211 255
181 211 255
181 211 255
181 211 255
181 211 255
181 211 255
181 211 255
181 211 255
181 211 255
181 211 255
181 211 255
181 211 255
181 211 255
181 211 255
181 211 255
181 211 255
181 211 255
182 211 255
182 211 255
182 211 255
182 211 255
182 211 255
182 211 255
182 211 255
182 211 255
182 211 255
182 211 255
182 211 255
182 211 255
182 211 255
182 211 255
182 211 255
182 211 255
182 211 255
182 211 255
182 211 255
182 211 255
182 211 255
182 211 255
182 211 255
182 211 255
182 211 255
182 211 255
182 211 255
182 211 255
182 211 255
182 211 255
182 211 255
182 211 255
182 211 255
182 211 255
182 211 255
182 211 255
182 211 255
182 211 255
182 211 255
182 211 255
182 211 255
182 211 255
182 211 255
182 211 255
182 211 255
182 211 255
182 211 255
182 211 255
182 211 255
182 211 255
182 211 255
182 211 255
182 211 255
182 211 255
182 211 255
182 211 255
182 211 255
182 211 255
182 211 255
182 211 255
182 211 255
182 211 255
182 211 255
182 211 255
181 211 255
181 211 255
181 211 255
181 211 255
181 211 255
181 211 255
181 211 255
157 183 222
89 107 133
43 52 66
35 43 56
74 88 106
180 206 245
183 212 255
179 210 255
176 208 255
174 207 255
170 205 254
169 204 255
166 202 255
164 200 255
161 199 255
159 198 255
158 197 255
155 195 255
154 195 255
152 193 255
150 192 255
148 191 255
147 190 255
146 190 255
144 189 255
143 188 255
142 187 255
140 186 255
140 186 255
139 185 255
138 185 255
137 184 255
136 184 255
135 183 255
134 183 255
133 182 255
133 182 255
132 181 255
132 181 255
131 181 255
131 181 255
131 181 255
131 181 255
130 180 255
130 180 255
130 180 255
130 180 255
130 180 255
131 181 255
130 180 255
131 181 255
131 181 255
132 181 255
132 181 255
132 182 255
133 182 255
134 182 255
134 182 255
136 184 255
136 184 255
137 184 255
138 185 255
139 186 255
140 186 255
142 188 255
145 189 255
145 189 255
148 191 255
149 192 255
151 193 255
154 194 255
156 196 255
159 198 255
162 199 255
164 201 255
167 203 255
167 204 253
173 207 254
175 209 253
182 211 255
147 196 229
131 171 205
180 210 255
180 210 255
180 210 255
180 210 255
180 210 255
180 210 255
180 210 255
180 210 255
180 210 255
180 210 255
180 210 255
180 210 255
180 210 255
180 210 255
180 210 255
180 210 255
180 210 255
180 210 255
180 210 255
180 210 255
180 210 255
180 210 255
180 210 255
180 210 255
180 210 255
180 210 255
180 210 255
180 210 255
180 210 255
180 210 255
180 210 255
180 210 255
180 210 255
180 210 255
180 210 255
180 210 255
180 209 253
165 165 148
147 106 5
145 104 0
145 104 0
148 105 0
148 105 0
150 105 0
149 105 0
150 105 0
151 106 0
150 105 0
148 105 0
149 105 0
151 106 0
148 105 0
152 106 0
152 106 0
150 105 0
149 105 0
154 107 0
152 106 0
151 106 0
153 106 0
153 106 0
150 105 0
154 107 0
151 106 0
152 106 0
149 105 0
153 106 0
153 106 0
150 105 0
152 106 0
152 106 0
150 105 0
153 106 0
151 106 0
152 106 0
153 106 0
150 105 0
151 106 0
152 106 0
150 105 0
151 106 0
148 105 0
148 105 0
152 106 0
150 105 0
153 106 0
153 106 0
149 105 0
150 105 0
147 104 0
150 105 0
148 104 0
144 103 0
146 106 5
165 161 138
180 210 255
180 210 255
180 210 255
180 210 255
180 210 255
180 210 255
180 210 255
180 210 255
180 210 255
180 210 255
180 210 255
180 210 255
180 210 255
180 210 255
180 210 255
180 210 255
180 210 255
180 210 255
180 210 255
180 210 255
180 210 255
180 210 255
180 210 255
180 210 255
180 210 255
180 210 255
180 210 255
180 210 255
180 210 255
180 210 255
180 210 255
180 210 255
180 210 255
180 210 255
180 210 255
180 210 255
174 197 238
114 83 94
128 74 80
137 80 86
148 87 95
144 86 95
143 86 95
140 85 95
139 85 95
137 84 95
135 84 95
135 84 95
134 83 95
132 83 95
131 83 95
129 82 95
129 82 95
128 82 95
127 81 95
127 81 95
126 81 95
126 81 95
125 81 95
125 81 95
124 81 95
124 81 95
123 80 95
124 80 95
124 80 95
123 80 95
123 80 95
123 80 95
122 80 95
123 80 95
123 80 95
123 80 95
123 80 95
123 80 95
123 80 95
124 80 95
123 80 95
124 80 95
124 80 95
124 81 95
124 81 95
125 81 95
125 81 95
126 81 95
126 81 95
126 81 95
127 81 95
127 81 95
127 81 95
127 81 95
128 81 95
127 81 95
129 82 95
129 82 95
130 82 95
130 82 95
132 83 95
131 83 95
132 83 95
133 83 95
132 83 95
133 83 95
134 83 95
136 84 95
136 84 95
137 84 95
139 85 95
139 85 95
140 85 95
142 86 95
143 86 95
143 86 95
144 86 95
145 86 93
145 85 91
136 78 84
119 69 73
112 71 77
148 158 190
181 211 255
181 211 255
181 211 255
181 211 255
181 211 255
181 211 255
181 211 255
181 211 255
182 211 255
182 211 255
182 211 255
182 211 255
182 211 255
182 211 255
182 211 255
182 211 255
182 211 255
182 211 255
182 211 255
182 211 255
182 211 255
182 211 255
182 211 255
182 211 255
182 211 255
182 211 255
182 211 255
182 211 255
182 211 255
182 211 255
182 211 255
182 211 255
182 211 255
182 211 255
182 211 255
182 211 255
182 211 255
182 211 255
182 211 255
182 211 255
182 211 255
182 211 255
182 211 255
182 211 255
182 211 255
182 211 255
182 211 255
182 211 255
182 211 255
182 211 255
182 211 255
182 211 255
182 212 255
182 211 255
182 211 255
182 211 255
182 211 255
182 211 255
182 211 255
182 211 255
182 211 255
182 211 255
182 211 255
182 211 255
182 211 255
182 211 255
182 211 255
182 211 255
182 211 255
182 211 255
182 211 255
182 211 255
182 211 255
182 211 255
182 211 255
182 211 255
182 211 255
182 211 255
182 211 255
182 211 255
182 211 255
182 211 255
182 211 255
182 211 255
182 211 255
182 211 255
182 211 255
182 211 255
182 211 255
182 211 255
182 211 255
182 211 255
182 211 255
182 211 255
182 211 255
182 211 255
182 211 255
182 211 255
182 211 255
182 211 255
182 211 255
182 211 255
182 211 255
148 173 209
78 94 117
43 52 66
38 47 61
86 100 118
181 211 250
179 211 253
178 209 254
175 208 255
172 206 255
171 205 255
169 203 255
166 202 255
163 200 255
161 199 255
159 197 255
157 197 255
154 195 255
153 194 255
151 193 255
149 192 255
148 191 255
147 190 255
145 189 255
144 188 255
142 188 255
141 187 255
140 186 255
139 186 255
138 185 255
137 184 255
136 184 255
135 183 255
134 183 255
134 182 255
133 182 255
132 182 255
132 181 255
131 181 255
131 181 255
131 181 255
130 180 255
130 180 255
130 180 255
129 180 255
129 180 255
129 180 255
129 180 255
129 180 255
129 180 255
129 180 255
130 180 255
130 180 255
130 180 255
131 181 255
131 181 255
131 181 255
132 181 255
133 182 255
133 182 255
134 183 255
135 183 255
137 184 255
138 185 255
139 186 255
140 186 255
141 187 255
143 188 255
145 189 255
147 190 255
148 191 255
151 193 255
153 194 255
156 196 255
157 197 255
161 199 255
165 201 255
167 203 255
170 204 255
173 207 255
174 208 253
180 210 255
162 206 242
134 183 216
169 198 240
181 211 255
181 211 255
181 211 255
181 211 255
181 211 255
181 211 255
181 211 255
181 211 255
181 211 255
181 211 255
180 210 255
180 210 255
180 210 255
180 210 255
180 210 255
180 210 255
180 210 255
180 210 255
180 210 255
180 210 255
180 210 255
180 210 255
180 210 255
180 210 255
180 210 255
180 210 255
180 210 255
180 210 255
180 210 255
180 210 255
180 210 255
180 210 255
180 210 255
180 208 250
157 136 76
147 104 0
148 105 0
147 104 0
150 105 0
148 105 0
148 105 0
150 105 0
152 106 0
151 106 0
149 105 0
151 106 0
151 106 0
150 105 0
150 105 0
152 106 0
149 105 0
154 106 0
150 105 0
154 107 0
153 106 0
150 105 0
155 107 0
151 106 0
149 105 0
151 106 0
152 106 0
154 106 0
151 106 0
151 106 0
152 106 0
153 106 0
150 105 0
151 106 0
154 107 0
154 107 0
152 106 0
153 106 0
153 106 0
152 106 0
153 106 0
153 106 0
151 106 0
150 105 0
152 106 0
151 106 0
150 105 0
150 105 0
152 106 0
151 106 0
150 105 0
148 105 0
151 106 0
148 105 0
148 105 0
146 104 0
148 105 0
148 105 0
147 104 0
154 133 71
178 203 238
180 210 255
180 210 255
180 210 255
180 210 255
180 210 255
180 210 255
180 210 255
180 210 255
180 210 255
180 210 255
180 210 255
180 210 255
180 210 255
180 210 255
180 210 255
180 210 255
180 210 255
180 210 255
180 210 255
180 210 255
180 210 255
180 210 255
180 210 255
181 210 255
181 211 255
181 211 255
181 211 255
181 211 255
181 211 255
181 211 255
181 211 255
181 211 255
181 211 255
173 197 239
115 71 77
117 68 73
140 82 88
148 87 95
146 87 95
143 86 95
140 85 95
140 85 95
138 84 95
136 84 95
135 84 95
134 83 95
133 83 95
132 83 95
131 82 95
129 82 95
128 82 95
128 82 95
127 81 95
127 81 95
126 81 95
126 81 95
125 81 95
125 81 95
125 81 95
125 81 95
124 80 95
124 80 95
124 80 95
124 80 95
123 80 95
123 80 95
123 80 95
123 80 95
123 80 95
123 80 95
124 80 95
124 80 95
124 80 95
124 80 95
124 81 95
124 81 95
125 81 95
125 81 95
125 81 95
125 81 95
126 81 95
125 81 95
126 81 95
126 81 95
127 81 95
127 81 95
128 81 95
128 82 95
128 82 95
129 82 95
129 82 95
129 82 95
130 82 95
130 82 95
132 83 95
132 83 95
132 83 95
133 83 95
133 83 95
133 83 95
134 83 95
135 84 95
135 84 95
136 84 95
138 84 95
138 84 95
140 85 95
140 85 95
140 85 95
144 86 95
144 86 95
148 87 95
149 88 95
143 83 89
135 78 84
124 71 76
118 67 71
153 160 191
182 211 255
182 211 255
182 211 255
182 211 255
182 211 255
182 211 255
182 211 255
182 211 255
182 211 255
182 211 255
182 211 255
182 211 255
182 211 255
182 211 255
182 211 255
182 211 255
182 211 255
182 211 255
182 211 255
182 211 255
182 211 255
182 211 255
182 211 255
182 211 255
182 211 255
182 211 255
182 211 255
182 211 255
182 211 255
182 211 255
182 211 255
182 211 255
182 211 255
182 211 255
182 211 255
182 211 255
182 211 255
182 211 255
182 211 255
182 211 255
182 211 255
182 211 255
182 211 255
182 211 255
182 211 255
182 211 255
182 211 255
182 211 255
182 211 255
182 211 255
182 211 255
182 212 255
182 212 255
182 212 255
182 212 255
182 212 255
182 212 255
182 212 255
182 212 255
182 212 255
182 212 255
182 212 255
182 212 255
182 212 255
182 212 255
182 212 255
182 212 255
182 212 255
182 212 255
182 212 255
182 212 255
182 212 255
182 212 255
182 212 255
182 212 255
182 212 255
182 212 255
182 212 255
182 212 255
182 212 255
182 212 255
182 212 255
182 211 255
182 211 255
182 211 255
182 211 255
182 211 255
182 211 255
182 211 255
182 211 255
182 211 255
182 211 255
182 211 255
182 211 255
182 211 255
182 211 255
182 211 255
182 211 255
182 211 255
182 211 255
182 211 255
151 176 215
67 80 99
40 48 61
29 36 46
101 118 140
183 213 253
182 212 255
176 209 253
171 207 251
172 206 254
169 204 255
167 202 255
165 201 255
163 200 255
160 198 255
159 197 255
157 196 255
155 195 255
153 194 255
151 193 255
150 192 255
149 191 255
147 190 255
145 189 255
144 189 255
142 188 255
141 187 255
140 186 255
139 186 255
138 185 255
137 184 255
136 184 255
135 183 255
134 183 255
134 182 255
133 182 255
133 182 255
132 181 255
132 181 255
134 182 255
133 181 252
133 183 254
138 186 254
139 186 253
139 186 255
139 187 253
140 187 253
140 187 254
138 186 254
138 186 254
137 185 254
137 186 253
136 184 255
133 183 254
132 182 255
129 179 253
130 180 255
131 181 255
131 181 255
132 181 255
133 182 255
133 182 255
134 183 255
135 183 255
136 184 255
137 184 255
138 185 255
140 186 255
142 187 255
143 188 255
144 189 255
146 190 255
148 191 255
150 192 255
154 194 255
155 195 255
158 197 255
161 199 255
163 200 255
167 202 255
167 203 253
172 206 254
173 207 253
177 209 254
182 213 253
135 182 215
171 200 243
181 211 255
181 211 255
181 211 255
181 211 255
181 211 255
181 211 255
181 211 255
181 211 255
181 211 255
181 211 255
181 211 255
181 211 255
181 211 255
181 211 255
181 211 255
181 211 255
181 211 255
181 211 255
181 211 255
181 211 255
181 211 255
181 211 255
181 211 255
181 211 255
181 211 255
181 211 255
181 211 255
181 211 255
181 211 255
181 211 255
181 211 255
178 202 235
151 126 56
148 105 0
147 104 0
149 105 0
148 105 0
151 106 0
151 106 0
150 105 0
152 106 0
154 107 0
151 106 0
153 106 0
157 108 0
153 106 0
152 106 0
151 106 0
154 107 0
154 107 0
151 105 0
154 107 0
154 107 0
152 106 0
152 106 0
154 107 0
152 106 0
152 106 0
155 107 0
154 107 0
156 107 0
154 107 0
154 107 0
155 107 0
153 106 0
157 108 0
154 107 0
155 107 0
155 107 0
156 107 0
156 107 0
154 107 0
153 106 0
152 106 0
156 107 0
152 106 0
152 106 0
152 106 0
155 107 0
151 106 0
149 105 0
151 106 0
151 106 0
151 106 0
154 106 0
150 105 0
150 105 0
151 106 0
150 105 0
150 105 0
151 106 0
149 105 0
149 105 0
152 118 35
178 203 238
181 211 255
181 211 255
181 211 255
181 211 255
181 211 255
181 211 255
181 211 255
181 211 255
181 211 255
181 211 255
181 211 255
181 211 255
181 211 255
181 211 255
181 211 255
181 211 255
181 211 255
181 211 255
181 211 255
181 211 255
181 211 255
181 211 255
181 211 255
181 211 255
181 211 255
181 211 255
181 211 255
181 211 255
181 211 255
181 211 255
181 211 255
161 179 215
128 79 86
128 74 80
149 87 93
147 86 94
145 86 95
143 86 95
141 85 95
140 85 95
138 84 95
136 84 95
135 84 95
134 83 95
133 83 95
132 83 95
131 82 95
130 82 95
129 82 95
129 82 95
127 81 95
127 81 95
127 81 95
126 81 95
125 81 95
125 81 95
125 81 95
125 81 95
125 81 95
125 81 95
124 80 95
124 80 95
124 80 95
124 80 95
124 80 95
124 81 95
124 81 95
124 81 95
124 80 95
124 80 95
124 81 95
125 81 95
125 81 95
125 81 95
125 81 95
126 81 95
126 81 95
126 81 95
126 81 95
126 81 95
126 81 95
127 81 95
127 81 95
128 82 95
128 81 95
128 82 95
129 82 95
128 82 95
130 82 95
130 82 95
130 82 95
130 82 95
131 82 95
131 82 95
132 83 95
132 83 95
133 83 95
133 83 95
133 83 95
135 83 95
136 84 95
134 83 95
136 84 95
138 84 95
138 84 95
138 84 95
140 85 95
142 86 95
143 86 95
143 86 95
146 87 95
148 87 95
147 87 94
147 85 92
138 80 86
120 68 72
110 62 65
140 143 170
182 211 255
182 211 255
182 211 255
182 211 255
182 211 255
182 211 255
182 211 255
182 211 255
182 211 255
182 211 255
182 211 255
182 211 255
182 211 255
182 211 255
182 211 255
182 211 255
182 211 255
182 211 255
182 211 255
182 212 255
182 212 255
182 212 255
182 212 255
182 212 255
182 212 255
182 212 255
182 212 255
182 212 255
182 212 255
182 212 255
182 212 255
182 212 255
182 212 255
182 212 255
182 212 255
182 212 255
182 212 255
182 212 255
182 212 255
182 212 255
182 212 255
182 212 255
182 212 255
182 212 255
182 212 255
182 212 255
182 212 255
182 212 255
182 212 255
182 212 255
183 212 255
183 212 255
183 212 255
183 212 255
183 212 255
183 212 255
183 212 255
183 212 255
183 212 255
183 212 255
183 212 255
183 212 255
183 212 255
183 212 255
183 212 255
183 212 255
183 212 255
183 212 255
183 212 255
183 212 255
183 212 255
182 212 255
182 212 255
183 212 255
182 212 255
182 212 255
182 212 255
182 212 255
182 212 255
182 212 255
182 212 255
182 212 255
182 212 255
182 212 255
182 212 255
182 212 255
182 212 255
182 212 255
182 212 255
182 212 255
182 212 255
182 212 255
182 212 255
182 212 255
182 212 255
182 212 255
182 212 255
182 212 255
182 212 255
146 170 207
66 80 99
53 64 81
33 40 51
134 154 184
184 213 255
182 212 255
175 208 253
173 207 253
173 206 255
170 204 255
169 203 255
166 202 255
163 200 255
161 199 255
158 197 255
157 196 255
155 195 255
153 194 255
151 193 255
150 192 255
148 191 255
147 190 255
145 189 255
144 188 255
143 188 255
141 187 255
140 186 255
139 186 255
138 185 255
137 184 255
136 184 255
135 183 255
134 183 255
134 182 255
134 183 255
136 184 255
142 187 255
142 188 255
145 190 253
142 188 254
142 189 252
143 189 253
142 188 254
147 192 253
142 189 253
149 192 255
144 190 252
147 191 254
142 188 251
140 188 251
142 189 253
145 189 255
142 189 252
143 190 252
140 187 254
143 188 254
139 186 254
136 185 254
136 185 254
131 181 255
131 181 255
132 182 255
133 182 255
134 183 255
135 183 255
136 184 255
137 185 255
138 185 255
139 186 255
141 187 255
142 188 255
145 189 255
146 190 255
148 191 255
151 193 255
153 194 255
154 195 255
158 197 255
161 199 255
164 201 255
167 202 255
168 203 254
173 206 255
176 208 255
180 210 255
176 210 251
134 184 215
177 206 250
181 211 255
181 211 255
181 211 255
181 211 255
181 211 255
181 211 255
181 211 255
181 211 255
181 211 255
181 211 255
181 211 255
181 211 255
181 211 255
181 211 255
181 211 255
181 211 255
181 211 255
181 211 255
181 211 255
181 211 255
181 211 255
181 211 255
181 211 255
181 211 255
181 211 255
181 211 255
181 211 255
181 211 255
181 211 255
175 194 215
151 117 30
149 105 0
150 105 0
151 106 0
151 105 0
151 106 0
154 107 0
153 106 0
150 105 0
155 107 0
152 106 0
152 106 0
153 106 0
152 106 0
153 106 0
153 106 0
152 106 0
157 108 0
155 107 0
155 107 0
155 107 0
155 107 0
157 107 0
156 107 0
156 107 0
154 107 0
157 108 0
155 107 0
153 106 0
155 107 0
156 107 0
155 107 0
154 107 0
158 108 0
154 107 0
156 107 0
155 107 0
155 107 0
157 108 0
154 107 0
154 107 0
156 107 0
153 106 0
157 108 0
153 106 0
153 106 0
152 106 0
152 106 0
153 106 0
152 106 0
155 107 0
152 106 0
153 106 0
151 106 0
149 105 0
156 107 0
152 106 0
152 106 0
152 106 0
150 105 0
153 104 0
147 104 0
148 102 0
151 117 38
175 195 220
181 211 255
181 211 255
181 211 255
181 211 255
181 211 255
181 211 255
181 211 255
181 211 255
181 211 255
181 211 255
181 211 255
181 211 255
181 211 255
181 211 255
181 211 255
181 211 255
181 211 255
181 211 255
181 211 255
181 211 255
181 211 255
181 211 255
181 211 255
181 211 255
181 211 255
181 211 255
181 211 255
181 211 255
181 211 255
166 185 222
115 73 79
121 70 74
148 86 92
149 87 95
146 87 95
143 86 95
143 86 95
140 85 95
139 85 95
137 84 95
136 84 95
135 83 95
134 83 95
132 83 95
131 83 95
131 82 95
130 82 95
129 82 95
129 82 95
128 82 95
127 81 95
127 81 95
126 81 95
126 81 95
126 81 95
126 81 95
126 81 95
125 81 95
124 81 95
126 81 95
124 81 95
124 81 95
124 81 95
124 81 95
124 81 95
125 81 95
125 81 95
125 81 95
125 81 95
125 81 95
125 81 95
125 81 95
125 81 95
126 81 95
126 81 95
126 81 95
126 81 95
127 81 95
127 81 95
127 81 95
128 81 95
128 82 95
129 82 95
128 82 95
129 82 95
129 82 95
130 82 95
131 82 95
130 82 95
131 82 95
131 82 95
131 83 95
131 83 95
133 83 95
133 83 95
133 83 95
134 83 95
135 83 95
135 84 95
135 83 95
136 84 95
137 84 95
138 84 95
137 84 95
140 85 95
140 85 95
139 85 95
142 86 95
142 86 95
145 86 95
146 87 95
147 87 95
150 88 95
148 86 92
143 83 88
132 75 80
103 59 62
151 146 172
182 212 255
182 212 255
182 212 255
182 212 255
182 212 255
182 212 255
182 212 255
182 212 255
182 212 255
182 212 255
182 212 255
182 212 255
182 212 255
182 212 255
182 212 255
182 212 255
182 212 255
182 212 255
182 212 255
182 212 255
182 212 255
182 212 255
182 212 255
182 212 255
182 212 255
182 212 255
183 212 255
183 212 255
183 212 255
183 212 255
183 212 255
183 212 255
183 212 255
183 212 255
183 212 255
183 212 255
183 212 255
183 212 255
183 212 255
183 212 255
183 212 255
183 212 255
183 212 255
183 212 255
183 212 255
183 212 255
183 212 255
183 212 255
183 212 255
183 212 255
183 212 255
183 212 255
183 212 255
183 212 255
183 212 255
183 212 255
183 212 255
183 212 255
183 212 255
183 212 255
183 212 255
183 212 255
183 212 255
183 212 255
183 212 255
183 212 255
183 212 255
183 212 255
183 212 255
183 212 255
183 212 255
183 212 255
183 212 255
183 212 255
183 212 255
183 212 255
183 212 255
183 212 255
183 212 255
183 212 255
183 212 255
183 212 255
183 212 255
183 212 255
183 212 255
183 212 255
183 212 255
183 212 255
183 212 255
183 212 255
183 212 255
183 212 255
183 212 255
183 212 255
183 212 255
183 212 255
183 212 255
150 175 212
75 90 112
51 62 79
29 36 46
128 147 176
182 213 251
181 211 255
179 210 255
173 207 254
174 207 255
171 205 255
169 203 255
166 202 255
163 200 255
162 199 255
159 198 255
157 196 255
155 195 255
154 194 255
152 193 255
150 192 255
148 191 255
147 190 255
146 190 255
144 189 255
143 188 255
142 187 255
141 187 255
140 186 255
139 185 255
138 185 255
137 184 255
136 184 255
136 184 255
137 185 254
140 188 253
141 188 253
147 191 254
148 192 254
143 190 252
144 190 252
145 190 253
142 190 251
142 190 251
142 189 252
146 190 254
147 192 253
143 191 249
146 191 254
148 191 252
147 191 253
146 191 253
147 191 254
144 190 253
145 191 252
142 190 250
144 190 253
142 190 251
145 190 254
143 190 253
144 191 251
142 188 254
139 187 253
138 185 255
133 182 255
133 182 255
134 183 255
135 183 255
136 184 255
137 184 255
139 185 255
140 186 255
141 187 255
143 188 255
145 189 255
146 190 255
149 191 255
150 192 255
152 194 255
154 195 255
157 197 255
160 198 255
164 200 255
167 202 255
170 204 255
173 206 255
176 208 254
180 211 255
180 212 252
128 177 208
180 211 255
181 211 255
181 211 255
181 211 255
181 211 255
181 211 255
181 211 255
181 211 255
181 211 255
181 211 255
181 211 255
181 211 255
181 211 255
181 211 255
181 211 255
181 211 255
181 211 255
181 211 255
181 211 255
181 211 255
181 211 255
181 211 255
181 211 255
181 211 255
181 211 255
181 211 255
181 211 255
181 211 255
178 202 235
149 117 33
147 103 0
152 106 0
154 106 0
153 106 0
151 105 0
153 106 0
150 105 0
151 106 0
154 107 0
152 106 0
155 107 0
151 106 0
154 106 0
155 107 0
157 107 0
154 107 0
157 108 0
157 108 0
155 107 0
155 107 0
155 107 0
154 107 0
159 108 0
156 107 0
154 107 0
159 108 0
158 108 0
157 107 0
159 108 0
155 107 0
155 107 0
154 107 0
158 108 0
154 107 0
159 108 0
156 107 0
159 108 0
155 107 0
155 107 0
153 106 0
155 107 0
157 108 0
157 107 0
159 108 0
157 107 0
156 107 0
154 106 0
155 107 0
155 107 0
156 107 0
155 107 0
154 107 0
154 107 0
155 107 0
152 106 0
153 106 0
153 106 0
154 107 0
153 106 0
151 105 0
151 106 0
150 105 0
152 105 0
147 101 0
149 115 33
179 204 240
181 211 255
181 211 255
181 211 255
181 211 255
181 211 255
181 211 255
181 211 255
181 211 255
181 211 255
181 211 255
181 211 255
181 211 255
181 211 255
181 211 255
181 211 255
181 211 255
181 211 255
181 211 255
181 211 255
181 211 255
181 211 255
181 211 255
181 211 255
181 211 255
181 211 255
181 211 255
181 211 255
172 189 228
123 82 90
131 75 80
146 85 91
150 88 95
146 87 95
145 86 95
142 86 95
143 86 95
141 85 95
138 85 95
136 84 95
134 83 95
134 83 95
133 83 95
133 83 95
130 82 95
130 82 95
130 82 95
130 82 95
129 82 95
127 81 95
128 82 95
126 81 95
127 81 95
126 81 95
126 81 95
126 81 95
125 81 95
126 81 95
126 81 95
125 81 95
125 81 95
125 81 95
126 81 95
125 81 95
125 81 95
126 81 95
126 81 95
125 81 95
126 81 95
126 81 95
126 81 95
126 81 95
127 81 95
127 81 95
127 81 95
127 81 95
127 81 95
128 82 95
128 82 95
128 82 95
128 82 95
129 82 95
129 82 95
130 82 95
129 82 95
130 82 95
131 82 95
131 83 95
131 82 95
130 82 95
131 82 95
132 83 95
132 83 95
132 83 95
134 83 95
134 83 95
133 83 95
135 84 95
135 83 95
134 83 95
136 84 95
135 84 95
136 84 95
138 84 95
139 85 95
140 85 95
140 85 95
141 85 95
142 86 95
142 86 95
144 86 95
147 87 95
146 87 95
151 88 95
149 86 92
138 80 85
131 75 80
94 53 56
154 152 179
183 212 255
183 212 255
183 212 255
183 212 255
183 212 255
183 212 255
183 212 255
183 212 255
183 212 255
183 212 255
183 212 255
183 212 255
183 212 255
183 212 255
183 212 255
183 212 255
183 212 255
183 212 255
183 212 255
183 212 255
183 212 255
183 212 255
183 212 255
183 212 255
183 212 255
183 212 255
183 212 255
183 212 255
183 212 255
183 212 255
183 212 255
183 212 255
183 212 255
183 212 255
183 212 255
183 212 255
183 212 255
183 212 255
183 212 255
183 212 255
183 212 255
183 212 255
183 212 255
183 212 255
183 212 255
183 212 255
183 212 255
183 212 255
183 212 255
183 212 255
183 212 255
183 212 255
183 212 255
183 212 255
183 212 255
183 212 255
183 212 255
183 212 255
183 212 255
183 212 255
183 212 255
183 212 255
183 212 255
183 212 255
183 212 255
183 212 255
183 212 255
183 212 255
183 212 255
183 212 255
183 212 255
183 212 255
183 212 255
183 212 255
183 212 255
183 212 255
183 212 255
183 212 255
183 212 255
183 212 255
183 212 255
183 212 255
183 212 255
183 212 255
183 212 255
183 212 255
183 212 255
183 212 255
183 212 255
183 212 255
183 212 255
183 212 255
183 212 255
183 212 255
183 212 255
163 190 230
74 88 110
50 61 76
34 42 53
135 156 185
185 214 253
182 211 255
174 208 252
175 207 255
173 207 255
171 205 255
168 203 255
166 202 255
164 201 255
161 199 255
160 198 255
157 197 255
156 196 255
154 195 255
152 194 255
151 193 255
149 192 255
147 191 255
146 190 255
145 189 255
143 188 255
142 188 255
141 187 255
140 186 255
139 186 255
138 185 255
137 184 255
139 185 255
141 188 253
147 191 254
145 190 254
144 190 253
145 191 253
146 191 252
147 190 252
145 191 252
145 191 251
150 192 255
149 192 255
147 191 253
145 191 251
146 192 251
144 190 251
149 192 253
143 191 250
143 191 249
144 191 251
144 191 250
144 190 252
150 193 253
147 191 253
148 191 255
147 192 252
147 191 253
147 191 253
146 191 253
145 192 250
145 190 253
144 190 252
146 191 253
141 188 252
140 188 252
137 185 255
135 183 255
136 184 255
136 184 255
137 185 255
139 185 255
140 186 255
141 187 255
143 188 255
145 189 255
146 190 255
148 191 255
151 193 255
152 194 255
155 195 255
158 197 255
161 199 255
164 201 255
167 203 255
170 204 255
173 207 255
176 209 253
178 210 254
168 207 247
149 195 230
176 205 248
182 211 255
182 211 255
182 211 255
182 211 255
182 211 255
182 211 255
182 211 255
182 211 255
182 211 255
182 211 255
182 211 255
182 211 255
182 211 255
182 211 255
182 211 255
182 211 255
182 211 255
182 211 255
182 211 255
182 211 255
182 211 255
182 211 255
182 211 255
182 211 255
182 211 255
174 195 222
143 112 33
147 104 0
145 102 0
150 105 0
148 104 0
153 106 0
150 105 0
151 106 0
156 107 0
155 107 0
154 107 0
156 107 0
157 108 0
156 107 0
158 108 0
156 107 0
154 107 0
154 107 0
155 107 0
158 108 0
160 109 0
154 107 0
154 107 0
159 108 0
155 107 0
160 109 0
155 107 0
154 107 0
157 107 0
156 107 0
154 107 0
158 108 0
158 108 0
158 108 0
155 107 0
158 108 0
158 108 0
159 109 0
156 107 0
155 107 0
158 108 0
160 109 0
155 107 0
155 107 0
161 109 0
154 106 0
160 109 0
159 108 0
157 108 0
154 107 0
157 108 0
157 108 0
154 107 0
156 107 0
160 108 0
158 108 0
156 107 0
157 108 0
154 107 0
155 107 0
153 106 0
151 105 0
151 105 0
151 104 0
151 102 0
150 100 0
149 103 0
154 118 40
178 201 235
182 211 255
182 211 255
182 211 255
182 211 255
182 211 255
182 211 255
182 211 255
182 211 255
182 211 255
182 211 255
182 211 255
182 211 255
182 211 255
182 211 255
182 211 255
182 211 255
182 211 255
182 211 255
182 211 255
182 211 255
182 211 255
182 211 255
182 211 255
182 211 255
182 211 255
174 198 239
117 76 83
135 78 83
151 87 93
151 88 95
148 87 95
145 86 95
143 86 95
143 86 95
141 85 95
138 84 95
138 84 95
136 84 95
134 83 95
135 84 95
133 83 95
133 83 95
132 83 95
130 82 95
130 82 95
131 82 95
129 82 95
128 82 95
127 81 95
128 82 95
128 81 95
127 81 95
127 81 95
127 81 95
127 81 95
126 81 95
126 81 95
126 81 95
126 81 95
126 81 95
126 81 95
126 81 95
126 81 95
126 81 95
127 81 95
127 81 95
127 81 95
127 81 95
127 81 95
127 81 95
127 81 95
128 82 95
128 81 95
128 82 95
129 82 95
129 82 95
128 82 95
129 82 95
129 82 95
130 82 95
130 82 95
131 82 95
130 82 95
132 83 95
132 83 95
131 82 95
132 83 95
132 83 95
133 83 95
132 83 95
132 83 95
133 83 95
134 83 95
135 84 95
136 84 95
135 84 95
135 84 95
136 84 95
137 84 95
139 85 95
138 84 95
138 84 95
139 85 95
142 85 95
139 85 95
141 85 95
142 86 95
143 86 95
143 86 95
145 86 95
148 87 95
148 87 95
152 88 95
146 84 90
148 85 90
122 69 72
112 65 69
163 170 202
183 212 255
183 212 255
183 212 255
183 212 255
183 212 255
183 212 255
183 212 255
183 212 255
183 212 255
183 212 255
183 212 255
183 212 255
183 212 255
183 212 255
183 212 255
183 212 255
183 212 255
183 212 255
183 212 255
183 212 255
183 212 255
183 212 255
183 212 255
183 212 255
183 212 255
183 212 255
183 212 255
183 212 255
183 212 255
183 212 255
183 212 255
183 212 255
183 212 255
183 212 255
183 212 255
183 212 255
183 212 255
183 212 255
183 212 255
183 212 255
183 212 255
183 212 255
183 212 255
183 212 255
183 212 255
183 212 255
183 212 255
183 212 255
183 212 255
183 212 255
183 212 255
183 212 255
183 212 255
183 212 255
183 212 255
183 212 255
183 212 255
183 212 255
183 212 255
183 212 255
183 212 255
183 212 255
183 212 255
183 212 255
183 212 255
183 212 255
183 212 255
183 212 255
183 212 255
183 212 255
183 212 255
183 212 255
183 212 255
183 212 255
183 212 255
183 212 255
183 212 255
183 212 255
183 212 255
183 212 255
183 212 255
183 212 255
183 212 255
183 212 255
183 212 255
183 212 255
183 212 255
183 212 255
183 212 255
183 212 255
183 212 255
183 212 255
183 212 255
162 188 227
84 99 122
54 65 81
28 34 43
119 141 168
186 214 255
180 211 253
177 209 253
173 207 253
173 206 255
171 205 255
170 204 255
167 202 255
164 200 255
162 200 255
160 198 255
159 197 255
156 196 255
155 195 255
153 194 255
151 193 255
150 192 255
148 191 255
147 190 255
146 190 255
144 189 255
143 188 255
142 188 255
141 187 255
140 186 255
139 186 255
141 187 255
145 190 254
149 192 254
142 190 250
147 191 253
147 193 251
151 193 254
151 193 255
148 192 253
150 193 254
150 195 251
144 192 248
147 192 251
144 192 249
141 191 247
141 191 247
147 192 253
141 191 246
145 192 249
141 191 247
144 191 251
140 190 247
143 191 249
140 191 246
144 191 249
143 191 249
144 191 251
146 192 251
147 193 250
140 191 247
151 193 255
150 193 254
148 192 253
145 191 252
149 192 253
149 193 253
144 191 251
144 191 251
145 190 254
143 188 255
137 184 255
137 184 255
138 185 255
139 186 255
141 187 255
142 188 255
144 188 255
145 189 255
147 190 255
149 192 255
151 193 255
153 194 255
156 196 255
158 197 255
161 199 255
163 200 255
168 203 255
172 206 255
171 206 253
176 208 255
180 211 254
175 210 249
141 181 215
182 211 255
182 211 255
182 211 255
182 211 255
182 211 255
182 211 255
182 211 255
182 211 255
182 211 255
182 211 255
182 211 255
182 211 255
182 211 255
182 211 255
182 211 255
182 211 255
182 211 255
182 211 255
182 211 255
182 211 255
182 211 255
182 211 255
182 211 255
182 211 255
180 207 245
152 123 51
143 101 0
152 106 0
150 104 0
152 106 0
153 106 0
152 106 0
155 107 0
158 108 0
157 108 0
159 108 0
153 106 0
158 108 0
157 108 0
156 107 0
158 108 0
153 106 0
159 108 0
156 108 0
156 107 0
154 107 0
157 108 0
157 108 0
160 109 0
156 108 0
160 109 0
158 108 0
161 109 0
156 107 0
161 109 0
160 109 0
157 107 0
159 108 0
155 107 0
158 108 0
153 107 0
161 109 0
159 108 0
162 109 0
157 108 0
158 108 0
156 107 0
160 108 0
159 108 0
155 107 0
157 107 0
157 108 0
160 109 0
156 107 0
159 108 0
157 107 0
157 108 0
158 108 0
160 109 0
157 108 0
156 107 0
156 108 0
156 107 0
155 107 0
153 106 0
155 107 0
154 107 0
153 106 0
154 105 0
151 105 0
150 104 0
151 100 0
152 102 0
147 98 0
152 117 46
179 203 235
182 211 255
182 211 255
182 211 255
182 211 255
182 211 255
182 211 255
182 211 255
182 211 255
182 211 255
182 211 255
182 211 255
182 211 255
182 211 255
182 211 255
182 211 255
182 211 255
182 211 255
182 211 255
182 211 255
182 211 255
182 211 255
182 211 255
182 211 255
180 205 247
132 103 117
132 75 80
151 87 93
151 88 95
150 88 95
146 87 95
144 86 95
144 86 95
141 85 95
139 85 95
138 84 95
138 84 95
136 84 95
134 83 95
135 84 95
133 83 95
133 83 95
133 83 95
130 82 95
129 82 95
130 82 95
131 82 95
129 82 95
129 82 95
128 82 95
128 82 95
128 82 95
127 81 95
127 81 95
127 81 95
127 81 95
127 81 95
128 82 95
127 81 95
128 82 95
126 81 95
128 81 95
127 81 95
127 81 95
127 81 95
127 81 95
127 81 95
128 82 95
128 82 95
129 82 95
128 82 95
129 82 95
129 82 95
130 82 95
129 82 95
130 82 95
130 82 95
131 82 95
131 82 95
132 83 95
131 82 95
131 83 95
132 83 95
132 83 95
132 83 95
132 83 95
132 83 95
134 83 95
133 83 95
134 83 95
135 84 95
134 83 95
135 84 95
135 84 95
135 84 95
136 84 95
138 84 95
137 84 95
138 84 95
136 84 95
138 84 95
139 85 95
139 85 95
140 85 95
140 85 95
141 85 95
142 86 95
143 86 95
144 86 95
145 87 95
146 87 95
148 87 95
149 87 95
148 86 93
149 86 92
140 81 85
113 65 68
107 64 67
159 177 212
183 212 255
183 212 255
183 212 255
183 212 255
183 212 255
183 212 255
183 212 255
183 212 255
183 212 255
183 212 255
183 212 255
183 212 255
183 212 255
183 212 255
183 212 255
183 212 255
183 212 255
183 212 255
183 212 255
183 212 255
183 212 255
183 212 255
183 212 255
183 212 255
183 212 255
183 212 255
183 212 255
183 212 255
183 212 255
183 212 255
183 212 255
183 212 255
183 212 255
183 212 255
183 212 255
183 212 255
183 212 255
183 212 255
183 212 255
183 212 255
183 212 255
183 212 255
183 212 255
183 212 255
183 212 255
183 212 255
184 212 255
184 212 255
184 212 255
184 212 255
184 212 255
184 212 255
184 212 255
184 212 255
184 212 255
184 212 255
184 212 255
184 212 255
184 212 255
184 212 255
184 212 255
184 212 255
184 212 255
184 212 255
184 212 255
184 212 255
184 212 255
184 212 255
184 212 255
184 212 255
184 212 255
184 212 255
184 212 255
183 212 255
184 212 255
183 212 255
183 212 255
183 212 255
183 212 255
183 212 255
183 212 255
183 212 255
183 212 255
183 212 255
183 212 255
183 212 255
183 212 255
183 212 255
183 212 255
183 212 255
183 212 255
177 206 248
85 100 122
68 81 102
46 56 71
101 117 140
184 213 253
183 212 255
177 209 254
175 208 253
175 207 255
173 206 255
170 204 255
167 203 255
165 201 255
162 200 255
161 199 255
159 197 255
157 196 255
155 195 255
154 195 255
152 193 255
151 193 255
149 192 255
148 191 255
147 190 255
145 189 255
144 189 255
143 188 255
142 187 255
141 187 255
141 188 254
147 191 254
150 193 253
148 191 255
150 193 254
147 192 253
153 195 253
150 193 253
145 192 249
150 193 253
146 192 247
143 191 248
146 192 251
147 192 252
146 192 250
148 193 251
146 193 249
144 192 249
149 193 253
148 193 251
145 193 248
149 193 251
148 193 251
146 193 249
150 194 252
143 192 247
148 193 251
144 192 247
146 193 249
149 193 252
146 192 250
146 192 251
144 192 249
145 191 250
147 192 251
149 193 252
150 193 253
150 193 254
149 194 251
147 191 253
146 191 253
144 190 253
145 191 253
141 187 255
138 185 255
139 185 255
140 186 255
142 187 255
143 188 255
144 189 255
147 190 255
148 191 255
150 192 255
152 193 255
154 195 255
157 196 255
159 198 255
162 199 255
165 201 255
169 203 255
172 206 255
174 207 254
176 209 253
183 212 255
170 208 247
148 193 227
182 212 255
182 212 255
182 212 255
182 212 255
182 212 255
182 212 255
182 212 255
182 212 255
182 212 255
182 212 255
182 212 255
182 212 255
182 212 255
182 212 255
182 212 255
182 212 255
182 212 255
182 212 255
182 212 255
182 211 255
182 211 255
182 211 255
181 208 248
151 122 48
144 102 0
150 104 0
148 103 0
148 103 0
154 106 0
149 104 0
152 105 0
160 108 0
157 107 0
157 108 0
155 107 0
155 107 0
156 107 0
156 107 0
159 108 0
155 107 0
157 108 0
159 109 0
156 108 0
162 109 0
160 109 0
158 108 0
157 108 0
159 109 0
156 107 0
158 108 0
157 108 0
160 109 0
157 108 0
161 109 0
158 108 0
155 107 0
157 108 0
157 108 0
160 108 0
161 109 0
158 108 0
162 109 0
158 109 0
160 109 0
155 107 0
157 108 0
158 108 0
159 108 0
157 108 0
159 108 0
157 108 0
159 108 0
157 108 0
155 107 0
157 108 0
156 107 0
157 108 0
159 108 0
155 107 0
157 108 0
157 108 0
161 109 0
156 108 0
154 107 0
153 106 0
154 106 0
156 107 0
156 105 0
155 106 0
157 106 0
155 104 0
152 101 0
150 100 0
146 97 0
153 121 69
182 211 255
182 212 255
182 211 255
182 212 255
182 212 255
182 212 255
182 212 255
182 212 255
182 212 255
182 212 255
182 212 255
182 212 255
182 212 255
182 212 255
182 212 255
182 212 255
182 212 255
182 212 255
182 212 255
182 212 255
182 212 255
182 212 255
182 212 255
141 127 147
130 74 78
149 86 91
153 89 95
150 88 95
146 87 95
146 87 95
143 86 95
142 86 95
141 85 95
140 85 95
139 85 95
137 84 95
136 84 95
134 83 95
135 83 95
133 83 95
134 83 95
132 83 95
131 82 95
131 82 95
130 82 95
131 82 95
130 82 95
130 82 95
129 82 95
129 82 95
129 82 95
128 82 95
129 82 95
129 82 95
129 82 95
128 81 95
128 82 95
128 82 95
128 81 95
128 82 95
128 82 95
129 82 95
128 82 95
128 82 95
128 82 95
129 82 95
130 82 95
129 82 95
129 82 95
129 82 95
131 82 95
130 82 95
131 82 95
130 82 95
131 83 95
131 82 95
131 82 95
132 83 95
132 83 95
132 83 95
133 83 95
133 83 95
133 83 95
133 83 95
134 83 95
133 83 95
134 83 95
134 83 95
134 83 95
135 84 95
136 84 95
136 84 95
136 84 95
136 84 95
136 84 95
138 84 95
138 84 95
138 84 95
139 85 95
138 84 95
138 84 95
139 85 95
141 85 95
141 85 95
142 86 95
142 86 95
144 86 95
144 86 95
146 87 95
145 86 95
148 87 95
149 88 95
152 88 95
153 89 95
149 86 91
128 73 77
130 74 77
114 84 93
173 197 236
183 212 255
183 212 255
183 212 255
183 212 255
183 212 255
183 212 255
183 212 255
183 212 255
183 212 255
183 212 255
183 212 255
183 212 255
183 212 255
183 212 255
183 212 255
183 212 255
183 212 255
184 212 255
184 212 255
184 212 255
184 212 255
184 212 255
184 212 255
184 212 255
184 212 255
184 212 255
184 212 255
184 212 255
184 212 255
184 212 255
184 212 255
184 212 255
184 212 255
184 212 255
184 212 255
184 212 255
184 212 255
184 212 255
184 212 255
184 212 255
184 212 255
184 212 255
184 212 255
184 212 255
184 212 255
184 213 255
184 213 255
184 213 255
184 213 255
184 213 255
184 213 255
184 213 255
184 213 255
184 213 255
184 213 255
184 213 255
184 213 255
184 213 255
184 213 255
184 213 255
184 213 255
184 213 255
184 213 255
184 213 255
184 212 255
184 212 255
184 212 255
184 212 255
184 212 255
184 212 255
184 212 255
184 212 255
184 212 255
184 212 255
184 212 255
184 212 255
184 212 255
184 212 255
184 212 255
184 212 255
184 212 255
184 212 255
184 212 255
184 212 255
184 212 255
184 212 255
184 212 255
184 212 255
184 212 255
184 212 255
118 138 168
74 88 110
33 40 51
68 80 97
187 215 255
182 212 254
173 208 251
176 208 255
175 207 255
173 206 255
170 204 255
168 203 255
166 202 255
164 200 255
162 199 255
160 198 255
158 197 255
156 196 255
155 195 255
154 194 255
152 193 255
150 192 255
149 192 255
148 191 255
147 190 255
145 189 255
144 189 255
143 188 255
143 188 255
145 190 253
151 194 253
151 194 253
153 194 254
148 193 252
153 194 255
150 194 252
154 194 255
148 193 251
145 193 248
144 192 247
146 193 249
146 193 249
147 193 249
149 194 251
151 194 252
148 194 250
151 194 252
149 194 249
149 194 251
150 194 251
152 195 253
148 194 249
152 195 252
153 195 253
152 193 251
149 194 250
152 195 252
152 195 252
149 194 250
146 193 248
150 194 251
146 193 247
148 193 251
147 194 249
149 194 251
145 192 249
146 193 249
149 194 251
147 193 250
152 194 254
149 194 250
148 193 252
146 192 251
147 192 251
147 191 254
141 187 254
140 186 255
141 187 255
142 188 255
144 189 255
145 189 255
147 190 255
149 191 255
151 193 255
153 194 255
155 195 255
158 197 255
160 198 255
163 200 255
166 202 255
170 204 255
171 205 255
176 208 255
176 208 254
181 211 255
171 209 247
159 192 230
183 212 255
183 212 255
183 212 255
183 212 255
183 212 255
183 212 255
183 212 255
183 212 255
183 212 255
183 212 255
183 212 255
183 212 255
183 212 255
183 212 255
183 212 255
182 212 255
182 212 255
183 212 255
182 212 255
182 212 255
182 212 255
156 144 104
141 99 0
145 101 0
149 103 0
154 107 0
150 104 0
153 106 0
155 107 0
157 108 0
155 107 0
156 108 0
158 108 0
158 108 0
159 108 0
156 108 0
157 108 0
157 108 0
159 108 0
158 108 0
157 108 0
158 108 0
157 108 0
156 108 0
155 108 0
160 108 0
162 109 0
158 109 0
161 109 0
162 109 0
160 109 0
159 108 0
157 108 0
158 108 0
163 110 0
155 108 0
160 109 0
155 107 0
159 109 0
159 108 0
158 108 0
156 108 0
159 108 0
158 108 0
159 109 0
159 109 0
159 108 0
163 110 0
155 107 0
159 109 0
158 108 0
160 109 0
162 109 0
158 108 0
157 108 0
158 108 0
159 109 0
155 107 0
157 108 0
155 108 0
158 108 0
158 108 0
157 108 0
157 108 0
156 108 0
156 107 0
157 108 0
154 106 0
152 104 0
153 103 0
153 103 0
151 103 0
147 97 0
148 99 0
163 150 122
182 212 255
182 212 255
182 212 255
182 212 255
182 212 255
182 212 255
183 212 255
182 212 255
183 212 255
183 212 255
183 212 255
183 212 255
183 212 255
183 212 255
183 212 255
183 212 255
183 212 255
183 212 255
183 212 255
183 212 255
183 212 255
147 139 163
126 71 74
135 77 82
152 88 94
150 88 95
147 87 95
149 87 95
146 87 95
145 86 95
141 85 95
140 85 95
140 85 95
139 85 95
137 84 95
136 84 95
135 84 95
135 83 95
134 83 95
133 83 95
132 83 95
131 83 95
131 83 95
130 82 95
130 82 95
130 82 95
130 82 95
130 82 95
130 82 95
129 82 95
129 82 95
130 82 95
130 82 95
130 82 95
129 82 95
129 82 95
130 82 95
129 82 95
129 82 95
129 82 95
130 82 95
130 82 95
131 82 95
130 82 95
130 82 95
130 82 95
130 82 95
131 82 95
131 82 95
131 82 95
132 83 95
131 82 95
133 83 95
132 83 95
132 83 95
132 83 95
132 83 95
133 83 95
133 83 95
134 83 95
134 83 95
134 83 95
134 83 95
134 83 95
135 83 95
135 84 95
136 84 95
137 84 95
137 84 95
136 84 95
137 84 95
137 84 95
138 84 95
138 84 95
139 85 95
138 85 95
138 84 95
139 85 95
141 85 95
141 85 95
141 85 95
140 85 95
142 86 95
141 85 95
144 86 95
144 86 95
143 86 95
145 87 95
147 87 95
145 86 95
149 88 95
150 88 95
152 88 95
152 88 94
151 87 92
121 69 72
116 65 68
114 82 91
184 211 254
184 212 255
184 212 255
184 212 255
184 212 255
184 212 255
184 212 255
184 212 255
184 212 255
184 212 255
184 212 255
184 212 255
184 212 255
184 212 255
184 212 255
184 212 255
184 212 255
184 212 255
184 212 255
184 212 255
184 212 255
184 212 255
184 212 255
184 212 255
184 212 255
184 212 255
184 213 255
184 213 255
184 213 255
184 213 255
184 213 255
184 213 255
184 213 255
184 213 255
184 213 255
184 213 255
184 213 255
184 213 255
184 213 255
184 213 255
184 213 255
184 213 255
184 213 255
184 213 255
184 213 255
184 213 255
184 213 255
184 213 255
184 213 255
184 213 255
184 213 255
184 213 255
184 213 255
184 213 255
184 213 255
184 213 255
184 213 255
184 213 255
184 213 255
184 213 255
184 213 255
184 213 255
184 213 255
184 213 255
184 213 255
184 213 255
184 213 255
184 213 255
184 213 255
184 213 255
184 213 255
184 213 255
184 213 255
184 213 255
184 213 255
184 213 255
184 213 255
184 213 255
184 213 255
184 213 255
184 213 255
184 213 255
184 213 255
184 213 255
184 213 255
184 213 255
184 213 255
184 213 255
184 213 255
144 167 202
71 84 104
40 49 61
43 51 63
180 206 245
183 212 255
179 210 254
177 209 255
176 208 255
174 207 255
170 205 255
169 203 255
168 203 255
165 201 255
162 200 255
161 199 255
160 198 255
157 197 255
156 196 255
154 195 255
153 194 255
152 193 255
150 192 255
149 192 255
148 191 255
147 190 255
145 189 255
145 189 255
149 192 255
152 195 251
153 194 255
151 194 253
154 197 251
154 196 253
150 194 251
153 195 253
146 194 248
148 194 250
148 194 249
148 194 249
151 195 251
149 194 249
151 195 251
151 195 251
150 195 249
150 194 247
153 196 252
153 196 251
154 196 252
153 196 252
150 195 249
152 194 250
153 196 251
153 196 252
151 195 251
155 196 253
152 195 249
155 196 253
149 192 246
151 196 250
151 195 251
153 195 253
151 195 250
149 195 249
150 194 251
150 195 251
148 194 249
145 193 247
151 194 252
146 193 249
148 194 251
149 194 251
151 194 251
154 196 252
151 194 253
148 194 249
147 192 253
145 190 253
141 187 255
142 188 255
143 188 255
145 189 255
147 190 255
148 191 255
150 192 255
152 193 255
155 195 255
156 196 255
158 197 255
161 199 255
164 201 255
168 203 255
170 204 255
174 207 255
174 207 253
181 211 255
181 212 254
142 191 220
171 202 243
183 212 255
183 212 255
183 212 255
183 212 255
183 212 255
183 212 255
183 212 255
183 212 255
183 212 255
183 212 255
183 212 255
183 212 255
183 212 255
183 212 255
183 212 255
183 212 255
183 212 255
183 212 255
183 212 255
168 173 168
137 97 0
136 96 0
146 101 0
151 104 0
155 107 0
155 107 0
149 104 0
155 107 0
154 107 0
161 109 0
159 109 0
156 108 0
156 108 0
158 108 0
157 108 0
155 108 0
159 108 0
161 109 0
160 109 0
157 108 0
162 110 0
160 109 0
160 109 0
159 109 0
161 109 0
159 109 0
159 109 0
160 109 0
156 108 0
158 108 0
161 109 0
159 109 0
160 110 0
160 109 0
159 109 0
158 109 0
158 109 0
158 109 0
160 109 0
158 108 0
156 108 0
159 109 0
160 109 0
154 107 0
161 109 0
161 109 0
155 108 0
160 109 0
157 108 0
160 109 0
159 108 0
156 108 0
161 109 0
158 108 0
160 109 0
156 108 0
159 108 0
157 108 0
157 108 0
156 108 0
157 108 0
153 107 0
156 108 0
155 106 0
160 108 0
154 105 0
154 105 0
157 106 0
152 102 0
152 101 0
155 99 0
151 98 0
148 94 0
143 90 0
169 167 163
183 212 255
183 212 255
183 212 255
183 212 255
183 212 255
183 212 255
183 212 255
183 212 255
183 212 255
183 212 255
183 212 255
183 212 255
183 212 255
183 212 255
183 212 255
183 212 255
183 212 255
183 212 255
183 212 255
166 179 214
126 74 78
141 80 84
153 88 93
153 89 95
151 88 95
148 87 95
147 87 95
146 87 95
143 86 95
141 85 95
140 85 95
140 85 95
138 84 95
137 84 95
137 84 95
135 83 95
135 83 95
134 83 95
134 83 95
134 83 95
133 83 95
132 83 95
133 83 95
131 82 95
131 83 95
131 82 95
131 83 95
131 82 95
131 82 95
131 82 95
131 82 95
131 82 95
130 82 95
130 82 95
131 83 95
131 82 95
130 82 95
131 82 95
130 82 95
132 83 95
130 82 95
130 82 95
132 83 95
131 83 95
132 83 95
132 83 95
132 83 95
133 83 95
133 83 95
134 83 95
133 83 95
133 83 95
133 83 95
134 83 95
133 83 95
134 83 95
134 83 95
134 83 95
135 83 95
135 83 95
135 83 95
135 83 95
136 84 95
136 84 95
137 84 95
137 84 95
137 84 95
137 84 95
137 84 95
138 84 95
139 85 95
138 84 95
139 85 95
138 85 95
139 85 95
139 85 95
140 85 95
140 85 95
142 85 95
141 85 95
141 85 95
143 86 95
141 85 95
142 86 95
143 86 95
144 86 95
146 87 95
145 86 95
147 87 95
150 88 95
150 88 95
152 88 95
155 89 95
154 88 94
144 83 87
133 75 79
119 67 69
150 142 166
184 213 255
184 213 255
184 213 255
184 213 255
184 213 255
184 213 255
184 213 255
184 213 255
184 213 255
184 213 255
184 213 255
184 213 255
184 213 255
184 213 255
184 213 255
184 213 255
184 213 255
184 213 255
184 213 255
184 213 255
184 213 255
184 213 255
184 213 255
184 213 255
184 213 255
184 213 255
184 213 255
184 213 255
184 213 255
184 213 255
184 213 255
184 213 255
184 213 255
184 213 255
184 213 255
184 213 255
184 213 255
184 213 255
184 213 255
184 213 255
184 213 255
184 213 255
184 213 255
184 213 255
184 213 255
184 213 255
184 213 255
184 213 255
184 213 255
184 213 255
184 213 255
184 213 255
184 213 255
184 213 255
184 213 255
184 213 255
184 213 255
184 213 255
184 213 255
184 213 255
184 213 255
184 213 255
184 213 255
184 213 255
184 213 255
184 213 255
184 213 255
184 213 255
184 213 255
184 213 255
184 213 255
184 213 255
184 213 255
184 213 255
184 213 255
184 213 255
184 213 255
184 213 255
184 213 255
184 213 255
184 213 255
184 213 255
184 213 255
184 213 255
184 213 255
184 213 255
184 213 255
169 195 235
82 97 120
42 51 63
42 51 63
151 174 205
185 214 254
180 211 253
176 209 253
177 208 255
175 207 255
172 205 255
170 204 255
168 203 255
166 202 255
164 201 255
162 200 255
160 198 255
158 197 255
157 196 255
156 196 255
154 195 255
153 194 255
152 193 255
150 192 255
149 192 255
148 191 255
147 190 255
146 190 255
150 193 255
151 194 253
150 194 251
152 195 252
155 196 254
153 196 251
155 196 253
152 196 250
150 195 250
148 195 248
153 196 252
153 196 251
153 196 251
152 196 250
152 196 250
151 196 248
152 196 249
154 196 251
151 196 249
152 196 250
154 197 251
156 198 252
150 196 247
156 197 253
152 196 249
157 197 253
154 197 251
157 198 253
155 197 251
155 197 253
155 197 252
155 197 252
156 197 253
153 194 250
152 197 248
152 196 249
152 196 251
152 196 251
151 195 250
152 195 251
152 195 252
150 194 251
149 194 249
147 194 247
143 193 245
149 194 250
153 196 251
154 196 254
151 194 252
150 193 253
154 195 254
150 193 255
144 188 255
143 188 255
145 189 255
146 190 255
148 191 255
149 192 255
152 193 255
153 194 255
156 196 255
158 197 255
160 198 255
163 200 255
165 201 255
169 203 255
171 205 255
173 207 254
178 209 255
180 211 254
181 212 253
168 201 242
183 212 255
183 212 255
183 212 255
183 212 255
183 212 255
183 212 255
183 212 255
183 212 255
183 212 255
183 212 255
183 212 255
183 212 255
183 212 255
183 212 255
183 212 255
183 212 255
183 212 255
183 212 255
178 199 227
146 107 10
143 99 0
145 100 0
152 106 0
148 102 0
150 103 0
151 105 0
161 109 0
155 107 0
156 108 0
155 107 0
156 108 0
154 107 0
160 109 0
159 109 0
157 108 0
159 109 0
159 108 0
158 108 0
162 109 0
161 110 0
160 109 0
161 109 0
158 109 0
159 109 0
157 108 0
158 108 0
161 110 0
157 108 0
161 109 0
159 108 0
156 108 0
160 109 0
158 109 0
162 109 0
160 109 0
160 109 0
163 110 0
156 109 0
155 108 0
153 108 0
155 108 0
159 109 0
159 109 0
163 109 0
161 109 0
159 109 0
161 109 0
155 108 0
161 109 0
160 109 0
158 108 0
158 109 0
160 109 0
156 108 0
159 109 0
156 108 0
157 108 0
158 109 0
161 109 0
161 109 0
157 108 0
160 108 0
158 108 0
157 108 0
161 109 0
158 108 0
155 104 0
155 107 0
151 104 0
153 104 0
151 97 0
151 98 0
148 92 0
147 88 0
146 101 20
179 198 227
183 212 255
183 212 255
183 212 255
183 212 255
183 212 255
183 212 255
183 212 255
183 212 255
183 212 255
183 212 255
183 212 255
183 212 255
183 212 255
183 212 255
183 212 255
183 212 255
183 212 255
181 208 250
129 101 114
138 79 83
155 89 94
155 89 95
151 88 95
149 87 95
148 87 95
147 87 95
145 86 95
144 86 95
142 86 95
140 85 95
140 85 95
139 85 95
138 84 95
138 84 95
136 84 95
136 84 95
136 84 95
134 83 95
134 83 95
133 83 95
133 83 95
133 83 95
133 83 95
132 83 95
133 83 95
132 83 95
131 82 95
132 83 95
132 83 95
131 82 95
131 82 95
131 82 95
131 83 95
132 83 95
132 83 95
132 83 95
131 83 95
131 82 95
132 83 95
132 83 95
132 83 95
132 83 95
133 83 95
134 83 95
133 83 95
133 83 95
134 83 95
134 83 95
134 83 95
135 84 95
134 83 95
134 83 95
135 84 95
135 84 95
136 84 95
136 84 95
136 84 95
137 84 95
137 84 95
135 84 95
138 84 95
136 84 95
137 84 95
138 84 95
137 84 95
138 84 95
138 84 95
139 85 95
139 85 95
140 85 95
140 85 95
140 85 95
140 85 95
141 85 95
140 85 95
142 85 95
141 85 95
141 85 95
141 85 95
142 85 95
144 86 95
145 86 95
144 86 95
144 86 95
144 86 95
144 86 95
146 87 95
147 87 95
150 88 95
151 88 95
152 88 95
152 88 95
154 89 95
149 85 90
143 81 85
125 70 73
117 66 69
169 183 218
184 213 255
184 213 255
184 213 255
184 213 255
184 213 255
184 213 255
184 213 255
184 213 255
184 213 255
184 213 255
184 213 255
184 213 255
184 213 255
184 213 255
184 213 255
184 213 255
184 213 255
184 213 255
184 213 255
184 213 255
184 213 255
184 213 255
184 213 255
184 213 255
184 213 255
184 213 255
184 213 255
184 213 255
184 213 255
184 213 255
184 213 255
184 213 255
184 213 255
184 213 255
184 213 255
184 213 255
184 213 255
184 213 255
184 213 255
184 213 255
184 213 255
184 213 255
184 213 255
185 213 255
185 213 255
185 213 255
185 213 255
185 213 255
185 213 255
185 213 255
185 213 255
185 213 255
185 213 255
185 213 255
185 213 255
185 213 255
185 213 255
185 213 255
185 213 255
185 213 255
185 213 255
185 213 255
185 213 255
185 213 255
185 213 255
185 213 255
185 213 255
185 213 255
185 213 255
185 213 255
185 213 255
185 213 255
185 213 255
185 213 255
185 213 255
185 213 255
185 213 255
185 213 255
185 213 255
185 213 255
184 213 255
184 213 255
184 213 255
184 213 255
184 213 255
184 213 255
102 119 145
51 61 76
34 40 51
98 115 136
187 214 255
184 213 255
179 210 255
178 209 255
176 208 255
174 206 255
171 205 255
168 203 255
168 203 255
165 201 255
163 200 255
162 199 255
160 198 255
158 197 255
157 196 255
156 196 255
154 195 255
153 194 255
152 193 255
151 193 255
149 192 255
148 191 255
149 192 255
157 197 255
151 194 252
156 196 254
154 196 253
157 197 253
157 197 254
153 196 251
152 196 250
151 195 249
150 195 249
151 194 248
155 197 252
154 196 251
155 196 250
153 196 248
155 197 251
158 198 253
157 197 253
157 198 251
155 197 251
157 198 251
155 197 251
159 199 253
157 198 251
156 198 251
155 196 249
157 198 251
158 197 251
156 196 250
153 197 250
156 198 251
158 197 251
159 199 253
156 198 251
155 196 250
155 198 250
152 196 247
156 196 250
155 197 251
152 195 248
156 197 252
153 196 251
152 196 249
154 196 252
153 196 251
155 196 253
151 195 250
146 194 247
150 195 250
157 197 254
155 196 253
150 195 250
153 196 252
151 194 254
148 191 255
145 189 255
146 190 255
148 191 255
150 192 255
151 193 255
153 194 255
154 195 255
157 196 255
159 198 255
161 199 255
164 200 255
167 202 255
170 204 255
173 206 255
177 209 255
177 209 254
182 212 255
182 212 254
156 194 231
184 212 255
184 212 255
183 212 255
183 212 255
183 212 255
183 212 255
183 212 255
183 212 255
183 212 255
183 212 255
183 212 255
183 212 255
183 212 255
183 212 255
183 212 255
183 212 255
183 212 255
145 123 69
141 99 0
148 103 0
141 97 0
144 102 0
150 103 0
150 105 0
154 106 0
158 108 0
153 106 0
157 108 0
160 109 0
159 109 0
156 108 0
158 108 0
160 109 0
159 109 0
157 109 0
161 109 0
159 108 0
159 108 0
155 108 0
156 108 0
162 110 0
159 109 0
162 109 0
155 108 0
160 109 0
157 109 0
159 109 0
161 109 0
161 109 0
159 109 0
157 109 0
163 110 0
158 109 0
160 109 0
153 108 0
158 109 0
159 109 0
161 109 0
158 109 0
157 109 0
162 110 0
158 108 0
164 110 0
156 108 0
157 108 0
151 107 0
156 108 0
160 109 0
155 109 0
158 109 0
157 108 0
160 109 0
160 110 0
157 108 0
154 108 0
155 108 0
155 108 0
160 109 0
156 108 0
153 108 0
160 109 0
157 108 0
158 108 0
164 109 0
158 108 0
156 107 0
155 103 0
158 105 0
158 105 0
151 99 0
149 96 0
150 95 0
148 94 0
144 83 0
154 115 61
182 209 250
183 212 255
183 212 255
183 212 255
183 212 255
183 212 255
183 212 255
183 212 255
183 212 255
183 212 255
183 212 255
183 212 255
183 212 255
184 212 255
184 212 255
184 212 255
184 212 255
136 116 133
132 74 77
148 84 88
155 89 95
153 89 95
150 87 92
149 87 94
147 85 91
146 86 93
143 86 94
145 86 95
142 86 95
142 86 95
140 85 95
139 85 95
139 85 95
138 84 95
139 85 95
135 84 95
136 84 95
136 84 95
135 83 95
135 84 95
134 83 95
133 83 95
134 83 95
133 83 95
133 83 95
133 83 95
133 83 95
132 83 95
133 83 95
134 83 95
133 83 95
132 83 95
133 83 95
134 83 95
133 83 95
133 83 95
133 83 95
133 83 95
133 83 95
134 83 95
134 83 95
134 83 95
135 84 95
135 83 95
135 83 95
134 83 95
135 84 95
136 84 95
135 84 95
136 84 95
137 84 95
136 84 95
138 84 95
137 84 95
137 84 95
136 84 95
136 84 95
136 84 95
139 85 95
139 85 95
138 84 95
138 85 95
138 84 95
138 84 95
138 84 95
140 85 95
140 85 95
140 85 95
140 85 95
139 85 95
141 85 95
140 85 95
143 86 95
142 85 95
142 86 95
142 85 95
143 86 95
142 86 95
143 86 95
142 86 95
145 86 95
143 86 95
144 86 95
143 86 95
145 86 95
147 87 95
147 87 95
147 87 95
149 88 95
150 88 95
152 88 95
154 89 95
154 89 95
157 90 95
151 86 91
135 76 80
112 63 65
87 58 63
184 213 255
184 213 255
184 213 255
184 213 255
184 213 255
184 213 255
184 213 255
185 213 255
185 213 255
185 213 255
185 213 255
185 213 255
185 213 255
185 213 255
185 213 255
185 213 255
185 213 255
185 213 255
185 213 255
185 213 255
185 213 255
185 213 255
185 213 255
185 213 255
185 213 255
185 213 255
185 213 255
185 213 255
185 213 255
185 213 255
185 213 255
185 213 255
185 213 255
185 213 255
185 213 255
185 213 255
185 213 255
185 213 255
185 213 255
185 213 255
185 213 255
185 213 255
185 213 255
185 213 255
185 213 255
185 213 255
185 213 255
185 213 255
185 213 255
185 213 255
185 213 255
185 213 255
185 213 255
185 213 255
185 213 255
185 213 255
185 213 255
185 213 255
185 213 255
185 213 255
185 213 255
185 213 255
185 213 255
185 213 255
185 213 255
185 213 255
185 213 255
185 213 255
185 213 255
185 213 255
185 213 255
185 213 255
185 213 255
185 213 255
185 213 255
185 213 255
185 213 255
185 213 255
185 213 255
185 213 255
185 213 255
185 213 255
185 213 255
185 213 255
185 213 255
131 152 184
64 76 94
24 28 35
46 54 66
189 216 255
185 213 255
181 211 255
176 209 253
178 209 255
175 207 255
172 206 255
170 204 255
168 203 255
167 202 255
165 201 255
163 200 255
161 199 255
160 198 255
158 197 255
157 197 255
156 196 255
154 195 255
153 194 255
152 193 255
151 193 255
150 192 255
149 191 252
154 196 253
158 198 254
153 196 251
159 198 255
155 197 253
158 199 253
150 195 248
152 196 251
152 196 247
151 195 247
153 197 249
158 198 253
156 197 252
161 199 254
153 196 247
156 198 251
158 198 252
158 199 251
158 199 253
157 199 251
162 200 255
163 200 255
157 199 251
155 196 246
159 199 251
160 200 253
160 199 253
159 199 253
157 197 250
158 200 251
159 199 253
158 199 252
159 199 252
159 198 251
159 199 253
157 199 251
159 199 251
153 198 247
159 199 253
158 199 252
157 199 251
157 198 251
154 197 250
154 197 250
156 196 250
156 197 252
151 197 248
151 194 247
152 196 250
146 194 245
149 195 249
155 197 252
158 197 255
155 196 254
153 196 252
154 195 255
151 193 255
146 190 255
148 191 255
149 192 255
151 193 255
152 194 255
154 195 255
157 196 255
158 197 255
160 198 255
163 200 255
166 202 255
168 203 255
171 205 255
174 207 255
175 208 253
180 211 254
182 212 254
164 206 240
179 208 250
184 212 255
184 212 255
184 212 255
184 212 255
184 212 255
184 212 255
184 212 255
184 212 255
184 212 255
184 212 255
184 212 255
184 212 255
184 212 255
184 212 255
184 212 255
158 157 140
139 98 0
146 101 0
136 94 0
143 98 0
145 102 0
153 105 0
155 107 0
147 103 0
156 107 0
153 105 0
155 108 0
158 108 0
157 108 0
158 109 0
155 107 0
161 110 0
161 109 0
160 109 0
157 109 0
161 109 0
163 110 0
158 109 0
157 109 0
159 109 0
156 108 0
161 110 0
158 109 0
161 110 0
157 108 0
162 110 0
158 109 0
158 109 0
152 108 0
158 109 0
161 109 0
155 108 0
160 110 0
157 108 0
158 109 0
161 110 0
160 109 0
160 110 0
160 109 0
163 110 0
158 109 0
158 109 0
160 109 0
162 109 0
158 109 0
155 108 0
157 108 0
159 109 0
157 109 0
156 108 0
161 110 0
156 108 0
160 109 0
160 109 0
157 109 0
160 109 0
153 107 0
159 109 0
153 107 0
156 108 0
160 109 0
155 107 0
158 108 0
154 105 0
154 106 0
159 107 0
153 105 0
154 101 0
153 98 0
154 97 0
150 94 0
147 94 0
148 87 0
145 83 0
167 158 148
184 212 255
184 212 255
184 212 255
184 212 255
184 212 255
184 212 255
184 212 255
184 212 255
184 212 255
184 212 255
184 212 255
184 212 255
184 212 255
184 212 255
184 212 255
168 182 217
127 71 74
144 82 85
158 90 94
154 88 92
149 85 89
148 82 83
145 84 87
146 83 85
145 85 90
145 84 89
143 85 93
144 86 95
143 86 95
141 85 95
141 85 95
138 84 95
138 84 95
138 84 95
138 84 95
136 84 95
136 84 95
137 84 95
136 84 95
135 84 95
136 84 95
135 84 95
134 83 95
134 83 95
134 83 95
135 83 95
133 83 95
134 83 95
133 83 95
135 84 95
133 83 95
134 83 95
134 83 95
134 83 95
134 83 95
134 83 95
134 83 95
135 84 95
135 84 95
136 84 95
136 84 95
136 84 95
134 83 95
136 84 95
136 84 95
136 84 95
136 84 95
137 84 95
136 84 95
136 84 95
136 84 95
138 84 95
138 84 95
138 84 95
139 85 95
139 85 95
139 85 95
139 85 95
139 85 95
139 85 95
139 85 95
140 85 95
140 85 95
141 85 95
141 85 95
141 85 95
141 85 95
141 85 95
141 85 95
142 85 95
142 86 95
141 85 95
141 85 95
143 86 95
143 86 95
144 86 95
143 86 95
145 86 95
144 86 95
146 87 95
144 86 95
146 87 95
146 87 95
145 86 95
148 87 95
146 87 95
148 87 95
150 88 95
150 88 95
151 88 95
152 88 95
154 89 95
156 89 95
159 90 95
141 80 84
129 73 76
97 55 57
145 137 159
185 213 255
185 213 255
185 213 255
185 213 255
185 213 255
185 213 255
185 213 255
185 213 255
185 213 255
185 213 255
185 213 255
185 213 255
185 213 255
185 213 255
185 213 255
185 213 255
185 213 255
185 213 255
185 213 255
185 213 255
185 213 255
185 213 255
185 213 255
185 213 255
185 213 255
185 213 255
185 213 255
185 213 255
185 213 255
185 213 255
185 213 255
185 213 255
185 213 255
185 213 255
185 213 255
185 213 255
185 213 255
185 213 255
185 213 255
185 213 255
185 213 255
185 213 255
185 213 255
185 213 255
185 213 255
185 213 255
185 213 255
185 213 255
185 213 255
185 213 255
185 213 255
185 213 255
185 213 255
185 213 255
185 213 255
185 213 255
185 213 255
185 213 255
185 213 255
185 213 255
185 213 255
185 213 255
185 213 255
185 213 255
185 213 255
185 213 255
185 213 255
185 213 255
185 213 255
185 213 255
185 213 255
185 213 255
185 213 255
185 213 255
185 213 255
185 213 255
185 213 255
185 213 255
185 213 255
185 213 255
185 213 255
185 213 255
185 213 255
177 204 245
80 94 115
50 59 74
36 43 53
137 157 186
186 214 255
185 213 255
179 210 255
178 209 255
176 208 255
174 207 255
171 205 255
170 204 255
168 203 255
166 202 255
165 201 255
163 200 255
161 199 255
160 198 255
159 197 255
157 196 255
156 196 255
155 195 255
154 194 255
153 194 255
151 193 255
151 194 253
154 195 250
158 197 252
155 197 252
160 199 254
154 198 249
155 198 251
154 197 250
156 197 250
150 196 247
153 197 249
153 197 248
157 198 251
159 199 252
153 196 245
156 199 250
159 199 252
160 199 253
159 199 249
159 199 252
161 200 253
161 200 253
158 199 251
160 200 252
157 196 246
162 200 253
163 201 254
161 200 253
159 200 251
162 200 253
160 200 251
161 200 253
159 200 251
156 197 248
157 198 251
161 200 252
157 200 249
161 199 251
160 200 252
157 199 251
158 199 251
159 199 252
162 200 254
156 197 249
156 199 249
155 196 249
160 199 253
156 198 251
153 197 249
159 198 254
155 197 251
151 197 248
155 197 252
152 196 251
154 197 251
157 197 253
154 196 251
155 196 253
156 197 254
152 194 255
148 191 255
149 192 255
151 193 255
152 194 255
154 195 255
156 196 255
158 197 255
160 198 255
163 200 255
165 201 255
167 203 255
170 204 255
173 206 255
176 208 255
176 209 253
181 211 255
186 214 255
162 200 236
184 213 255
184 213 255
184 213 255
184 213 255
184 213 255
184 213 255
184 213 255
184 213 255
184 213 255
184 213 255
184 213 255
184 213 255
184 213 255
184 213 255
179 202 232
143 103 12
142 100 0
138 95 0
137 96 0
149 104 0
145 99 0
149 104 0
147 102 0
157 108 0
151 105 0
157 108 0
151 106 0
164 110 0
157 109 0
157 109 0
155 108 0
156 109 0
156 108 0
163 110 0
159 109 0
157 109 0
162 110 0
161 110 0
163 110 0
156 108 0
160 109 0
158 109 0
158 109 0
159 109 0
155 109 0
159 109 0
159 109 0
159 109 0
157 109 0
163 110 0
158 109 0
160 109 0
151 107 0
159 109 0
163 110 0
159 109 0
162 110 0
159 109 0
160 110 0
156 108 0
153 109 0
161 110 0
158 109 0
162 110 0
161 110 0
160 109 0
159 109 0
160 109 0
157 109 0
164 110 0
158 109 0
152 108 0
159 109 0
162 110 0
159 110 0
162 109 0
159 109 0
161 110 0
161 110 0
161 109 0
154 108 0
153 107 0
158 108 0
154 107 0
155 107 0
151 106 0
153 102 0
155 104 0
154 102 0
153 94 0
150 96 0
154 92 0
150 87 0
149 86 0
147 86 12
178 194 220
184 213 255
184 213 255
184 213 255
184 213 255
184 213 255
184 213 255
184 213 255
184 213 255
184 213 255
184 213 255
184 213 255
184 213 255
184 213 255
184 213 255
135 96 106
132 75 78
153 87 91
154 85 86
153 84 84
148 79 77
146 78 74
144 80 81
145 81 81
144 80 81
142 82 86
143 82 86
143 85 93
143 85 93
142 86 95
141 85 95
140 85 95
141 85 95
138 85 95
137 84 95
137 84 95
137 84 95
137 84 95
137 84 95
137 84 95
137 84 95
135 84 95
136 84 95
137 84 95
135 84 95
136 84 95
136 84 95
135 84 95
135 84 95
135 84 95
135 84 95
136 84 95
136 84 95
135 84 95
136 84 95
137 84 95
135 84 95
136 84 95
135 84 95
136 84 95
137 84 95
136 84 95
138 84 95
137 84 95
136 84 95
138 84 95
137 84 95
138 84 95
138 84 95
138 85 95
139 85 95
139 85 95
139 85 95
139 85 95
140 85 95
140 85 95
140 85 95
140 85 95
140 85 95
141 85 95
140 85 95
142 85 95
141 85 95
141 85 95
142 86 95
143 86 95
143 86 95
142 86 95
144 86 95
144 86 95
144 86 95
144 86 95
143 86 95
144 86 95
145 86 95
145 86 95
143 86 95
144 86 95
144 86 95
146 87 95
146 87 95
147 87 95
146 87 95
146 87 95
147 87 95
148 87 95
149 87 95
150 88 95
151 88 95
151 88 95
151 88 95
154 89 95
155 89 95
158 90 95
155 88 93
139 79 83
126 70 73
105 59 61
178 197 235
185 213 255
185 213 255
185 213 255
185 213 255
185 213 255
185 213 255
185 213 255
185 213 255
185 213 255
185 213 255
185 213 255
185 213 255
185 213 255
185 213 255
185 213 255
185 213 255
185 213 255
185 213 255
185 213 255
185 213 255
185 213 255
185 213 255
185 213 255
185 213 255
185 213 255
185 213 255
185 213 255
185 213 255
185 213 255
185 213 255
185 213 255
185 213 255
185 213 255
185 213 255
185 213 255
185 213 255
185 213 255
185 213 255
185 213 255
185 213 255
185 213 255
185 213 255
185 213 255
186 214 255
185 213 255
185 213 255
185 213 255
185 213 255
185 213 255
185 213 255
185 213 255
185 213 255
185 213 255
185 213 255
185 213 255
185 213 255
185 213 255
185 213 255
185 213 255
185 213 255
185 213 255
185 213 255
185 213 255
185 213 255
185 213 255
185 213 255
185 213 255
185 213 255
185 213 255
185 213 255
185 213 255
185 213 255
185 213 255
185 213 255
185 213 255
185 213 255
185 213 255
185 213 255
185 213 255
185 213 255
185 213 255
185 213 255
118 137 166
54 64 79
32 39 48
85 99 120
188 215 255
184 213 255
183 212 255
179 210 255
177 209 255
175 207 255
173 206 255
172 205 255
169 204 255
168 203 255
166 202 255
165 201 255
163 200 255
161 199 255
160 198 255
159 198 255
158 197 255
157 196 255
155 195 255
154 195 255
153 194 255
155 195 255
155 197 253
155 196 249
159 199 253
157 198 251
161 199 252
160 199 254
154 197 249
156 198 251
155 198 250
158 199 251
156 197 248
161 200 253
159 199 251
162 200 254
159 199 252
161 200 253
158 200 250
156 198 244
163 201 253
160 200 252
159 200 251
162 201 253
161 200 252
158 198 247
161 201 251
161 199 250
162 201 251
161 200 249
162 201 252
161 199 250
162 201 252
162 201 252
161 201 251
158 199 247
164 202 253
161 201 251
159 199 248
161 200 250
162 201 253
158 198 248
163 201 253
164 201 255
156 199 250
163 201 254
161 200 253
159 199 251
160 200 253
160 200 252
157 198 252
154 198 249
158 199 252
154 197 249
154 197 250
155 198 251
152 196 249
154 196 251
157 198 253
160 199 254
157 198 253
152 196 250
151 194 253
150 192 255
151 193 255
153 194 255
154 195 255
156 196 255
158 197 255
160 198 255
162 199 255
164 201 255
166 202 255
169 204 255
171 205 255
174 207 255
177 209 255
180 211 254
184 213 255
174 210 247
170 202 241
184 213 255
184 213 255
184 213 255
184 213 255
184 213 255
184 213 255
184 213 255
184 213 255
184 213 255
184 213 255
184 213 255
184 213 255
184 213 255
155 143 102
136 94 0
137 95 0
141 98 0
141 99 0
146 104 0
145 102 0
150 103 0
148 101 0
153 105 0
152 106 0
153 106 0
159 109 0
157 107 0
159 109 0
158 109 0
158 109 0
158 109 0
158 109 0
159 109 0
154 109 0
160 109 0
161 110 0
158 109 0
160 110 0
156 109 0
157 109 0
157 109 0
162 111 0
160 110 0
160 110 0
158 109 0
159 109 0
158 109 0
160 109 0
160 110 0
153 109 0
163 110 0
153 109 0
159 109 0
154 109 0
157 109 0
160 110 0
161 109 0
153 108 0
160 110 0
160 109 0
160 109 0
161 109 0
159 110 0
158 109 0
155 108 0
154 109 0
159 109 0
161 110 0
157 109 0
158 110 0
158 109 0
162 110 0
157 109 0
158 109 0
155 108 0
160 110 0
157 109 0
155 109 0
158 108 0
156 109 0
161 109 0
159 109 0
159 108 0
154 106 0
156 105 0
157 104 0
152 100 0
152 100 0
151 98 0
156 97 0
156 94 0
147 89 0
147 80 0
146 83 0
161 138 107
184 213 255
184 213 255
184 213 255
184 213 255
184 213 255
184 213 255
184 213 255
184 213 255
184 213 255
184 213 255
184 213 255
184 213 255
184 213 255
151 153 181
137 76 79
154 87 90
157 86 85
153 85 87
150 79 77
148 79 76
144 76 71
143 78 77
145 78 75
143 77 73
145 83 87
142 81 84
141 82 86
144 86 95
143 86 95
141 85 95
142 86 95
141 85 95
142 86 95
138 84 95
141 85 95
138 84 95
139 85 95
138 84 95
138 85 95
139 85 95
137 84 95
138 84 95
137 84 95
137 84 95
137 84 95
136 84 95
138 85 95
137 84 95
138 84 95
137 84 95
137 84 95
138 85 95
137 84 95
137 84 95
138 84 95
137 84 95
138 84 95
138 84 95
137 84 95
138 84 95
139 85 95
138 84 95
139 85 95
138 84 95
138 84 95
139 85 95
140 85 95
140 85 95
140 85 95
141 85 95
141 85 95
141 85 95
141 85 95
141 85 95
141 85 95
141 85 95
142 85 95
143 86 95
142 86 95
142 86 95
143 86 95
141 85 95
142 86 95
142 86 95
143 86 95
144 86 95
145 87 95
144 86 95
143 86 95
144 86 95
145 86 95
145 86 95
145 86 95
146 87 95
146 87 95
145 86 95
145 86 95
147 87 95
146 87 95
146 87 95
147 87 95
147 87 95
147 87 95
149 88 95
150 88 95
150 88 95
151 88 95
152 88 95
153 89 95
154 89 95
155 89 95
154 89 95
156 90 95
158 90 95
150 84 87
123 69 72
116 65 67
113 92 104
185 213 255
185 213 255
185 213 255
185 213 255
185 213 255
185 213 255
185 213 255
185 213 255
185 213 255
185 213 255
185 213 255
185 213 255
185 213 255
185 213 255
185 213 255
185 213 255
185 213 255
185 213 255
185 213 255
185 213 255
185 213 255
185 213 255
185 213 255
185 213 255
185 213 255
185 213 255
185 213 255
185 213 255
185 213 255
185 213 255
185 213 255
185 213 255
185 213 255
185 213 255
185 213 255
185 213 255
185 213 255
185 213 255
185 213 255
186 214 255
185 213 255
186 214 255
186 214 255
186 214 255
186 214 255
186 214 255
186 214 255
186 214 255
186 214 255
186 214 255
186 214 255
186 214 255
186 214 255
186 214 255
186 214 255
186 214 255
186 214 255
186 214 255
186 214 255
186 214 255
186 214 255
186 214 255
186 214 255
186 214 255
186 214 255
186 214 255
186 214 255
186 214 255
186 214 255
186 214 255
186 214 255
186 214 255
186 214 255
186 214 255
186 214 255
186 214 255
186 214 255
186 214 255
186 214 255
186 214 255
186 214 255
176 203 243
66 77 94
47 55 69
47 56 69
167 194 230
185 214 254
180 211 253
180 211 255
178 209 255
177 209 255
175 207 255
173 206 255
171 205 255
169 204 255
167 203 255
166 202 255
165 201 255
163 200 255
162 199 255
161 198 255
159 198 255
158 197 255
157 196 255
156 196 255
155 195 255
157 196 255
160 199 254
158 198 252
161 200 253
160 200 252
161 200 253
155 198 249
155 197 247
156 198 249
158 198 249
162 200 253
165 201 255
161 200 253
161 200 252
162 201 252
163 201 253
164 201 254
162 201 252
163 201 253
160 201 251
165 200 253
159 200 247
165 202 253
162 202 251
164 201 250
161 199 247
163 201 250
166 202 255
163 202 251
163 202 252
160 202 250
159 199 247
159 200 247
163 200 251
164 202 253
166 203 253
164 202 252
165 202 253
157 198 244
166 203 254
165 202 254
160 201 250
161 199 250
161 199 250
162 202 251
162 201 251
162 201 252
163 201 253
160 197 248
162 201 253
162 199 251
161 200 252
159 199 252
157 199 250
160 200 252
159 199 253
156 198 250
158 198 253
154 197 250
161 200 253
156 198 251
155 197 251
159 198 255
155 195 255
152 193 255
153 194 255
155 195 255
156 196 255
158 197 255
160 198 255
161 199 255
163 200 255
166 202 255
167 203 255
171 205 255
174 206 255
177 208 255
175 209 252
180 211 253
186 214 255
168 202 239
183 211 253
185 213 255
185 213 255
185 213 255
185 213 255
185 213 255
185 213 255
185 213 255
185 213 255
185 213 255
185 213 255
185 213 255
175 192 209
129 92 0
124 86 0
139 96 0
137 95 0
141 101 0
140 99 0
145 100 0
158 107 0
147 104 0
157 107 0
145 103 0
158 109 0
158 109 0
158 109 0
156 108 0
157 110 0
157 109 0
159 110 0
164 110 0
155 109 0
157 109 0
158 110 0
159 109 0
160 109 0
159 109 0
153 109 0
159 110 0
161 110 0
160 109 0
159 110 0
159 109 0
155 109 0
157 109 0
150 108 0
157 109 0
159 110 0
161 110 0
158 110 0
162 110 0
158 110 0
156 109 0
159 109 0
157 109 0
157 110 0
156 109 0
161 110 0
158 110 0
161 110 0
162 110 0
159 110 0
160 110 0
160 110 0
156 109 0
158 109 0
161 110 0
159 110 0
153 109 0
155 109 0
164 111 0
156 109 0
161 110 0
154 109 0
156 109 0
156 109 0
154 109 0
152 108 0
158 109 0
160 110 0
157 107 0
156 109 0
157 107 0
154 106 0
157 106 0
154 104 0
151 99 0
154 98 0
154 97 0
149 90 0
148 90 0
148 79 0
148 82 0
142 80 0
177 191 217
185 213 255
185 213 255
185 213 255
185 213 255
185 213 255
185 213 255
185 213 255
185 213 255
185 213 255
185 213 255
185 213 255
181 206 247
139 93 101
145 81 84
156 82 79
151 78 74
147 73 66
147 75 69
146 75 69
144 72 62
144 72 62
143 74 65
143 77 74
144 80 80
141 78 76
144 81 84
144 85 93
144 86 94
143 86 95
142 85 95
142 86 95
140 85 95
140 85 95
141 85 95
139 85 95
140 85 95
141 85 95
138 84 95
139 85 95
138 84 95
138 84 95
138 84 95
139 85 95
139 85 95
138 84 95
138 84 95
138 84 95
139 85 95
139 85 95
139 85 95
138 84 95
140 85 95
138 85 95
138 84 95
139 85 95
138 85 95
139 85 95
140 85 95
141 85 95
141 85 95
140 85 95
138 85 95
141 85 95
140 85 95
142 85 95
142 85 95
141 85 95
140 85 95
141 85 95
142 85 95
143 86 95
143 86 95
143 86 95
143 86 95
144 86 95
144 86 95
143 86 95
143 86 95
143 86 95
143 86 95
144 86 95
145 86 95
144 86 95
146 87 95
146 87 95
144 86 95
147 87 95
145 86 95
147 87 95
146 87 95
147 87 95
147 87 95
148 87 95
147 87 95
147 87 95
148 87 95
149 87 95
149 88 95
149 87 95
149 88 95
149 88 95
149 88 95
149 88 95
150 88 95
150 88 95
152 88 95
151 88 95
153 89 95
154 89 95
154 89 95
155 89 95
157 90 95
159 90 95
152 86 90
138 77 81
123 69 71
101 56 58
148 156 184
186 214 255
186 214 255
186 214 255
186 214 255
186 214 255
186 214 255
186 214 255
186 214 255
186 214 255
186 214 255
186 214 255
186 214 255
186 214 255
186 214 255
186 214 255
186 214 255
186 214 255
186 214 255
186 214 255
186 214 255
186 214 255
186 214 255
186 214 255
186 214 255
186 214 255
186 214 255
186 214 255
186 214 255
186 214 255
186 214 255
186 214 255
186 214 255
186 214 255
186 214 255
186 214 255
186 214 255
186 214 255
186 214 255
186 214 255
186 214 255
186 214 255
186 214 255
186 214 255
186 214 255
186 214 255
186 214 255
186 214 255
186 214 255
186 214 255
186 214 255
186 214 255
186 214 255
186 214 255
186 214 255
186 214 255
186 214 255
186 214 255
186 214 255
186 214 255
186 214 255
186 214 255
186 214 255
186 214 255
186 214 255
186 214 255
186 214 255
186 214 255
186 214 255
186 214 255
186 214 255
186 214 255
186 214 255
186 214 255
186 214 255
186 214 255
186 214 255
186 214 255
186 214 255
186 214 255
186 214 255
112 129 156
46 54 66
27 33 40
104 120 143
187 215 254
185 213 255
179 211 253
180 210 255
179 209 255
176 208 255
175 207 255
172 206 255
170 204 255
169 204 255
167 203 255
165 202 255
165 201 255
163 200 255
162 200 255
161 199 255
160 198 255
159 197 255
158 197 255
157 196 255
158 197 255
160 199 253
162 200 253
162 200 253
159 200 251
161 200 253
162 201 253
159 200 251
159 200 251
161 200 251
161 201 251
157 200 249
161 201 251
158 200 249
162 201 252
159 201 249
159 198 246
159 201 249
163 202 252
160 201 249
164 202 252
162 201 250
168 203 254
160 201 249
162 201 247
163 202 249
161 200 248
158 197 243
160 199 245
167 202 252
159 197 244
165 203 252
161 200 248
163 199 247
165 201 249
163 203 250
165 203 252
164 202 252
166 203 253
166 204 252
166 204 252
164 201 250
166 203 253
163 203 251
161 200 248
164 203 252
161 198 248
162 202 251
161 200 250
165 202 254
162 201 251
164 202 253
162 201 251
162 201 252
159 200 250
154 199 246
156 198 247
159 200 251
156 199 249
151 198 245
158 199 251
162 200 254
159 199 251
159 199 253
162 199 255
155 195 255
154 194 255
155 195 255
156 196 255
158 197 255
160 198 255
162 199 255
163 200 255
165 201 255
168 203 255
171 205 255
173 206 255
176 208 255
179 209 255
177 210 253
181 212 253
184 214 253
171 206 244
185 213 255
185 213 255
185 213 255
185 213 255
185 213 255
185 213 255
185 213 255
185 213 255
185 213 255
185 213 255
185 213 255
149 135 89
132 93 0
128 90 0
143 99 0
131 94 0
138 98 0
149 103 0
142 99 0
149 104 0
156 108 0
158 108 0
152 106 0
162 110 0
155 108 0
153 108 0
157 109 0
159 109 0
159 109 0
161 110 0
155 109 0
159 110 0
158 109 0
158 110 0
163 110 0
155 109 0
158 110 0
162 110 0
157 109 0
157 109 0
159 110 0
159 110 0
158 110 0
154 109 0
162 110 0
159 110 0
156 109 0
156 109 0
161 110 0
156 109 0
160 110 0
158 110 0
161 110 0
157 110 0
157 109 0
154 109 0
154 109 0
158 109 0
156 109 0
156 109 0
156 109 0
159 110 0
161 110 0
158 109 0
157 109 0
155 109 0
160 110 0
157 109 0
156 109 0
162 110 0
162 110 0
155 109 0
156 109 0
163 111 0
160 110 0
162 110 0
155 109 0
156 109 0
162 110 0
159 109 0
160 110 0
157 108 0
156 105 0
156 103 0
156 105 0
156 103 0
155 98 0
150 94 0
153 94 0
149 92 0
151 87 0
148 87 0
151 83 0
143 77 0
153 114 76
185 213 255
185 213 255
185 213 255
185 213 255
185 213 255
185 213 255
185 213 255
185 213 255
185 213 255
185 213 255
185 213 255
154 154 180
132 73 75
151 82 83
153 79 74
149 74 68
145 66 53
143 66 53
143 66 51
144 72 63
142 68 57
141 71 63
143 73 65
142 75 71
143 80 81
144 80 81
144 82 84
144 84 89
143 85 92
143 86 95
143 86 95
142 86 95
141 85 95
141 85 95
142 86 95
141 85 95
141 85 95
141 85 95
141 85 95
141 85 95
140 85 95
140 85 95
140 85 95
141 85 95
141 85 95
140 85 95
139 85 95
141 85 95
140 85 95
141 85 95
140 85 95
140 85 95
140 85 95
140 85 95
139 85 95
142 86 95
140 85 95
142 85 95
141 85 95
141 85 95
142 86 95
142 85 95
142 85 95
142 86 95
143 86 95
143 86 95
143 86 95
145 86 95
142 86 95
145 86 95
143 86 95
145 86 95
145 86 95
145 86 95
144 86 95
145 86 95
145 86 95
145 86 95
146 87 95
145 87 95
145 87 95
146 87 95
146 87 95
146 87 95
147 87 95
144 86 95
146 87 95
146 87 95
148 87 95
147 87 95
148 87 95
149 87 95
148 87 95
149 87 95
149 88 95
149 88 95
149 88 95
149 87 95
151 88 95
152 88 95
148 87 95
151 88 95
151 88 95
152 88 95
151 88 95
152 88 95
153 89 95
154 89 95
154 89 95
155 89 95
157 90 95
157 90 95
159 90 95
160 91 95
152 86 89
139 78 82
118 66 67
126 100 112
186 214 255
186 214 255
186 214 255
186 214 255
186 214 255
186 214 255
186 214 255
186 214 255
186 214 255
186 214 255
186 214 255
186 214 255
186 214 255
186 214 255
186 214 255
186 214 255
186 214 255
186 214 255
186 214 255
186 214 255
186 214 255
186 214 255
186 214 255
186 214 255
186 214 255
186 214 255
186 214 255
186 214 255
186 214 255
186 214 255
186 214 255
186 214 255
186 214 255
186 214 255
186 214 255
186 214 255
186 214 255
186 214 255
186 214 255
186 214 255
186 214 255
186 214 255
186 214 255
186 214 255
186 214 255
186 214 255
186 214 255
186 214 255
186 214 255
186 214 255
186 214 255
186 214 255
186 214 255
186 214 255
186 214 255
186 214 255
186 214 255
186 214 255
186 214 255
186 214 255
186 214 255
186 214 255
186 214 255
186 214 255
186 214 255
186 214 255
186 214 255
186 214 255
186 214 255
186 214 255
186 214 255
186 214 255
186 214 255
186 214 255
186 214 255
186 214 255
186 214 255
186 214 255
186 214 255
160 184 220
64 75 92
44 52 63
41 48 58
186 213 252
185 214 254
180 211 253
182 212 255
180 210 255
177 209 255
175 207 255
173 206 255
172 206 255
171 205 255
169 204 255
168 203 255
167 202 255
165 201 255
164 201 255
163 200 255
161 199 255
161 199 255
160 198 255
159 197 255
159 197 255
162 200 254
162 199 251
167 203 254
162 201 251
165 202 253
161 201 251
160 200 251
157 200 248
158 200 249
160 201 250
162 200 250
163 202 252
164 202 253
163 202 251
163 202 251
162 201 251
165 203 252
164 202 252
161 201 250
163 202 251
169 204 255
169 204 255
162 201 247
164 201 250
160 199 246
165 202 250
167 201 250
167 204 252
162 198 244
166 202 250
163 202 248
169 204 254
164 202 249
161 202 246
168 204 251
168 204 251
165 204 251
166 202 250
168 204 254
165 203 252
159 199 244
167 204 253
164 204 251
164 203 251
165 203 252
161 202 249
164 203 251
164 201 250
164 202 251
163 200 250
166 203 253
163 202 251
165 202 253
162 202 251
163 202 252
162 201 252
162 201 252
160 201 251
155 199 247
160 200 252
154 197 246
156 199 249
166 202 255
162 201 253
162 200 254
161 199 253
155 195 255
156 196 255
157 197 255
158 197 255
160 198 255
162 199 255
164 200 255
164 197 245
168 203 255
169 202 250
171 201 245
175 206 253
178 208 253
179 210 255
182 212 254
185 214 254
169 203 241
182 211 252
185 213 255
185 213 255
185 213 255
185 213 255
185 213 255
185 213 255
185 213 255
185 213 255
185 213 255
179 195 215
138 98 0
126 89 0
137 96 0
134 95 0
138 97 0
153 105 0
146 101 0
144 100 0
151 105 0
146 103 0
152 107 0
155 108 0
153 107 0
155 108 0
155 108 0
148 107 0
156 109 0
160 110 0
162 110 0
158 110 0
164 112 0
159 109 0
159 110 0
155 109 0
162 110 0
156 109 0
151 108 0
157 109 0
158 109 0
156 109 0
153 109 0
162 110 0
158 110 0
156 109 0
156 110 0
160 110 0
158 110 0
151 109 0
159 110 0
164 111 0
159 110 0
154 109 0
158 109 0
156 109 0
151 108 0
158 110 0
157 109 0
159 110 0
157 109 0
154 109 0
159 110 0
161 110 0
163 111 0
159 110 0
153 109 0
154 109 0
158 109 0
160 110 0
161 110 0
155 109 0
157 109 0
153 108 0
156 109 0
163 111 0
153 109 0
156 109 0
155 109 0
153 109 0
154 108 0
155 109 0
156 109 0
163 109 0
156 106 0
161 106 0
153 104 0
151 98 0
152 98 0
152 96 0
154 94 0
149 91 0
145 81 0
153 84 0
147 83 0
142 68 0
176 183 204
185 213 255
185 213 255
185 213 255
185 213 255
185 213 255
185 213 255
185 213 255
185 213 255
185 213 255
180 205 245
129 81 87
141 71 67
152 75 67
147 69 59
144 64 50
144 64 51
143 68 58
142 66 53
143 66 50
144 68 53
142 65 49
145 75 67
144 72 63
143 78 74
143 80 82
145 81 82
144 84 89
144 85 93
146 87 95
144 86 95
142 86 95
144 86 95
141 85 95
143 86 95
141 85 95
142 86 95
142 85 95
141 85 95
140 85 95
142 86 95
142 86 95
141 85 95
142 86 95
142 85 95
141 85 95
140 85 95
142 86 95
142 85 95
141 85 95
142 85 95
142 85 95
143 86 95
142 86 95
142 86 95
142 86 95
144 86 95
143 86 95
145 86 95
143 86 95
142 86 95
145 86 95
144 86 95
144 86 95
144 86 95
145 86 95
144 86 95
144 86 95
145 86 95
145 86 95
145 86 95
144 86 95
145 86 95
144 86 95
146 87 95
146 87 95
146 87 95
147 87 95
146 87 95
147 87 95
146 87 95
147 87 95
147 87 95
148 87 95
149 88 95
147 87 95
148 87 95
147 87 95
150 88 95
148 87 95
149 87 95
148 87 95
147 87 95
149 87 95
149 88 95
148 87 95
149 88 95
150 88 95
151 88 95
151 88 95
150 88 95
151 88 95
152 88 95
151 88 95
154 89 95
153 89 95
153 89 95
154 89 95
155 89 95
157 90 95
157 90 95
158 90 95
161 91 95
160 91 95
160 90 94
146 82 84
130 72 74
103 57 58
153 164 193
186 214 255
186 214 255
186 214 255
186 214 255
186 214 255
186 214 255
186 214 255
186 214 255
186 214 255
186 214 255
186 214 255
186 214 255
186 214 255
186 214 255
186 214 255
186 214 255
186 214 255
186 214 255
186 214 255
186 214 255
186 214 255
186 214 255
186 214 255
186 214 255
186 214 255
186 214 255
186 214 255
186 214 255
186 214 255
186 214 255
186 214 255
186 214 255
186 214 255
186 214 255
186 214 255
186 214 255
186 214 255
186 214 255
186 214 255
187 214 255
187 214 255
187 214 255
187 214 255
187 214 255
187 214 255
187 214 255
187 214 255
187 214 255
187 214 255
186 214 255
186 214 255
186 214 255
186 214 255
186 214 255
186 214 255
186 214 255
186 214 255
186 214 255
186 214 255
186 214 255
186 214 255
186 214 255
186 214 255
186 214 255
186 214 255
186 214 255
186 214 255
186 214 255
186 214 255
186 214 255
186 214 255
186 214 255
186 214 255
186 214 255
186 214 255
186 214 255
186 214 255
186 214 255
108 125 151
60 71 87
44 52 63
123 141 168
187 215 255
185 213 255
183 212 255
181 211 255
179 210 255
177 209 255
176 208 255
174 207 255
172 206 255
171 205 255
169 204 255
168 203 255
167 203 255
166 202 255
165 201 255
164 200 255
163 200 255
162 199 255
161 199 255
160 198 255
164 201 255
165 201 255
164 202 253
165 202 253
167 202 255
163 202 251
158 198 247
160 201 250
155 200 245
163 202 251
164 202 252
164 202 252
161 202 249
166 203 253
163 202 251
163 202 250
165 203 252
166 203 252
163 202 248
166 203 250
168 204 253
167 204 253
167 204 252
167 202 252
166 203 250
167 204 252
164 202 249
168 204 251
165 204 248
167 204 253
164 200 246
166 204 250
169 204 254
162 202 247
167 204 252
167 204 249
166 203 249
166 204 252
162 199 243
165 205 249
168 204 251
167 204 251
165 204 250
163 198 246
164 202 247
170 205 254
167 204 251
166 204 251
165 202 250
164 201 250
165 201 248
162 201 248
162 202 250
164 203 251
161 202 249
164 203 251
165 202 253
160 201 249
163 201 253
162 202 251
162 201 252
159 200 249
157 200 249
159 199 247
164 202 253
163 201 253
161 200 253
162 199 255
157 196 255
158 197 255
159 198 255
161 199 255
162 199 255
164 201 255
164 195 238
166 198 245
169 199 243
170 197 235
175 204 248
174 201 240
176 201 234
181 211 255
186 214 255
185 214 253
172 205 243
186 214 255
186 214 255
186 214 255
186 214 255
186 214 255
186 214 255
186 214 255
186 214 255
186 214 255
152 138 94
119 86 0
113 79 0
137 99 0
134 95 0
129 91 0
133 93 0
146 102 0
147 101 0
145 101 0
156 107 0
148 104 0
153 108 0
155 109 0
155 108 0
148 108 0
156 108 0
161 110 0
156 109 0
156 109 0
155 109 0
157 109 0
155 109 0
149 108 0
155 109 0
161 110 0
161 111 0
154 109 0
165 111 0
157 110 0
158 109 0
162 110 0
154 110 0
158 109 0
158 109 0
156 110 0
154 109 0
159 110 0
156 110 0
161 110 0
163 111 0
154 109 0
158 109 0
158 110 0
159 110 0
157 109 0
157 110 0
158 110 0
159 110 0
156 110 0
160 110 0
154 109 0
161 111 0
151 108 0
161 110 0
157 110 0
160 110 0
158 110 0
157 110 0
155 109 0
158 110 0
159 110 0
158 110 0
158 110 0
156 110 0
158 109 0
152 109 0
154 109 0
155 109 0
150 108 0
154 109 0
152 107 0
157 106 0
153 106 0
156 105 0
158 103 0
148 100 0
149 98 0
158 93 0
154 94 0
151 89 0
148 87 0
152 81 0
146 73 0
142 72 0
153 107 69
186 214 255
186 214 255
186 214 255
186 214 255
186 214 255
186 214 255
186 214 255
186 214 255
186 214 255
156 149 173
133 72 73
145 69 63
149 67 58
145 66 53
143 62 44
144 64 47
141 61 42
143 56 31
143 66 53
143 64 45
142 63 42
141 64 45
144 69 56
146 75 67
146 75 67
147 81 82
147 81 81
146 85 91
147 87 95
145 86 95
145 86 95
144 86 95
144 86 95
144 86 95
144 86 95
143 86 95
144 86 95
142 86 95
143 86 95
144 86 95
144 86 95
144 86 95
140 85 95
142 86 95
143 86 95
144 86 95
143 86 95
143 86 95
143 86 95
144 86 95
144 86 95
143 86 95
144 86 95
146 87 95
145 86 95
145 86 95
144 86 95
144 86 95
144 86 95
146 87 95
146 87 95
145 86 95
145 86 95
144 86 95
145 86 95
146 87 95
145 86 95
146 87 95
146 87 95
146 87 95
148 87 95
148 87 95
148 87 95
147 87 95
149 87 95
148 87 95
149 87 95
149 87 95
148 87 95
148 87 95
148 87 95
150 88 95
150 88 95
149 88 95
149 88 95
150 88 95
149 88 95
149 88 95
151 88 95
151 88 95
150 88 95
150 88 95
151 88 95
150 88 95
150 88 95
151 88 95
151 88 95
152 88 95
153 89 95
152 88 95
152 88 95
154 89 95
153 89 95
153 89 95
153 89 95
155 89 95
155 89 95
156 90 95
156 90 95
157 90 95
158 90 95
159 90 95
160 91 95
164 92 95
139 78 81
132 73 75
109 60 62
124 96 107
186 214 255
186 214 255
186 214 255
186 214 255
186 214 255
186 214 255
186 214 255
186 214 255
186 214 255
186 214 255
186 214 255
186 214 255
186 214 255
186 214 255
186 214 255
186 214 255
186 214 255
186 214 255
186 214 255
186 214 255
186 214 255
186 214 255
186 214 255
186 214 255
186 214 255
186 214 255
186 214 255
187 214 255
186 214 255
187 214 255
187 214 255
187 214 255
187 214 255
187 214 255
187 214 255
187 214 255
187 214 255
187 214 255
187 214 255
187 214 255
187 214 255
187 214 255
187 214 255
187 214 255
187 214 255
187 214 255
187 214 255
187 214 255
187 214 255
187 214 255
187 214 255
187 214 255
187 214 255
187 214 255
187 214 255
187 214 255
187 214 255
187 214 255
187 214 255
187 214 255
187 214 255
187 214 255
187 214 255
187 214 255
187 214 255
187 214 255
187 214 255
187 214 255
187 214 255
187 214 255
187 214 255
187 214 255
187 214 255
187 214 255
187 214 255
187 214 255
187 214 255
173 199 238
85 99 120
40 48 58
32 37 46
176 203 239
185 214 254
182 212 254
182 212 255
181 211 255
179 210 255
177 208 255
176 208 255
174 207 255
173 206 255
171 205 255
170 204 255
169 203 255
168 203 255
167 202 255
166 202 255
165 201 255
163 200 255
162 200 255
162 199 255
164 200 255
165 202 253
167 203 253
166 203 254
166 203 253
166 203 253
161 201 249
159 201 248
160 201 249
164 203 251
163 200 248
166 203 251
165 203 251
163 203 250
165 203 251
164 202 249
166 204 251
168 203 251
163 203 247
163 202 247
165 203 249
164 201 246
166 203 249
166 202 248
169 203 247
166 201 246
169 205 252
159 197 237
169 204 250
168 203 251
167 201 246
165 201 245
167 204 250
166 204 250
165 205 249
168 204 250
164 202 245
167 204 250
168 206 251
166 205 250
166 205 249
171 206 253
171 205 255
165 204 250
168 205 251
165 202 249
168 203 250
170 205 254
163 202 247
170 205 255
166 202 250
168 204 253
168 204 253
166 202 250
167 204 253
164 203 251
167 203 253
165 203 252
168 204 254
163 200 250
162 202 250
161 201 250
160 201 249
159 201 249
153 199 245
166 203 253
162 201 251
161 201 252
161 200 252
161 199 254
159 198 255
160 198 255
161 198 253
163 199 253
164 199 250
166 200 250
167 198 243
164 191 227
171 200 240
170 201 245
174 199 232
171 191 217
172 195 225
185 213 255
186 214 255
168 202 238
186 214 255
186 214 255
186 214 255
186 214 255
186 214 255
186 214 255
186 214 255
186 214 255
173 191 212
116 88 7
133 94 0
127 91 0
139 99 0
139 97 0
130 93 0
144 99 0
146 102 0
142 101 0
152 104 0
146 102 0
150 103 0
149 105 0
153 107 0
149 105 0
159 110 0
149 107 0
155 109 0
151 108 0
159 110 0
153 109 0
157 110 0
155 109 0
157 110 0
158 110 0
158 110 0
155 109 0
155 109 0
155 109 0
159 111 0
153 109 0
154 110 0
151 109 0
156 109 0
158 110 0
158 110 0
157 110 0
159 110 0
155 109 0
157 110 0
158 110 0
159 110 0
158 110 0
155 109 0
154 109 0
156 110 0
156 109 0
157 110 0
161 111 0
150 108 0
151 109 0
158 110 0
154 109 0
158 110 0
157 110 0
154 109 0
160 111 0
158 110 0
150 109 0
155 109 0
157 110 0
153 109 0
159 110 0
155 109 0
153 109 0
156 109 0
155 109 0
162 111 0
156 109 0
156 109 0
156 109 0
155 108 0
156 107 0
157 106 0
150 104 0
150 101 0
147 98 0
154 96 0
151 93 0
153 92 0
155 91 0
147 85 0
151 90 0
149 76 0
148 75 0
142 64 7
182 201 235
186 214 255
186 214 255
186 214 255
186 214 255
186 214 255
186 214 255
186 214 255
186 214 255
116 85 94
133 67 63
148 65 55
145 60 47
141 55 37
138 53 32
142 57 39
142 59 38
142 57 36
141 58 37
142 60 40
144 65 47
146 67 48
143 69 55
147 72 60
144 74 64
145 77 72
146 81 80
147 84 88
148 87 95
146 87 95
147 87 95
146 87 95
146 87 95
145 86 95
145 86 95
145 86 95
144 86 95
144 86 95
144 86 95
146 87 95
145 86 95
144 86 95
144 86 95
145 86 95
146 87 95
143 86 95
145 86 95
143 86 95
146 87 95
146 87 95
146 87 95
145 86 95
147 87 95
146 87 95
146 87 95
145 86 95
147 87 95
146 87 95
145 86 95
146 87 95
146 87 95
146 87 95
147 87 95
147 87 95
147 87 95
148 87 95
148 87 95
148 87 95
149 88 95
149 87 95
149 88 95
149 87 95
149 87 95
148 87 95
150 88 95
148 87 95
150 88 95
149 88 95
150 88 95
151 88 95
151 88 95
150 88 95
150 88 95
150 88 95
151 88 95
151 88 95
151 88 95
152 88 95
152 88 95
152 88 95
152 88 95
151 88 95
152 88 95
152 88 95
153 89 95
152 88 95
154 89 95
154 89 95
153 89 95
152 88 95
155 89 95
154 89 95
153 89 95
154 89 95
155 89 95
156 89 95
157 90 95
156 90 95
157 90 95
157 90 95
161 91 95
158 90 95
160 91 95
161 90 94
158 88 91
145 81 84
117 65 66
113 63 64
174 194 230
187 214 255
187 214 255
187 214 255
187 214 255
187 214 255
187 214 255
187 214 255
187 214 255
187 214 255
187 214 255
187 214 255
187 214 255
187 214 255
187 214 255
187 214 255
187 214 255
187 214 255
187 214 255
187 214 255
187 214 255
187 214 255
187 214 255
187 214 255
187 214 255
187 214 255
187 214 255
187 214 255
187 214 255
187 214 255
187 214 255
187 214 255
187 214 255
187 214 255
187 214 255
187 214 255
187 214 255
187 214 255
187 214 255
187 214 255
187 214 255
187 214 255
187 214 255
187 214 255
187 214 255
187 214 255
187 214 255
187 214 255
187 214 255
187 214 255
187 214 255
187 214 255
187 214 255
187 214 255
187 214 255
187 214 255
187 214 255
187 214 255
187 214 255
187 214 255
187 214 255
187 214 255
187 214 255
187 214 255
187 214 255
187 214 255
187 214 255
187 214 255
187 214 255
187 214 255
187 214 255
187 214 255
187 214 255
187 214 255
187 214 255
187 214 255
187 214 255
150 173 207
72 84 102
42 50 61
86 98 117
186 215 254
185 213 255
185 213 255
182 212 255
181 211 255
179 210 255
177 209 255
176 208 255
174 207 255
173 206 255
172 205 255
171 205 255
169 204 255
168 203 255
167 203 255
166 202 255
166 202 255
164 201 255
164 200 255
163 200 255
168 203 255
169 204 255
167 203 252
170 205 255
167 203 253
161 202 248
166 203 253
160 202 248
163 201 248
163 201 247
168 204 253
167 204 252
164 203 249
165 204 250
169 205 253
165 202 247
169 205 253
168 204 250
168 204 250
169 205 253
168 203 248
167 203 250
167 205 251
169 206 252
168 204 250
170 205 252
165 201 244
170 204 251
172 205 253
170 204 251
167 204 246
165 200 245
169 204 248
172 206 255
166 205 250
170 206 252
169 206 252
170 206 252
169 205 252
170 206 252
171 206 253
170 205 252
168 205 250
161 204 246
166 202 246
171 206 253
167 203 250
172 207 253
170 205 253
169 206 252
168 203 250
168 205 251
164 204 249
166 202 250
168 204 252
166 204 251
163 203 249
166 203 252
167 204 252
166 204 251
167 204 253
162 202 249
166 203 253
162 202 250
163 202 251
159 201 249
168 203 254
167 203 255
164 202 253
167 203 255
156 175 191
152 147 117
151 143 107
154 148 117
161 178 194
166 199 248
168 200 248
167 198 243
170 199 240
173 201 240
174 199 235
174 196 225
173 192 215
176 205 243
185 213 255
184 214 253
181 209 250
186 214 255
186 214 255
186 214 255
186 214 255
186 214 255
186 214 255
186 214 255
153 151 130
129 90 0
125 89 0
132 92 0
122 87 0
128 90 0
125 90 0
140 101 0
140 100 0
140 100 0
148 104 0
158 109 0
147 104 0
152 107 0
146 106 0
155 109 0
155 109 0
153 110 0
154 109 0
159 110 0
150 108 0
155 109 0
144 108 0
155 109 0
158 110 0
157 110 0
152 109 0
151 109 0
158 110 0
155 109 0
156 110 0
157 110 0
152 109 0
160 111 0
153 109 0
149 108 0
159 110 0
156 110 0
151 109 0
163 111 0
162 110 0
151 109 0
160 110 0
161 111 0
154 109 0
161 111 0
159 110 0
154 109 0
154 110 0
151 109 0
157 110 0
156 109 0
151 109 0
160 110 0
156 109 0
160 110 0
148 108 0
159 110 0
158 110 0
155 109 0
147 108 0
157 110 0
157 110 0
159 110 0
152 109 0
149 108 0
157 110 0
165 111 0
159 110 0
154 110 0
157 110 0
156 110 0
151 108 0
153 106 0
156 109 0
152 102 0
149 100 0
156 102 0
151 95 0
148 96 0
155 94 0
146 88 0
146 87 0
150 86 0
148 77 0
150 71 0
143 64 0
164 145 138
186 214 255
186 214 255
186 214 255
186 214 255
186 214 255
186 214 255
186 214 255
162 175 207
121 64 63
139 61 50
148 64 52
144 58 44
141 54 37
141 51 27
142 49 23
139 52 27
141 49 18
140 53 29
144 58 34
145 62 42
145 65 45
141 65 46
147 71 60
147 76 68
147 81 80
149 82 82
149 84 86
150 87 92
148 87 95
147 87 95
147 87 95
149 88 95
146 87 95
147 87 95
146 87 95
147 87 95
147 87 95
146 87 95
146 87 95
149 87 95
147 87 95
146 87 95
146 87 95
147 87 95
146 87 95
146 87 95
147 87 95
146 87 95
147 87 95
147 87 95
146 87 95
148 87 95
148 87 95
149 87 95
148 87 95
147 87 95
147 87 95
149 87 95
148 87 95
148 87 95
150 88 95
149 88 95
149 87 95
150 88 95
149 87 95
149 88 95
148 87 95
151 88 95
150 88 95
151 88 95
151 88 95
149 88 95
151 88 95
150 88 95
152 88 95
152 88 95
150 88 95
152 88 95
153 89 95
152 88 95
153 89 95
152 88 95
154 89 95
152 88 95
154 89 95
152 88 95
154 89 95
153 89 95
153 89 95
154 89 95
153 89 95
153 89 95
155 89 95
154 89 95
155 89 95
156 89 95
154 89 95
156 89 95
154 89 95
156 90 95
156 90 95
156 90 95
155 89 95
155 89 95
157 90 95
156 90 95
156 89 95
157 90 95
159 90 95
159 90 95
158 90 95
162 91 95
162 91 95
162 91 94
154 86 88
149 82 84
105 58 58
136 127 146
187 214 255
187 214 255
187 214 255
187 214 255
187 214 255
187 214 255
187 214 255
187 214 255
187 214 255
187 214 255
187 214 255
187 214 255
187 214 255
187 214 255
187 214 255
187 214 255
187 214 255
187 214 255
187 214 255
187 214 255
187 214 255
187 214 255
187 214 255
187 214 255
187 214 255
187 214 255
187 214 255
187 214 255
187 214 255
187 214 255
187 214 255
187 214 255
187 214 255
187 214 255
187 214 255
187 214 255
187 214 255
187 214 255
187 215 255
187 215 255
187 215 255
187 215 255
187 215 255
187 215 255
187 215 255
187 215 255
187 215 255
187 215 255
187 215 255
187 215 255
187 215 255
187 215 255
187 215 255
187 215 255
187 215 255
187 215 255
187 215 255
187 215 255
187 215 255
187 215 255
187 215 255
187 215 255
187 215 255
187 215 255
187 215 255
187 215 255
187 215 255
187 215 255
187 215 255
187 215 255
187 215 255
187 215 255
187 215 255
187 215 255
187 215 255
185 212 253
93 108 130
68 79 97
35 41 51
154 176 209
186 214 254
182 213 253
184 213 255
182 211 255
180 210 255
179 209 255
177 208 255
176 208 255
175 207 255
173 206 255
172 206 255
171 205 255
170 204 255
169 204 255
168 203 255
167 203 255
166 202 255
166 202 255
165 201 255
168 204 255
166 203 253
168 204 253
169 204 254
168 204 253
168 204 253
160 202 247
166 204 251
164 203 250
164 203 249
167 204 252
167 204 251
169 205 253
171 205 253
167 204 251
169 205 252
165 204 249
171 206 253
168 205 251
170 206 252
170 204 252
168 202 246
168 205 249
173 207 254
171 204 250
167 202 248
170 205 248
163 199 239
168 203 248
172 207 252
171 206 253
173 207 254
172 206 250
165 205 246
171 205 251
170 205 251
171 206 253
173 207 253
172 206 254
173 207 253
171 206 250
167 204 245
171 207 253
170 206 252
170 205 250
166 203 248
170 206 252
171 206 253
169 204 250
169 206 251
168 206 251
173 206 255
171 206 253
172 207 253
173 206 255
169 205 253
168 203 250
164 204 249
168 205 252
171 205 253
167 204 251
166 204 251
168 205 253
166 204 251
165 203 251
164 203 251
159 201 247
162 203 249
169 205 253
166 202 250
164 194 234
161 176 185
141 103 7
145 103 2
140 101 2
136 99 5
144 121 58
163 183 207
168 198 240
170 199 240
173 202 243
172 201 243
172 200 239
177 201 232
177 197 222
184 208 241
186 215 253
178 207 246
187 214 255
187 214 255
187 214 255
187 214 255
187 214 255
187 214 255
187 214 255
130 108 43
114 84 0
122 88 0
125 89 0
125 89 0
130 95 0
137 97 0
140 100 0
148 104 0
141 102 0
136 98 0
148 106 0
151 108 0
147 107 0
153 108 0
150 107 0
153 108 0
153 109 0
150 108 0
158 110 0
152 109 0
158 110 0
150 109 0
157 110 0
157 110 0
154 109 0
155 110 0
154 109 0
152 110 0
156 109 0
152 109 0
149 109 0
153 109 0
156 110 0
148 109 0
153 109 0
160 110 0
158 110 0
154 110 0
159 110 0
159 110 0
158 110 0
153 109 0
151 109 0
155 109 0
153 109 0
152 109 0
154 110 0
157 110 0
153 109 0
158 110 0
153 109 0
157 110 0
154 110 0
158 110 0
157 110 0
153 109 0
152 109 0
155 110 0
154 109 0
156 110 0
158 110 0
153 109 0
158 110 0
156 110 0
156 110 0
153 109 0
156 109 0
155 109 0
156 109 0
153 110 0
153 108 0
155 109 0
158 107 0
161 108 0
157 105 0
150 102 0
153 102 0
152 93 0
149 98 0
149 94 0
150 88 0
151 90 0
151 77 0
143 76 0
148 70 0
144 63 0
146 84 43
187 214 255
187 214 255
187 214 255
187 214 255
187 214 255
187 214 255
187 214 255
141 126 144
131 59 51
138 53 43
144 52 35
141 49 28
141 46 21
138 45 20
139 43 17
139 44 13
140 50 22
144 51 23
144 53 21
145 59 38
142 60 39
146 68 52
146 72 59
147 77 70
147 76 69
146 79 76
148 83 84
149 87 94
149 86 92
151 88 95
150 88 95
149 88 95
149 88 95
148 87 95
149 87 95
148 87 95
149 88 95
148 87 95
148 87 95
149 87 95
149 87 95
149 88 95
149 88 95
149 87 95
147 87 95
148 87 95
149 88 95
148 87 95
149 88 95
149 87 95
149 87 95
149 87 95
150 88 95
149 88 95
149 88 95
150 88 95
150 88 95
151 88 95
149 88 95
150 88 95
150 88 95
151 88 95
151 88 95
150 88 95
151 88 95
150 88 95
151 88 95
151 88 95
152 88 95
153 89 95
152 88 95
151 88 95
154 89 95
153 89 95
153 89 95
152 88 95
152 88 95
153 89 95
153 89 95
153 89 95
153 89 95
154 89 95
153 89 95
154 89 95
153 89 95
155 89 95
154 89 95
155 89 95
155 89 95
154 89 95
155 89 95
155 89 95
155 89 95
155 89 95
157 90 95
156 89 95
157 90 95
154 89 95
156 90 95
157 90 95
158 90 95
158 90 95
156 90 95
159 90 95
158 90 95
157 90 95
159 90 95
159 90 95
157 90 95
162 91 95
159 90 95
161 91 95
164 92 95
163 91 94
152 84 86
142 78 80
118 65 66
103 69 74
187 215 255
187 215 255
187 215 255
187 215 255
187 215 255
187 215 255
187 215 255
187 215 255
187 215 255
187 215 255
187 215 255
187 215 255
187 215 255
187 215 255
187 215 255
187 215 255
187 215 255
187 215 255
187 215 255
187 215 255
187 215 255
187 215 255
187 215 255
187 215 255
187 215 255
187 215 255
187 215 255
187 215 255
187 215 255
187 215 255
187 215 255
187 215 255
187 215 255
187 215 255
187 215 255
187 215 255
187 215 255
187 215 255
188 215 255
188 215 255
188 215 255
188 215 255
188 215 255
188 215 255
188 215 255
188 215 255
188 215 255
188 215 255
188 215 255
188 215 255
188 215 255
188 215 255
188 215 255
188 215 255
188 215 255
188 215 255
188 215 255
188 215 255
188 215 255
188 215 255
187 215 255
187 215 255
188 215 255
188 215 255
188 215 255
187 215 255
187 215 255
187 215 255
187 215 255
187 215 255
187 215 255
187 215 255
187 215 255
187 215 255
187 215 255
161 184 220
71 82 99
52 61 74
44 51 61
186 215 253
184 214 253
186 214 255
184 213 255
183 212 255
181 211 255
179 210 255
178 209 255
177 208 255
175 207 255
174 207 255
173 206 255
172 205 255
171 205 255
170 204 255
169 204 255
169 203 255
168 203 255
167 202 255
168 203 255
172 206 255
170 205 254
171 205 255
170 205 253
171 206 253
165 204 250
163 203 249
167 205 251
171 205 254
163 202 247
165 204 249
166 204 250
168 205 251
169 205 252
166 204 247
173 206 252
169 205 251
173 206 252
171 206 251
171 205 252
170 205 250
174 207 255
167 202 244
173 207 253
171 204 249
169 204 248
170 205 250
172 205 251
168 202 243
173 206 252
167 204 244
175 208 254
172 206 248
171 207 251
171 205 250
171 207 253
168 205 246
173 207 253
173 208 253
172 206 251
170 207 250
173 207 253
172 207 252
168 206 250
173 208 252
172 205 252
172 207 252
172 207 253
172 207 253
170 204 250
170 203 249
174 207 254
169 204 250
175 207 255
172 206 253
172 206 253
169 205 251
172 206 254
164 204 248
171 206 253
168 203 250
165 203 248
165 204 250
165 204 249
168 204 252
163 203 249
161 202 248
162 203 249
168 203 251
167 198 237
170 204 252
166 201 248
144 133 84
138 100 5
130 94 7
131 94 5
131 93 2
142 104 10
156 159 148
171 201 245
174 202 243
173 197 230
176 204 245
178 199 227
176 192 209
177 193 209
184 209 245
177 205 243
185 212 253
187 214 255
187 214 255
187 214 255
187 214 255
187 214 255
175 194 212
133 96 0
125 90 0
134 95 0
130 93 0
131 98 0
129 94 0
135 96 0
142 105 0
145 101 0
140 102 0
147 101 0
146 103 0
147 106 0
146 107 0
155 109 0
149 105 0
151 108 0
154 110 0
155 110 0
157 110 0
153 109 0
153 109 0
150 109 0
158 110 0
159 110 0
151 109 0
157 110 0
159 111 0
149 109 0
156 110 0
155 110 0
147 109 0
151 109 0
150 109 0
156 110 0
156 110 0
154 110 0
142 108 0
158 110 0
160 111 0
152 109 0
156 110 0
150 109 0
155 109 0
153 109 0
149 109 0
156 110 0
151 109 0
157 110 0
153 109 0
156 110 0
154 109 0
150 109 0
156 110 0
151 109 0
149 109 0
151 110 0
156 110 0
151 109 0
159 110 0
156 110 0
156 110 0
157 110 0
155 110 0
155 110 0
150 108 0
158 110 0
155 110 0
158 110 0
155 109 0
160 110 0
154 108 0
156 108 0
154 109 0
153 106 0
156 104 0
151 102 0
153 101 0
151 100 0
153 97 0
149 93 0
149 93 0
149 83 0
151 79 0
146 72 0
148 76 0
145 64 0
143 60 0
177 184 209
187 214 255
187 214 255
187 214 255
187 214 255
187 214 255
187 213 254
139 82 83
132 55 44
141 48 35
137 40 19
135 39 18
136 35 10
137 36 7
140 39 6
142 43 8
141 44 15
143 51 19
142 49 17
144 56 31
145 60 33
147 63 38
146 65 43
148 70 54
150 77 68
149 81 80
149 82 81
151 85 88
151 87 92
151 88 95
151 88 95
152 88 95
149 88 95
149 87 95
150 88 95
150 88 95
150 88 95
149 87 95
151 88 95
149 87 95
148 87 95
149 88 95
151 88 95
149 88 95
151 88 95
152 88 95
151 88 95
152 88 95
150 88 95
151 88 95
151 88 95
150 88 95
151 88 95
152 88 95
152 88 95
151 88 95
150 88 95
152 88 95
152 89 95
152 88 95
151 88 95
152 88 95
152 88 95
154 89 95
153 89 95
153 89 95
153 89 95
153 89 95
153 89 95
153 89 95
154 89 95
153 89 95
154 89 95
154 89 95
154 89 95
155 89 95
154 89 95
155 89 95
155 89 95
154 89 95
155 89 95
156 90 95
155 89 95
154 89 95
155 89 95
156 90 95
157 90 95
155 89 95
157 90 95
157 90 95
157 90 95
156 90 95
156 90 95
157 90 95
157 90 95
159 90 95
157 90 95
158 90 95
158 90 95
157 90 95
160 90 95
156 89 95
157 90 95
158 90 95
159 90 95
160 91 95
159 90 95
160 91 95
161 91 95
161 91 95
162 91 95
165 92 95
165 92 95
165 92 95
161 90 92
144 80 82
129 71 73
97 53 54
160 166 195
187 215 255
187 215 255
187 215 255
187 215 255
187 215 255
187 215 255
187 215 255
187 215 255
187 215 255
187 215 255
187 215 255
187 215 255
188 215 255
188 215 255
188 215 255
188 215 255
188 215 255
188 215 255
188 215 255
188 215 255
188 215 255
188 215 255
188 215 255
188 215 255
188 215 255
188 215 255
188 215 255
188 215 255
188 215 255
188 215 255
188 215 255
188 215 255
188 215 255
188 215 255
188 215 255
188 215 255
188 215 255
188 215 255
188 215 255
188 215 255
188 215 255
188 215 255
188 215 255
188 215 255
188 215 255
188 215 255
188 215 255
188 215 255
188 215 255
188 215 255
188 215 255
188 215 255
188 215 255
188 215 255
188 215 255
188 215 255
188 215 255
188 215 255
188 215 255
188 215 255
188 215 255
188 215 255
188 215 255
188 215 255
188 215 255
188 215 255
188 215 255
188 215 255
188 215 255
188 215 255
188 215 255
188 215 255
188 215 255
188 215 255
121 139 166
54 63 76
41 48 58
107 123 145
187 215 254
187 215 255
185 213 255
184 213 255
182 211 255
181 211 255
180 210 255
178 209 255
177 208 255
176 208 255
175 207 255
174 207 255
173 206 255
172 206 255
171 205 255
170 204 255
170 204 255
169 204 255
168 203 255
169 204 252
172 206 254
170 206 252
172 206 253
172 206 254
169 205 251
169 204 250
166 205 250
166 204 247
165 204 249
164 203 246
173 207 254
172 206 253
167 205 249
171 207 252
173 207 253
173 207 253
170 206 251
169 205 247
170 204 245
167 201 238
171 206 250
172 205 248
169 202 243
173 205 248
172 205 248
174 208 253
172 207 252
175 206 252
172 206 248
173 206 251
173 207 250
169 203 245
174 208 253
172 206 248
166 202 243
168 203 244
171 204 246
170 205 250
173 206 252
173 208 252
171 206 249
168 207 248
171 206 250
173 206 248
172 207 252
171 207 251
170 206 251
172 207 251
170 205 250
174 208 253
168 204 249
171 206 250
172 207 252
166 203 247
171 207 252
171 206 252
174 207 253
175 207 255
169 206 251
168 205 251
168 205 250
168 205 250
170 206 252
168 205 251
167 204 251
168 205 251
166 204 251
165 202 245
165 199 237
171 202 244
169 200 241
170 204 252
158 167 165
137 96 2
131 94 2
137 98 2
128 92 5
123 88 0
134 98 2
147 138 107
174 202 243
174 204 248
176 204 243
178 203 240
171 193 222
181 202 230
175 190 204
185 214 253
178 205 245
187 214 255
187 214 255
187 214 255
187 214 255
187 214 255
155 157 143
116 84 0
120 88 0
118 83 0
122 90 0
134 97 0
124 90 0
131 97 0
140 99 0
145 100 0
136 99 0
138 104 0
149 103 0
146 106 0
155 109 0
148 108 0
155 110 0
157 110 0
156 110 0
154 109 0
150 109 0
157 111 0
156 110 0
148 109 0
155 110 0
155 110 0
153 109 0
153 110 0
147 108 0
156 110 0
155 110 0
157 111 0
156 109 0
150 109 0
169 113 0
155 110 0
152 109 0
157 111 0
149 109 0
151 110 0
151 109 0
158 110 0
160 111 0
160 111 0
147 108 0
158 110 0
160 111 0
151 109 0
150 109 0
160 111 0
154 110 0
151 109 0
163 111 0
161 111 0
144 109 0
161 111 0
154 110 0
158 110 0
155 110 0
155 110 0
147 108 0
154 110 0
149 109 0
158 111 0
154 109 0
153 109 0
160 111 0
154 110 0
152 109 0
152 109 0
160 110 0
153 109 0
150 109 0
150 108 0
153 106 0
152 107 0
148 104 0
152 105 0
156 100 0
146 96 0
153 99 0
141 91 0
154 91 0
148 93 0
152 85 0
146 79 0
151 79 0
140 61 0
140 60 0
160 122 110
187 214 255
187 214 255
187 214 255
187 214 255
187 214 255
174 185 218
120 53 47
135 49 37
139 43 28
140 43 23
135 36 10
137 32 1
139 36 0
137 37 2
142 38 1
143 41 4
141 45 14
142 46 12
144 54 22
148 59 31
149 61 36
146 65 44
148 71 57
150 72 57
152 77 68
150 80 77
152 84 84
153 86 89
153 89 95
153 89 95
153 89 95
153 89 95
153 89 95
153 89 95
154 89 95
153 89 95
153 89 95
152 88 95
153 89 95
152 88 95
153 89 95
151 88 95
151 88 95
152 88 95
152 88 95
151 88 95
152 89 95
153 89 95
153 89 95
153 89 95
152 88 95
153 89 95
153 89 95
153 89 95
154 89 95
154 89 95
154 89 95
154 89 95
152 88 95
155 89 95
155 89 95
154 89 95
154 89 95
155 89 95
154 89 95
154 89 95
155 89 95
155 89 95
156 90 95
155 89 95
155 89 95
155 89 95
157 90 95
157 90 95
155 89 95
154 89 95
156 90 95
156 89 95
158 90 95
156 90 95
157 90 95
158 90 95
158 90 95
158 90 95
157 90 95
158 90 95
158 90 95
156 90 95
157 90 95
157 90 95
158 90 95
159 90 95
157 90 95
159 90 95
159 90 95
158 90 95
157 90 95
158 90 95
159 90 95
159 90 95
159 90 95
161 91 95
160 91 95
160 91 95
160 91 95
161 91 95
161 91 95
162 91 95
162 91 95
164 92 95
163 91 95
165 92 95
163 91 95
161 89 91
156 86 88
135 75 76
96 54 54
120 100 113
188 215 255
188 215 255
188 215 255
188 215 255
188 215 255
188 215 255
188 215 255
188 215 255
188 215 255
188 215 255
188 215 255
188 215 255
188 215 255
188 215 255
188 215 255
188 215 255
188 215 255
188 215 255
188 215 255
188 215 255
188 215 255
188 215 255
188 215 255
188 215 255
188 215 255
188 215 255
188 215 255
188 215 255
188 215 255
188 215 255
188 215 255
188 215 255
188 215 255
188 215 255
188 215 255
188 215 255
188 215 255
188 215 255
188 215 255
188 215 255
188 215 255
188 215 255
188 215 255
188 215 255
188 215 255
188 215 255
188 215 255
188 215 255
188 215 255
188 215 255
188 215 255
188 215 255
188 215 255
188 215 255
188 215 255
188 215 255
188 215 255
188 215 255
188 215 255
188 215 255
188 215 255
188 215 255
188 215 255
188 215 255
188 215 255
188 215 255
188 215 255
188 215 255
188 215 255
188 215 255
188 215 255
188 215 255
188 215 255
188 215 255
74 85 102
50 59 71
43 50 61
155 179 211
187 215 255
185 214 255
186 214 255
184 212 255
183 212 255
181 211 255
180 210 255
179 209 255
178 209 255
177 208 255
176 208 255
175 207 255
174 206 255
173 206 255
172 206 255
172 205 255
171 205 255
170 204 255
170 205 255
171 206 253
174 207 255
172 206 253
176 208 255
174 207 255
173 207 253
169 206 251
169 206 251
169 205 250
166 204 247
169 206 251
172 207 252
175 208 254
172 207 253
172 205 248
172 207 251
173 207 250
170 205 246
172 206 248
172 205 248
173 205 247
169 203 243
171 205 250
174 206 250
170 205 245
173 207 251
169 203 243
173 206 251
175 208 253
169 204 244
169 202 246
169 204 245
174 207 249
174 206 249
174 206 250
174 208 253
176 209 253
174 207 250
175 208 253
171 208 250
173 208 252
174 208 252
175 208 253
176 209 254
176 209 253
171 208 249
173 204 249
169 205 248
167 203 245
174 208 252
174 208 253
173 207 253
174 208 253
169 205 248
172 207 251
174 208 253
169 206 250
172 207 251
168 203 246
175 208 254
172 207 252
172 207 253
174 207 253
173 207 253
170 206 252
172 207 253
170 206 251
171 203 246
165 201 238
169 203 247
169 204 250
171 200 242
170 202 243
162 179 192
144 113 35
120 86 5
133 93 0
130 97 12
128 95 5
121 88 5
117 84 2
156 157 143
176 204 243
174 200 238
175 202 243
178 200 227
176 199 227
161 175 183
183 210 246
188 215 255
187 215 255
187 215 255
187 215 255
187 215 255
187 215 255
133 110 46
112 84 0
126 93 0
121 91 0
124 91 0
130 94 0
128 92 0
131 94 0
138 98 0
136 100 0
143 102 0
143 103 0
140 102 0
152 106 0
147 105 0
154 109 0
155 108 0
150 109 0
156 110 0
149 109 0
154 110 0
154 110 0
157 110 0
151 109 0
157 110 0
153 109 0
160 111 0
161 111 0
156 110 0
148 108 0
149 109 0
161 111 0
157 110 0
152 109 0
154 110 0
152 110 0
158 111 0
155 110 0
150 109 0
156 110 0
150 109 0
148 109 0
155 110 0
151 110 0
155 110 0
152 110 0
155 110 0
158 110 0
155 110 0
147 108 0
155 110 0
155 110 0
147 108 0
158 111 0
149 109 0
152 109 0
155 110 0
150 109 0
152 110 0
153 110 0
150 109 0
151 109 0
154 110 0
147 109 0
150 109 0
150 109 0
151 109 0
157 110 0
149 109 0
151 109 0
147 109 0
147 108 0
149 108 0
160 109 0
143 105 0
153 103 0
148 103 0
146 101 0
150 102 0
150 97 0
150 97 0
155 91 0
152 90 0
149 85 0
147 81 0
149 80 0
148 72 0
145 68 0
142 58 0
147 76 46
187 215 255
187 215 255
187 215 255
187 215 255
187 215 255
136 113 126
126 49 41
138 48 36
137 37 18
131 23 0
135 29 0
138 31 0
136 29 0
142 35 0
141 36 0
142 39 0
146 41 0
143 50 15
147 53 21
146 56 24
145 60 34
148 67 48
148 67 45
151 75 63
153 77 68
152 79 73
153 83 81
154 87 90
154 89 95
154 89 95
156 89 95
155 89 95
155 89 95
154 89 95
152 88 95
153 89 95
153 89 95
153 89 95
154 89 95
153 89 95
153 89 95
153 89 95
155 89 95
155 89 95
154 89 95
155 89 95
154 89 95
156 90 95
154 89 95
154 89 95
156 89 95
155 89 95
155 89 95
154 89 95
155 89 95
155 89 95
155 89 95
156 89 95
155 89 95
156 90 95
155 89 95
155 89 95
158 90 95
157 90 95
157 90 95
157 90 95
156 90 95
155 89 95
155 89 95
156 89 95
156 90 95
157 90 95
159 90 95
158 90 95
157 90 95
157 90 95
157 90 95
159 90 95
158 90 95
158 90 95
157 90 95
158 90 95
160 91 95
160 91 95
158 90 95
160 91 95
159 90 95
160 91 95
160 91 95
158 90 95
161 91 95
161 91 95
160 91 95
159 90 95
159 90 95
160 91 95
160 91 95
161 91 95
161 91 95
161 91 95
159 90 95
163 91 95
162 91 95
163 91 95
162 91 95
163 91 95
163 92 95
162 91 95
165 92 95
163 92 95
165 92 95
165 92 95
170 93 95
168 93 95
158 87 88
142 78 80
118 65 66
101 65 68
188 214 254
188 215 255
188 215 255
188 215 255
188 215 255
188 215 255
188 215 255
188 215 255
188 215 255
188 215 255
188 215 255
188 215 255
188 215 255
188 215 255
188 215 255
188 215 255
188 215 255
188 215 255
188 215 255
188 215 255
188 215 255
188 215 255
188 215 255
188 215 255
188 215 255
188 215 255
188 215 255
188 215 255
188 215 255
188 215 255
188 215 255
188 215 255
188 215 255
188 215 255
188 215 255
188 215 255
188 215 255
188 215 255
188 215 255
188 215 255
188 215 255
188 215 255
188 215 255
188 215 255
188 215 255
188 215 255
188 215 255
188 215 255
188 215 255
188 215 255
188 215 255
188 215 255
188 215 255
188 215 255
188 215 255
188 215 255
188 215 255
188 215 255
188 215 255
188 215 255
188 215 255
188 215 255
188 215 255
188 215 255
188 215 255
188 215 255
188 215 255
188 215 255
188 215 255
188 215 255
188 215 255
188 215 255
188 215 255
186 213 253
70 80 97
31 36 43
45 53 63
187 215 253
187 215 255
186 214 255
186 214 255
184 212 255
183 212 255
181 211 255
181 211 255
179 210 255
178 209 255
178 209 255
177 208 255
176 208 255
175 207 255
174 207 255
173 206 255
173 206 255
172 205 255
171 205 255
173 206 255
176 208 255
173 207 250
176 208 255
175 208 253
175 208 254
171 207 252
172 207 252
171 207 251
167 205 247
168 206 249
171 207 251
173 207 252
171 207 251
174 208 252
176 209 254
176 208 252
169 205 246
173 206 248
167 202 241
170 203 243
177 208 252
170 203 243
173 206 248
175 208 251
173 207 248
170 204 246
178 210 254
171 202 245
176 207 247
174 209 252
171 203 246
176 208 252
175 207 248
177 209 252
177 209 254
174 207 249
177 210 253
174 208 251
172 208 249
174 207 250
173 207 250
174 208 252
176 209 253
170 208 249
174 208 251
175 207 251
175 209 252
172 206 249
174 207 251
175 209 252
175 209 252
178 209 255
173 208 251
173 208 251
173 208 252
171 206 249
170 207 250
168 205 247
175 206 252
176 209 254
175 208 253
175 208 253
174 208 253
171 207 251
171 207 251
170 206 251
175 208 254
168 203 242
166 202 241
172 203 243
172 200 236
172 204 246
174 204 244
174 202 239
147 127 67
125 90 2
122 93 7
113 85 5
128 93 5
122 91 2
120 89 2
131 101 17
167 181 191
179 206 245
175 200 235
181 209 248
181 204 235
178 192 204
173 191 212
184 211 250
188 215 255
188 215 255
188 215 255
188 215 255
180 203 230
115 83 0
112 83 0
117 86 0
130 95 0
132 95 0
130 95 0
127 94 0
123 92 0
140 98 0
132 96 0
138 102 0
148 104 0
145 105 0
147 108 0
148 102 0
152 108 0
145 106 0
142 106 0
151 109 0
152 110 0
155 110 0
150 109 0
147 108 0
149 109 0
152 110 0
158 110 0
147 109 0
153 110 0
151 109 0
149 109 0
153 110 0
155 110 0
151 109 0
155 110 0
155 111 0
146 109 0
158 111 0
150 109 0
150 109 0
151 109 0
146 109 0
151 109 0
140 108 0
153 110 0
150 109 0
151 110 0
154 110 0
156 110 0
150 109 0
155 110 0
156 110 0
151 110 0
151 110 0
145 108 0
151 109 0
151 110 0
149 109 0
156 110 0
159 111 0
150 110 0
153 110 0
151 109 0
155 110 0
149 109 0
150 109 0
157 110 0
153 109 0
149 109 0
152 110 0
151 109 0
147 109 0
156 109 0
147 109 0
152 108 0
158 109 0
148 105 0
145 106 0
155 102 0
153 101 0
153 98 0
143 97 0
151 93 0
139 87 0
148 81 0
150 81 0
144 79 0
150 72 0
143 68 0
146 62 0
144 48 0
180 194 227
188 215 255
188 215 255
188 215 255
188 215 255
120 79 84
130 49 42
137 38 23
132 25 9
132 27 2
133 27 0
135 27 0
136 31 0
139 35 0
141 37 0
142 38 0
142 40 0
143 44 5
140 50 14
147 53 18
145 55 21
146 64 41
153 70 52
151 74 61
151 76 65
155 80 73
154 85 86
154 86 88
157 90 95
156 89 95
156 90 95
157 90 95
156 89 95
156 89 95
156 89 95
156 89 95
157 90 95
156 89 95
156 90 95
156 90 95
156 89 95
156 89 95
157 90 95
157 90 95
156 89 95
155 89 95
156 89 95
157 90 95
158 90 95
156 89 95
158 90 95
158 90 95
156 89 95
158 90 95
156 89 95
156 90 95
157 90 95
158 90 95
158 90 95
157 90 95
160 91 95
159 90 95
158 90 95
156 90 95
157 90 95
157 90 95
159 90 95
159 90 95
158 90 95
158 90 95
158 90 95
159 90 95
157 90 95
159 90 95
159 90 95
159 90 95
159 90 95
160 91 95
161 91 95
159 90 95
161 91 95
161 91 95
160 91 95
161 91 95
161 91 95
162 91 95
161 91 95
160 91 95
161 91 95
160 91 95
160 91 95
162 91 95
162 91 95
160 91 95
162 91 95
162 91 95
163 91 95
162 91 95
162 91 95
162 91 95
161 91 95
163 91 95
163 91 95
164 92 95
164 92 95
164 92 95
165 92 95
164 92 95
164 92 95
164 92 95
166 92 95
168 93 95
166 92 95
168 93 95
162 89 90
141 78 79
121 69 70
94 53 53
158 172 202
188 215 255
188 215 255
188 215 255
188 215 255
188 215 255
188 215 255
188 215 255
188 215 255
188 215 255
188 215 255
188 215 255
188 215 255
188 215 255
188 215 255
188 215 255
188 215 255
188 215 255
188 215 255
188 215 255
188 215 255
188 215 255
188 215 255
188 215 255
188 215 255
188 215 255
188 215 255
188 215 255
188 215 255
188 215 255
188 215 255
188 215 255
188 215 255
188 215 255
188 215 255
188 215 255
188 215 255
189 215 255
189 215 255
189 215 255
189 215 255
189 215 255
189 215 255
189 215 255
189 215 255
189 215 255
189 215 255
189 215 255
189 215 255
189 215 255
189 215 255
189 215 255
189 215 255
189 215 255
189 215 255
189 215 255
189 215 255
189 215 255
189 215 255
189 215 255
189 215 255
189 215 255
189 215 255
189 215 255
189 215 255
189 215 255
189 215 255
189 215 255
189 215 255
189 215 255
189 215 255
189 215 255
189 215 255
135 155 184
51 59 71
42 48 58
93 107 127
184 214 252
188 215 255
186 214 255
186 214 255
184 213 255
183 212 255
182 211 255
181 211 255
180 210 255
179 210 255
178 209 255
178 209 255
177 208 255
176 208 255
175 207 255
175 207 255
174 207 255
174 206 255
171 204 252
175 208 254
176 208 255
177 209 254
177 209 254
175 208 253
172 207 251
173 208 252
175 208 253
170 206 247
167 206 248
171 205 246
172 208 251
170 207 249
174 208 250
175 209 253
174 208 251
174 207 248
170 204 244
173 206 246
171 202 242
173 205 244
172 203 245
174 205 247
166 198 234
173 202 243
174 205 247
179 209 253
173 204 244
178 208 252
174 205 245
176 208 251
173 205 246
178 209 254
172 207 246
175 207 248
177 209 252
172 206 249
173 209 250
174 208 250
176 209 253
172 206 246
174 206 248
169 206 246
180 210 255
174 209 251
175 207 250
177 210 253
175 209 252
179 210 255
174 209 251
169 207 248
167 207 247
174 208 251
171 208 250
173 208 251
173 208 251
171 206 248
172 206 250
177 209 253
173 208 251
176 209 253
174 208 252
172 208 251
176 209 253
169 206 249
176 209 253
175 208 253
172 208 251
170 205 246
173 204 243
166 204 247
170 204 244
174 205 246
173 204 243
172 200 239
152 145 111
129 93 5
128 93 2
121 89 5
120 87 2
120 92 10
128 94 2
120 88 2
129 111 48
180 207 245
174 198 230
177 198 225
178 200 224
169 188 207
164 174 178
187 212 247
184 211 250
188 215 255
188 215 255
188 215 255
166 172 163
114 90 0
113 82 0
117 87 0
122 91 0
117 84 0
138 99 0
132 97 0
127 92 0
127 93 0
129 98 0
142 105 0
139 105 0
143 105 0
149 108 0
148 107 0
150 109 0
151 108 0
150 109 0
154 110 0
142 107 0
149 109 0
148 109 0
151 109 0
146 108 0
149 109 0
147 109 0
149 109 0
154 110 0
141 108 0
152 110 0
143 108 0
150 109 0
149 109 0
148 109 0
156 110 0
153 110 0
149 109 0
148 109 0
151 110 0
148 109 0
151 109 0
152 110 0
156 111 0
144 108 0
150 109 0
153 110 0
149 109 0
149 109 0
147 109 0
160 111 0
149 109 0
158 111 0
156 110 0
142 108 0
151 109 0
149 109 0
148 109 0
149 109 0
153 110 0
144 108 0
146 109 0
155 109 0
151 109 0
152 109 0
142 108 0
150 109 0
156 110 0
149 109 0
146 109 0
143 108 0
153 110 0
159 111 0
152 109 0
147 108 0
154 108 0
143 104 0
142 106 0
143 100 0
152 99 0
150 95 0
150 96 0
146 87 0
149 88 0
152 84 0
146 84 0
144 83 0
142 68 0
141 66 0
144 62 0
141 47 0
171 154 168
188 215 255
188 215 255
188 215 255
178 198 235
106 41 36
128 37 28
133 30 16
126 22 3
134 23 0
135 27 0
137 29 0
138 31 0
139 33 0
138 33 0
141 36 0
141 39 0
145 43 0
150 47 6
145 52 17
144 58 30
149 64 41
149 65 41
153 72 54
153 74 59
152 81 75
155 82 78
160 87 86
159 90 94
157 90 95
159 90 95
159 90 95
157 90 95
156 90 95
160 91 95
158 90 95
156 90 95
158 90 95
158 90 95
160 91 95
158 90 95
159 90 95
158 90 95
158 90 95
158 90 95
157 90 95
158 90 95
159 90 95
158 90 95
158 90 95
157 90 95
158 90 95
159 90 95
157 90 95
158 90 95
158 90 95
158 90 95
159 90 95
161 91 95
159 90 95
162 91 95
160 91 95
160 91 95
160 91 95
160 91 95
159 90 95
161 91 95
162 91 95
161 91 95
160 91 95
159 90 95
159 90 95
162 91 95
161 91 95
161 91 95
162 91 95
161 91 95
160 91 95
162 91 95
162 91 95
162 91 95
163 91 95
163 91 95
161 91 95
163 92 95
165 92 95
161 91 95
162 91 95
162 91 95
163 92 95
162 91 95
162 91 95
164 92 95
164 92 95
164 92 95
163 92 95
164 92 95
163 91 95
164 92 95
166 92 95
164 92 95
165 92 95
166 92 95
164 92 95
166 92 95
163 92 95
164 92 95
165 92 95
166 92 95
166 92 95
166 92 95
169 93 95
170 93 95
170 93 95
167 91 92
146 81 82
147 81 82
93 54 54
133 122 140
189 215 255
189 215 255
189 215 255
189 215 255
189 215 255
189 215 255
189 215 255
189 215 255
189 215 255
189 215 255
189 215 255
189 215 255
189 215 255
189 215 255
189 215 255
189 215 255
189 215 255
189 215 255
189 215 255
189 215 255
189 215 255
189 215 255
189 215 255
189 215 255
189 215 255
189 215 255
189 215 255
189 215 255
189 215 255
189 215 255
189 215 255
189 215 255
189 215 255
189 215 255
189 215 255
189 215 255
189 216 255
189 216 255
189 216 255
189 216 255
189 216 255
189 216 255
189 216 255
189 216 255
189 216 255
189 216 255
189 216 255
189 216 255
189 216 255
189 216 255
189 216 255
189 216 255
189 216 255
189 216 255
189 216 255
189 216 255
189 216 255
189 216 255
189 216 255
189 216 255
189 215 255
189 215 255
189 216 255
189 216 255
189 215 255
189 215 255
189 215 255
189 215 255
189 215 255
189 215 255
189 215 255
189 215 255
129 148 176
60 70 84
36 42 51
131 150 177
188 215 255
188 215 255
187 214 255
186 214 255
185 213 255
183 212 255
183 212 255
182 211 255
181 211 255
180 210 255
180 210 255
179 209 255
178 209 255
177 209 255
177 208 255
176 208 255
176 208 255
175 207 255
174 207 254
174 208 253
176 209 253
175 208 251
179 209 253
177 209 254
173 208 251
170 207 249
173 208 251
172 208 250
173 207 247
176 209 253
172 208 250
174 208 251
175 209 252
178 210 253
174 208 251
175 208 250
176 207 246
173 204 244
177 207 248
177 207 248
175 205 245
171 201 239
175 206 247
173 204 244
175 205 245
175 205 243
174 204 245
177 208 251
174 206 244
178 209 252
175 208 248
172 206 247
177 209 252
177 209 250
177 210 253
174 209 251
180 210 252
176 210 251
178 210 253
175 208 250
179 210 253
179 210 253
176 210 251
176 210 252
176 208 250
175 209 251
174 207 250
176 210 251
178 210 253
176 210 251
174 209 251
173 207 249
177 210 253
175 209 252
176 209 253
171 208 249
176 209 252
172 207 248
178 210 253
176 209 253
178 210 253
172 208 250
174 209 251
177 209 253
173 208 251
173 208 251
174 205 244
170 202 234
173 202 237
170 202 238
167 202 237
177 203 239
175 202 239
175 201 234
155 165 161
138 113 43
114 82 0
116 83 0
117 89 5
120 91 2
119 90 0
117 90 7
121 89 10
161 169 168
178 201 230
173 195 222
178 199 225
182 200 222
173 185 194
181 201 221
187 215 255
188 215 255
188 215 255
188 215 255
136 132 94
121 87 0
114 88 0
121 92 0
133 97 0
127 95 0
137 98 0
125 94 0
129 97 0
134 96 0
135 98 0
131 97 0
141 103 0
141 105 0
143 106 0
140 105 0
139 106 0
144 108 0
152 109 0
140 107 0
148 109 0
144 109 0
150 109 0
157 110 0
155 110 0
148 109 0
152 110 0
147 109 0
149 109 0
145 109 0
154 111 0
146 109 0
148 109 0
149 110 0
155 110 0
146 109 0
148 110 0
151 109 0
148 110 0
155 110 0
145 109 0
144 109 0
148 109 0
155 110 0
149 109 0
151 110 0
151 110 0
146 109 0
156 111 0
147 109 0
149 109 0
155 111 0
151 110 0
158 110 0
142 108 0
151 110 0
152 110 0
154 110 0
155 110 0
152 110 0
152 110 0
150 109 0
144 109 0
153 110 0
154 110 0
158 111 0
152 109 0
158 111 0
150 110 0
148 109 0
141 108 0
156 110 0
148 109 0
150 109 0
146 108 0
145 108 0
151 105 0
149 102 0
154 102 0
149 98 0
152 100 0
143 93 0
138 92 0
155 87 0
151 89 0
148 83 0
149 77 0
143 72 0
142 71 0
145 60 0
137 49 0
165 124 125
188 215 255
188 215 255
188 215 255
159 155 180
110 35 30
127 34 21
130 20 3
129 19 0
134 19 0
136 24 0
135 26 0
143 31 0
144 35 0
140 33 0
142 34 0
143 41 0
146 42 0
140 43 1
149 49 9
153 58 26
150 60 28
150 69 49
151 69 47
153 75 62
156 81 74
157 85 83
158 88 91
159 90 95
160 91 95
159 90 95
160 91 95
160 91 95
159 90 95
159 90 95
160 91 95
160 91 95
161 91 95
160 91 95
160 91 95
158 90 95
159 90 95
160 91 95
161 91 95
161 91 95
160 91 95
160 91 95
160 91 95
160 91 95
161 91 95
161 91 95
161 91 95
160 91 95
161 91 95
160 91 95
162 91 95
161 91 95
162 91 95
162 91 95
161 91 95
161 91 95
161 91 95
160 91 95
160 91 95
161 91 95
162 91 95
160 91 95
161 91 95
162 91 95
163 92 95
163 91 95
163 91 95
162 91 95
164 92 95
163 92 95
163 91 95
165 92 95
162 91 95
164 92 95
161 91 95
165 92 95
164 92 95
164 92 95
163 92 95
165 92 95
164 92 95
164 92 95
164 92 95
164 92 95
164 92 95
165 92 95
166 92 95
166 92 95
165 92 95
164 92 95
164 92 95
166 92 95
165 92 95
165 92 95
166 92 95
165 92 95
165 92 95
167 93 95
166 92 95
165 92 95
167 92 95
167 93 95
167 93 95
167 93 95
167 93 95
169 93 95
169 93 95
169 93 95
169 93 95
167 92 93
155 85 86
127 71 71
106 60 59
127 106 117
189 215 255
189 215 255
189 215 255
189 215 255
189 215 255
189 215 255
189 215 255
189 215 255
189 215 255
189 216 255
189 215 255
189 215 255
189 215 255
189 216 255
189 216 255
189 216 255
189 216 255
189 216 255
189 216 255
189 216 255
189 216 255
189 216 255
189 216 255
189 216 255
189 216 255
189 216 255
189 216 255
189 216 255
189 216 255
189 216 255
189 216 255
189 216 255
189 216 255
189 216 255
189 216 255
189 216 255
189 216 255
189 216 255
189 216 255
189 216 255
189 216 255
189 216 255
189 216 255
189 216 255
189 216 255
189 216 255
189 216 255
189 216 255
189 216 255
189 216 255
189 216 255
189 216 255
189 216 255
189 216 255
189 216 255
189 216 255
189 216 255
189 216 255
189 216 255
189 216 255
189 216 255
189 216 255
189 216 255
189 216 255
189 216 255
189 216 255
189 216 255
189 216 255
189 216 255
189 216 255
189 216 255
189 216 255
99 113 135
44 51 61
34 40 48
179 204 239
189 216 255
188 215 255
187 214 255
186 214 255
185 213 255
184 213 255
183 212 255
183 212 255
182 211 255
181 211 255
180 210 255
180 210 255
179 210 255
179 209 255
178 209 255
177 209 255
177 208 255
176 208 255
177 208 251
178 210 254
178 210 254
179 210 255
180 211 255
179 210 254
173 209 251
173 209 251
178 210 253
172 208 247
177 210 253
176 210 252
175 208 250
177 210 252
175 209 251
179 211 253
175 209 251
173 207 246
175 209 250
178 207 250
176 207 247
174 203 240
174 204 240
179 208 250
175 204 245
174 203 243
174 204 242
175 206 244
175 206 246
177 207 247
179 208 248
175 206 246
178 210 251
176 208 248
175 208 247
178 209 251
179 210 253
176 209 250
176 208 248
177 208 250
179 210 254
174 210 250
178 209 251
173 209 249
176 210 251
174 209 250
179 211 253
180 211 254
176 209 251
178 210 253
177 210 252
174 209 251
175 209 251
174 209 249
174 208 249
178 210 253
178 210 253
172 208 249
180 211 254
175 209 251
177 210 252
179 210 253
173 209 250
173 209 250
177 210 253
177 210 253
175 209 251
175 207 246
172 202 233
172 205 242
174 205 242
173 202 236
171 200 233
178 205 242
177 204 239
174 201 233
162 175 177
131 117 69
120 91 0
111 81 0
115 84 0
126 93 2
116 90 7
120 94 12
108 82 0
131 110 46
179 206 245
184 211 250
179 200 227
177 195 220
178 197 220
172 185 191
189 215 255
189 215 255
189 215 255
189 215 255
127 110 51
98 78 0
111 86 0
120 88 0
114 88 0
142 101 0
120 88 0
119 92 0
127 92 0
130 98 0
134 101 0
145 102 0
136 102 0
138 105 0
142 107 0
141 105 0
145 108 0
152 107 0
148 109 0
152 109 0
152 110 0
157 110 0
153 110 0
138 108 0
145 109 0
149 110 0
149 110 0
157 111 0
149 109 0
143 109 0
149 110 0
140 108 0
162 112 0
147 109 0
154 110 0
145 109 0
150 109 0
150 109 0
151 110 0
144 108 0
150 110 0
149 110 0
147 109 0
151 110 0
154 111 0
155 111 0
138 108 0
148 110 0
142 108 0
153 110 0
155 110 0
148 109 0
146 109 0
148 110 0
145 109 0
153 110 0
154 110 0
140 108 0
154 110 0
145 109 0
148 109 0
136 108 0
144 109 0
149 109 0
153 110 0
152 110 0
149 109 0
144 109 0
152 110 0
153 110 0
155 110 0
144 109 0
141 108 0
146 109 0
150 109 0
152 107 0
147 107 0
151 107 0
144 98 0
148 100 0
149 101 0
148 96 0
150 96 0
137 93 0
145 87 0
147 82 0
140 82 0
140 68 0
150 66 0
145 60 0
141 44 0
142 64 48
189 215 255
189 215 255
189 215 255
127 112 127
115 31 25
124 19 7
129 16 0
131 18 0
134 21 0
132 24 0
135 27 0
143 30 0
135 33 0
141 33 0
138 34 0
139 36 0
142 41 0
150 43 0
146 50 12
149 54 18
149 61 29
152 68 45
151 69 46
155 74 57
158 80 69
159 83 77
161 88 89
160 89 91
162 91 95
162 91 95
164 92 95
162 91 95
161 91 95
161 91 95
162 91 95
162 91 95
162 91 95
162 91 95
162 91 95
162 91 95
162 91 95
160 91 95
162 91 95
162 91 95
161 91 95
161 91 95
162 91 95
163 91 95
162 91 95
163 91 95
163 92 95
162 91 95
164 92 95
165 92 95
163 92 95
163 92 95
163 91 95
162 91 95
164 92 95
164 92 95
162 91 95
164 92 95
164 92 95
164 92 95
164 92 95
165 92 95
165 92 95
164 92 95
164 92 95
163 91 95
163 92 95
165 92 95
165 92 95
164 92 95
165 92 95
166 92 95
164 92 95
166 92 95
165 92 95
166 92 95
165 92 95
165 92 95
166 92 95
165 92 95
166 92 95
166 92 95
165 92 95
166 92 95
167 93 95
166 92 95
166 92 95
166 92 95
166 92 95
167 93 95
167 93 95
165 92 95
167 93 95
165 92 95
167 93 95
167 92 95
167 93 95
167 93 95
166 92 95
168 93 95
168 93 95
168 93 95
170 94 95
170 93 95
170 93 95
171 94 95
169 93 95
171 94 95
170 94 95
166 93 93
154 86 86
136 77 77
108 62 60
84 58 60
189 216 255
189 216 255
189 216 255
189 216 255
189 216 255
189 216 255
189 216 255
189 216 255
189 216 255
189 216 255
189 216 255
189 216 255
189 216 255
189 216 255
189 216 255
189 216 255
189 216 255
189 216 255
189 216 255
189 216 255
189 216 255
189 216 255
189 216 255
189 216 255
189 216 255
189 216 255
189 216 255
189 216 255
189 216 255
189 216 255
189 216 255
189 216 255
189 216 255
189 216 255
189 216 255
189 216 255
189 216 255
189 216 255
189 216 255
189 216 255
189 216 255
189 216 255
189 216 255
189 216 255
189 216 255
189 216 255
189 216 255
189 216 255
189 216 255
189 216 255
189 216 255
189 216 255
189 216 255
189 216 255
189 216 255
189 216 255
189 216 255
189 216 255
189 216 255
189 216 255
189 216 255
189 216 255
189 216 255
189 216 255
189 216 255
189 216 255
189 216 255
189 216 255
189 216 255
189 216 255
189 216 255
180 205 243
71 81 97
52 59 71
46 53 63
189 216 255
189 216 255
188 215 255
187 215 255
186 214 255
186 214 255
185 213 255
184 213 255
183 212 255
183 212 255
182 212 255
182 211 255
181 211 255
180 210 255
180 210 255
179 210 255
179 210 255
179 209 255
178 209 255
181 211 255
182 211 255
179 210 253
178 210 253
180 211 254
179 210 253
176 210 251
173 209 249
176 209 250
176 210 251
175 209 251
176 209 250
180 211 254
171 208 248
180 211 253
177 210 251
179 210 252
179 209 249
178 208 246
173 203 239
177 207 245
174 203 239
174 201 238
177 205 243
177 205 245
181 209 250
181 210 252
180 209 250
176 206 244
175 206 243
180 210 252
181 212 253
180 211 253
177 209 250
177 207 244
181 212 254
180 211 253
175 210 250
176 210 251
179 211 253
177 210 250
179 211 252
181 212 254
181 212 254
176 210 251
178 211 252
179 211 252
178 211 251
175 210 250
179 211 253
175 209 251
175 210 250
179 211 253
178 211 252
177 211 251
180 211 253
176 210 251
179 211 253
178 210 253
179 211 253
178 211 252
175 210 250
172 209 249
177 210 252
174 209 250
173 209 249
177 210 252
180 209 249
173 208 247
175 208 246
175 207 244
173 203 240
176 205 243
175 200 233
176 202 239
175 203 241
172 191 211
139 124 71
120 90 7
117 86 0
119 92 10
117 89 5
122 92 2
119 92 2
118 89 7
120 90 2
148 159 153
184 210 248
178 201 225
176 196 217
172 186 197
166 176 178
185 212 250
189 216 255
189 216 255
189 214 250
124 92 0
110 84 0
103 79 0
121 90 0
120 93 0
115 86 0
116 85 0
129 97 0
131 97 0
137 98 0
131 97 0
145 103 0
135 101 0
140 104 0
147 107 0
140 105 0
140 106 0
150 110 0
146 107 0
142 108 0
145 109 0
151 110 0
141 108 0
149 110 0
146 109 0
148 109 0
148 109 0
144 109 0
150 110 0
147 109 0
145 109 0
151 109 0
146 109 0
154 110 0
145 109 0
146 109 0
148 109 0
141 108 0
149 110 0
152 110 0
152 110 0
144 109 0
150 110 0
142 109 0
153 110 0
143 109 0
137 108 0
145 109 0
155 111 0
153 110 0
154 111 0
145 109 0
157 111 0
147 109 0
143 109 0
149 109 0
150 110 0
147 109 0
136 107 0
147 109 0
150 110 0
145 109 0
150 109 0
146 109 0
144 109 0
145 109 0
154 110 0
153 110 0
143 108 0
150 109 0
150 110 0
147 109 0
151 108 0
151 109 0
151 109 0
141 106 0
151 106 0
151 101 0
146 96 0
142 99 0
153 102 0
142 93 0
143 90 0
136 88 0
145 83 0
146 82 0
146 76 0
144 75 0
146 68 0
144 64 0
139 49 0
138 41 12
188 212 250
189 216 255
189 216 255
115 75 82
122 24 18
130 21 9
125 13 0
133 17 0
135 22 0
138 24 0
137 28 0
137 31 0
138 31 0
139 34 0
146 36 0
137 36 0
141 37 0
142 41 0
138 46 6
148 51 14
147 59 27
151 64 36
150 70 50
154 76 63
155 78 67
157 82 77
161 84 77
163 90 92
162 91 94
164 92 95
164 92 95
165 92 95
164 92 95
164 92 95
165 92 95
165 92 95
162 91 95
165 92 95
163 91 95
165 92 95
166 92 95
165 92 95
164 92 95
165 92 95
164 92 95
165 92 95
164 92 95
164 92 95
165 92 95
165 92 95
165 92 95
165 92 95
164 92 95
164 92 95
164 92 95
166 92 95
167 93 95
164 92 95
166 92 95
165 92 95
166 92 95
166 92 95
166 92 95
163 92 95
166 92 95
167 93 95
166 92 95
167 93 95
166 92 95
165 92 95
168 93 95
167 93 95
166 92 95
167 93 95
167 93 95
167 93 95
167 93 95
168 93 95
166 92 95
166 92 95
167 93 95
167 93 95
167 93 95
167 93 95
168 93 95
167 93 95
168 93 95
168 93 95
167 92 95
169 93 95
167 93 95
167 93 95
169 93 95
168 93 95
169 93 95
168 93 95
169 93 95
167 93 95
171 94 95
168 93 95
170 93 95
168 93 95
167 93 95
169 93 95
168 93 95
169 93 95
171 94 95
168 93 95
168 93 95
169 93 95
171 94 95
169 93 94
169 94 94
169 94 94
163 91 91
142 80 80
116 67 66
95 53 52
182 207 245
189 216 255
189 216 255
189 216 255
189 216 255
189 216 255
189 216 255
189 216 255
189 216 255
189 216 255
189 216 255
189 216 255
189 216 255
189 216 255
189 216 255
189 216 255
189 216 255
189 216 255
189 216 255
189 216 255
189 216 255
189 216 255
189 216 255
189 216 255
189 216 255
189 216 255
189 216 255
189 216 255
189 216 255
189 216 255
189 216 255
189 216 255
189 216 255
189 216 255
189 216 255
189 216 255
190 216 255
190 216 255
190 216 255
190 216 255
190 216 255
190 216 255
190 216 255
190 216 255
190 216 255
190 216 255
190 216 255
190 216 255
190 216 255
190 216 255
190 216 255
190 216 255
190 216 255
190 216 255
190 216 255
190 216 255
190 216 255
190 216 255
190 216 255
190 216 255
190 216 255
190 216 255
190 216 255
190 216 255
190 216 255
190 216 255
190 216 255
190 216 255
190 216 255
190 216 255
190 216 255
163 186 220
71 81 97
33 38 46
72 82 97
190 216 255
189 216 255
188 215 255
188 215 255
187 214 255
186 214 255
185 213 255
185 213 255
184 213 255
184 212 255
183 212 255
183 212 255
182 212 255
182 211 255
181 211 255
181 211 255
181 211 255
180 210 255
179 210 254
182 212 255
183 212 255
181 211 254
180 211 253
180 211 252
183 212 255
179 211 253
173 208 247
177 209 247
180 211 253
174 210 249
179 211 253
177 210 251
179 211 253
176 210 251
179 211 252
175 210 249
176 208 245
178 208 245
181 211 252
179 207 243
180 208 248
181 207 243
180 208 245
180 208 245
181 209 248
178 206 239
176 204 239
176 206 244
180 210 249
177 208 248
180 210 250
178 210 250
180 212 253
180 212 253
180 211 250
183 212 254
179 211 252
178 211 251
176 210 250
177 211 251
174 210 249
183 212 254
179 211 252
178 211 252
176 210 250
179 211 252
178 211 251
182 212 254
181 212 253
180 212 253
180 212 252
179 212 252
181 212 253
181 212 253
179 211 252
181 212 253
176 210 250
182 212 254
178 211 251
177 211 251
177 210 251
177 210 251
178 211 251
175 210 250
178 211 252
181 211 253
177 207 244
175 205 239
175 206 240
174 206 244
174 202 230
173 204 239
175 204 241
178 205 242
176 204 239
170 193 221
150 136 91
123 98 23
118 90 0
108 83 0
125 98 5
139 103 7
131 103 12
121 91 0
121 95 7
136 119 56
184 208 243
180 205 235
184 204 230
181 196 212
175 188 196
183 205 231
189 216 255
189 216 255
179 193 207
118 88 0
122 92 0
116 88 0
113 85 0
120 90 0
123 94 0
124 96 0
128 96 0
140 103 0
130 98 0
129 96 0
137 100 0
143 106 0
137 101 0
143 105 0
142 105 0
146 107 0
143 109 0
147 110 0
144 108 0
148 109 0
142 108 0
147 109 0
146 109 0
150 110 0
150 109 0
143 109 0
149 109 0
148 110 0
149 110 0
149 110 0
149 110 0
146 109 0
151 110 0
147 109 0
144 109 0
147 110 0
139 108 0
139 108 0
140 108 0
146 109 0
148 109 0
140 108 0
142 108 0
148 109 0
151 110 0
152 110 0
149 110 0
143 109 0
147 109 0
145 109 0
149 110 0
147 109 0
145 109 0
150 110 0
145 109 0
148 110 0
146 109 0
144 109 0
144 109 0
141 108 0
151 110 0
156 111 0
148 109 0
147 109 0
151 109 0
152 110 0
135 107 0
144 108 0
151 110 0
145 109 0
142 108 0
144 108 0
147 108 0
152 109 0
146 105 0
151 106 0
150 104 0
152 101 0
144 99 0
144 93 0
141 98 0
146 91 0
142 88 0
149 88 0
146 83 0
139 76 0
139 70 0
136 64 0
138 58 0
140 50 0
127 33 0
177 174 202
189 216 255
189 216 255
115 51 51
116 18 11
127 14 1
130 16 0
130 18 0
136 22 0
134 26 0
139 26 0
127 30 0
134 30 0
140 31 0
142 37 0
137 40 0
141 40 0
136 39 0
139 44 1
151 51 12
146 54 19
149 63 32
155 63 32
160 78 63
160 80 68
157 83 77
161 87 84
164 89 88
165 92 95
167 93 95
167 92 95
167 93 95
165 92 95
165 92 95
167 93 95
166 92 95
167 93 95
168 93 95
165 92 95
168 93 95
167 92 95
169 93 95
165 92 95
167 93 95
167 93 95
167 93 95
167 93 95
168 93 95
167 93 95
166 92 95
166 92 95
167 93 95
168 93 95
167 93 95
166 92 95
168 93 95
167 93 95
166 92 95
167 93 95
167 93 95
168 93 95
167 93 95
168 93 95
169 93 95
168 93 95
168 93 95
167 93 95
169 93 95
168 93 95
169 93 95
168 93 95
169 93 95
168 93 95
168 93 95
169 93 95
172 94 95
170 94 95
170 93 95
168 93 95
168 93 95
168 93 95
169 93 95
170 94 95
169 93 95
170 93 95
168 93 95
168 93 95
169 93 95
169 93 95
169 93 95
169 93 95
169 93 95
170 94 95
171 94 95
171 94 95
169 93 95
169 93 95
170 94 95
168 93 95
169 93 95
171 94 95
171 94 95
172 94 95
169 93 95
170 94 95
173 94 95
172 94 95
169 94 94
170 94 95
169 94 94
165 93 93
163 93 93
168 94 94
167 94 93
163 90 90
138 79 78
109 64 63
101 58 57
172 182 212
190 216 255
190 216 255
190 216 255
190 216 255
190 216 255
190 216 255
190 216 255
190 216 255
190 216 255
190 216 255
190 216 255
190 216 255
190 216 255
190 216 255
190 216 255
190 216 255
190 216 255
190 216 255
190 216 255
190 216 255
190 216 255
190 216 255
190 216 255
190 216 255
190 216 255
190 216 255
190 216 255
190 216 255
190 216 255
190 216 255
190 216 255
190 216 255
190 216 255
190 216 255
190 216 255
190 216 255
190 216 255
190 216 255
190 216 255
190 216 255
190 216 255
190 216 255
190 216 255
190 216 255
190 216 255
190 216 255
190 216 255
190 216 255
190 216 255
190 216 255
190 216 255
190 216 255
190 216 255
190 216 255
190 216 255
190 216 255
190 216 255
190 216 255
190 216 255
190 216 255
190 216 255
190 216 255
190 216 255
190 216 255
190 216 255
190 216 255
190 216 255
190 216 255
190 216 255
190 216 255
165 188 222
60 68 81
41 47 56
77 88 104
191 217 255
190 216 255
189 216 255
188 215 255
187 215 255
187 214 255
186 214 255
186 214 255
185 213 255
185 213 255
184 213 255
184 213 255
183 212 255
183 212 255
183 212 255
182 212 255
182 211 255
182 211 255
183 212 255
183 212 254
182 211 253
182 212 254
184 213 255
183 213 255
182 212 254
183 212 252
177 210 249
179 211 252
177 211 251
176 211 250
180 212 253
176 211 250
178 211 251
179 211 252
179 211 251
178 210 250
182 211 250
181 211 251
184 211 250
180 208 245
180 206 238
180 208 245
181 209 245
176 202 235
178 206 240
175 202 238
181 209 245
182 212 252
179 209 246
183 212 252
179 211 250
174 209 244
181 212 251
183 212 252
180 212 252
176 211 249
181 212 253
174 210 249
176 211 249
177 211 250
183 213 253
180 212 252
177 211 251
179 212 251
182 212 253
181 212 253
179 212 251
180 212 252
180 212 252
180 212 252
181 212 253
177 211 251
177 211 250
178 210 249
181 212 253
183 212 252
180 212 252
183 213 254
176 211 249
183 213 254
179 211 251
179 211 251
181 212 253
176 211 250
179 211 251
179 210 250
181 206 238
180 207 240
178 208 244
179 210 250
175 207 244
177 203 234
179 206 239
181 207 242
180 209 249
179 205 237
138 130 88
130 114 48
107 83 0
116 87 0
122 90 0
126 95 2
122 98 5
131 99 0
115 91 2
127 101 25
181 205 238
177 198 225
182 206 238
182 199 217
175 185 184
183 196 207
190 216 255
190 216 255
169 174 166
120 95 0
115 87 0
117 93 0
112 84 0
116 87 0
116 87 0
121 94 0
123 98 0
138 101 0
133 96 0
137 103 0
128 98 0
140 104 0
144 103 0
146 106 0
135 104 0
140 108 0
146 108 0
146 109 0
137 107 0
142 108 0
146 109 0
146 109 0
153 110 0
150 110 0
148 109 0
143 108 0
150 110 0
141 108 0
155 110 0
137 108 0
152 110 0
147 109 0
152 110 0
146 109 0
148 110 0
141 108 0
150 110 0
143 109 0
147 109 0
144 109 0
145 109 0
148 110 0
153 110 0
150 110 0
154 110 0
147 109 0
152 109 0
154 111 0
148 110 0
149 110 0
148 109 0
149 110 0
143 109 0
141 108 0
148 109 0
145 109 0
143 108 0
143 109 0
145 109 0
151 110 0
144 110 0
152 110 0
144 109 0
155 111 0
146 110 0
147 109 0
141 108 0
145 109 0
145 109 0
149 110 0
147 109 0
142 108 0
138 107 0
146 107 0
148 107 0
140 106 0
145 103 0
138 101 0
136 99 0
147 97 0
144 97 0
146 94 0
145 92 0
142 89 0
140 78 0
140 83 0
139 72 0
146 70 0
142 61 0
139 51 0
128 32 0
171 152 171
190 216 255
186 210 249
102 34 29
110 11 5
120 10 0
124 13 0
139 21 0
132 20 0
132 23 0
136 26 0
137 27 0
133 29 0
136 35 0
130 37 0
137 37 0
134 37 0
139 41 0
144 44 1
146 52 10
149 58 26
149 64 36
150 63 33
153 77 63
160 80 67
160 87 85
166 89 86
163 88 86
167 92 93
168 93 95
167 93 95
168 93 95
168 93 95
169 93 95
169 93 95
168 93 95
168 93 95
167 93 95
167 93 95
169 93 95
168 93 95
170 93 95
170 94 95
169 93 95
167 93 95
168 93 95
169 93 95
171 94 95
171 94 95
167 93 95
167 93 95
169 93 95
170 93 95
170 93 95
168 93 95
169 93 95
168 93 95
169 93 95
170 93 95
170 93 95
169 93 95
169 93 95
169 93 95
169 93 95
169 93 95
169 93 95
171 94 95
168 93 95
170 93 95
171 94 95
169 93 95
169 93 95
169 93 95
169 93 95
171 94 95
169 93 95
169 93 95
169 93 95
171 94 95
171 94 95
170 94 95
171 94 95
171 94 95
170 94 95
173 94 95
171 94 95
169 93 95
170 93 95
170 94 95
169 94 94
169 93 95
168 93 94
171 94 95
169 93 94
171 94 95
169 93 95
170 94 95
168 93 95
172 94 95
169 93 94
171 94 95
166 93 93
166 93 94
170 94 95
170 94 94
169 94 94
169 94 94
170 94 95
166 93 94
169 94 94
161 93 92
163 93 92
167 94 93
164 93 92
153 88 87
138 77 77
128 76 74
101 58 57
144 145 167
190 216 255
190 216 255
190 216 255
190 216 255
190 216 255
190 216 255
190 216 255
190 216 255
190 216 255
190 216 255
190 216 255
190 216 255
190 216 255
190 216 255
190 216 255
190 216 255
190 216 255
190 216 255
190 216 255
190 216 255
190 216 255
190 216 255
190 216 255
190 216 255
190 216 255
190 216 255
190 216 255
190 216 255
190 216 255
190 216 255
190 216 255
190 216 255
190 216 255
190 216 255
190 216 255
190 216 255
190 216 255
190 216 255
190 216 255
190 216 255
190 216 255
190 216 255
190 216 255
190 216 255
190 216 255
190 216 255
190 216 255
190 216 255
190 216 255
190 216 255
190 216 255
190 216 255
190 216 255
190 216 255
190 216 255
190 216 255
190 216 255
190 216 255
190 216 255
190 216 255
190 216 255
190 216 255
190 216 255
190 216 255
190 216 255
190 216 255
190 216 255
190 216 255
190 216 255
190 216 255
148 168 199
52 60 71
50 58 69
93 106 125
191 217 255
190 216 255
189 216 255
189 215 255
188 215 255
188 215 255
187 214 255
187 214 255
186 214 255
186 214 255
185 213 255
185 213 255
185 213 255
184 213 255
184 213 255
184 212 255
184 212 255
183 212 255
184 213 255
185 213 255
184 213 255
184 212 252
183 213 254
186 214 255
185 214 255
179 212 251
184 211 250
179 211 250
180 211 250
181 210 248
175 210 249
182 212 253
185 213 255
181 212 252
181 212 252
182 212 251
182 213 253
180 209 245
182 207 238
182 209 248
185 213 253
179 205 238
179 205 238
181 207 240
179 205 243
176 202 235
182 210 245
184 212 250
183 211 248
184 213 254
179 211 248
179 212 251
181 212 250
182 212 250
180 212 251
176 210 247
181 212 252
182 213 253
183 213 253
180 212 251
175 210 248
181 212 252
180 212 251
183 213 253
177 211 250
184 213 254
182 213 253
181 212 252
182 213 253
181 212 252
182 213 253
181 213 252
183 213 253
184 213 254
181 212 252
181 212 252
173 210 247
182 213 253
181 212 252
178 211 251
182 213 253
181 212 252
182 213 253
180 212 252
180 212 252
175 206 242
177 207 240
182 209 243
178 203 230
177 206 240
174 204 238
183 209 245
185 211 250
181 207 239
182 208 245
182 206 238
139 131 81
135 121 63
115 89 0
118 88 0
122 92 5
142 109 15
141 102 2
142 105 0
133 100 0
128 97 5
161 176 179
182 205 235
183 203 227
179 195 207
175 182 176
181 189 191
190 216 255
190 216 255
172 183 186
106 85 0
108 85 0
113 86 0
98 76 0
116 92 0
103 81 0
128 97 0
129 97 0
122 92 0
117 90 0
136 103 0
141 105 0
133 102 0
139 106 0
137 103 0
136 106 0
145 107 0
145 108 0
144 109 0
150 110 0
142 109 0
152 110 0
148 109 0
137 108 0
148 109 0
139 108 0
146 109 0
147 109 0
149 109 0
141 108 0
151 110 0
143 109 0
142 109 0
138 108 0
148 109 0
143 109 0
146 109 0
146 109 0
144 109 0
147 109 0
153 110 0
138 108 0
142 109 0
144 109 0
147 110 0
148 110 0
135 108 0
142 108 0
141 108 0
151 110 0
140 108 0
147 109 0
151 110 0
146 109 0
141 108 0
147 109 0
143 109 0
148 110 0
147 109 0
150 110 0
143 109 0
138 108 0
144 109 0
143 109 0
143 108 0
143 109 0
147 109 0
148 110 0
145 109 0
141 108 0
146 109 0
143 108 0
143 108 0
145 109 0
147 107 0
138 106 0
146 105 0
137 104 0
144 99 0
140 98 0
146 100 0
137 93 0
140 85 0
128 83 0
140 86 0
149 82 0
136 80 0
137 70 0
136 65 0
132 57 0
131 45 0
132 31 0
164 137 153
190 216 255
177 193 226
92 21 19
119 12 4
122 9 0
126 11 0
128 16 0
125 19 0
128 24 0
137 27 0
129 29 0
139 31 0
130 32 0
137 36 0
133 37 0
144 41 0
135 42 0
143 45 0
146 50 7
148 55 18
146 60 25
147 64 37
149 71 49
150 78 66
156 80 69
162 87 81
159 88 84
164 92 93
170 94 95
167 93 94
170 94 95
170 94 95
166 93 94
170 93 95
169 93 94
168 93 94
169 93 95
169 94 94
167 93 93
170 94 95
167 93 94
167 93 94
169 94 94
170 94 95
168 93 94
169 93 95
170 94 94
168 93 95
171 94 95
168 93 94
171 94 95
168 93 94
171 94 95
171 94 95
169 94 94
167 93 94
171 94 95
170 94 94
169 93 94
168 94 94
169 94 94
164 93 94
169 94 94
170 94 95
171 94 94
169 93 94
168 93 94
168 93 94
167 93 94
169 93 95
167 93 94
164 93 93
171 94 95
168 94 94
170 94 95
170 94 94
168 94 94
169 94 94
168 93 94
166 93 93
170 94 95
168 93 94
168 93 94
169 93 94
168 93 94
169 94 94
166 93 94
168 94 94
169 94 94
169 94 94
172 94 95
166 93 93
168 94 94
167 93 93
165 93 93
169 94 94
167 93 94
165 93 93
169 94 94
168 94 93
173 94 95
171 94 94
168 94 94
166 93 93
167 94 93
165 93 93
170 94 94
167 94 93
161 93 92
159 92 92
168 94 93
155 92 90
163 93 92
156 90 90
137 81 80
120 70 68
95 58 56
141 144 167
190 216 255
190 216 255
190 216 255
190 216 255
190 216 255
190 216 255
190 216 255
190 216 255
190 216 255
190 216 255
190 216 255
190 216 255
190 216 255
190 216 255
190 216 255
190 216 255
190 216 255
190 216 255
190 216 255
190 216 255
190 216 255
190 216 255
190 216 255
190 216 255
190 216 255
190 216 255
190 216 255
190 216 255
190 216 255
190 216 255
190 216 255
190 216 255
190 216 255
190 216 255
190 216 255
190 216 255
190 216 255
190 216 255
190 216 255
190 216 255
190 216 255
190 216 255
190 216 255
190 216 255
190 216 255
190 216 255
190 216 255
190 216 255
190 216 255
190 216 255
190 216 255
190 216 255
190 216 255
190 216 255
190 216 255
190 216 255
190 216 255
190 216 255
190 216 255
190 216 255
190 216 255
190 216 255
190 216 255
190 216 255
190 216 255
190 216 255
190 216 255
190 216 255
190 216 255
190 216 255
121 138 163
52 60 71
33 38 46
118 134 158
191 217 255
190 216 255
190 216 255
189 216 255
189 215 255
188 215 255
188 215 255
187 215 255
187 215 255
187 214 255
187 214 255
186 214 255
186 214 255
186 214 255
185 213 255
185 213 255
185 213 255
185 213 255
186 214 255
186 214 255
186 214 255
186 214 255
187 214 255
184 213 253
187 215 255
185 213 252
187 214 255
184 214 253
179 212 251
185 213 252
181 213 252
178 212 250
177 211 249
181 213 251
185 214 254
182 211 246
180 209 243
182 207 240
182 205 232
181 206 240
185 210 245
181 206 235
182 208 243
183 208 243
187 215 255
182 207 240
180 205 240
183 208 243
180 208 242
181 213 251
183 213 253
183 213 253
184 214 253
181 213 251
184 213 253
183 214 253
182 213 252
182 213 252
182 213 252
184 214 253
180 212 251
180 212 251
187 214 255
187 215 255
181 213 251
182 213 252
183 213 253
185 214 254
180 213 251
181 212 251
178 212 249
181 213 251
185 214 254
183 213 253
182 211 251
173 209 245
181 213 251
180 212 251
175 211 248
182 213 252
184 213 253
186 214 255
183 213 253
179 212 251
179 212 250
183 207 240
178 210 245
179 209 244
181 210 244
181 208 242
179 202 234
184 208 243
182 208 245
184 204 230
182 207 239
185 211 247
135 131 97
143 135 84
107 82 0
115 87 0
110 92 0
133 103 2
131 103 5
143 108 12
140 107 5
123 97 2
159 163 151
184 207 238
182 202 222
179 199 222
176 190 197
176 187 189
190 216 255
190 216 255
160 165 145
113 86 0
109 84 0
110 82 0
111 87 0
118 92 0
120 91 0
130 96 0
122 90 0
133 100 0
122 94 0
133 100 0
133 103 0
139 104 0
141 107 0
147 109 0
142 107 0
126 103 0
144 109 0
136 108 0
138 108 0
149 108 0
143 109 0
136 108 0
135 108 0
144 109 0
146 109 0
136 108 0
138 108 0
144 109 0
144 109 0
147 109 0
149 110 0
149 110 0
143 109 0
147 109 0
147 109 0
141 108 0
139 108 0
153 111 0
142 109 0
146 109 0
142 109 0
145 109 0
134 108 0
142 109 0
142 109 0
146 109 0
143 109 0
141 109 0
142 109 0
145 110 0
142 109 0
144 109 0
140 108 0
145 109 0
146 109 0
145 109 0
143 109 0
144 109 0
142 109 0
146 109 0
150 110 0
152 110 0
150 110 0
146 109 0
147 109 0
143 109 0
151 110 0
141 109 0
143 109 0
148 109 0
134 108 0
146 109 0
142 109 0
131 103 0
149 106 0
146 104 0
143 103 0
135 99 0
143 104 0
136 90 0
134 90 0
142 93 0
138 88 0
133 77 0
136 85 0
139 76 0
136 70 0
141 65 0
137 57 0
128 48 0
129 31 0
153 108 117
190 216 255
166 169 196
86 22 20
105 5 0
124 9 0
121 12 0
125 15 0
127 18 0
138 22 0
136 29 0
128 27 0
133 31 0
140 35 0
140 36 0
134 38 0
142 41 0
134 42 0
139 43 0
140 48 2
141 53 17
150 60 27
151 67 38
153 71 48
154 76 57
155 80 68
158 86 78
155 90 86
161 91 91
168 93 94
162 92 92
165 93 93
165 93 93
164 93 93
166 93 94
159 92 92
167 93 93
163 93 93
163 93 93
165 93 93
161 92 92
165 93 93
168 94 94
168 93 94
163 93 93
167 94 93
165 93 93
167 94 93
165 93 93
169 94 94
169 94 94
165 93 93
162 93 93
166 93 93
163 93 92
164 93 93
168 93 94
161 93 92
169 94 94
167 94 93
165 93 93
168 94 94
163 93 92
165 93 93
165 93 93
167 94 93
167 94 93
162 93 92
165 93 93
166 93 93
169 94 94
161 93 92
168 94 93
165 93 93
167 93 94
165 93 93
164 93 93
162 93 92
167 94 93
162 93 92
162 93 92
167 93 94
165 93 93
162 93 93
167 94 93
168 94 94
164 93 93
166 93 93
165 93 93
162 93 92
165 93 93
167 93 93
168 94 94
167 93 93
165 93 93
166 93 93
166 94 93
167 94 93
168 94 94
162 93 92
169 94 94
164 93 93
167 94 93
169 94 94
163 93 92
163 93 92
162 93 92
164 93 93
160 93 92
162 93 92
165 93 93
158 92 91
162 93 91
162 93 92
164 93 92
132 79 77
127 74 72
111 65 63
129 120 135
190 216 255
190 216 255
190 216 255
190 216 255
190 216 255
190 216 255
190 216 255
190 216 255
190 216 255
190 216 255
190 216 255
190 216 255
190 216 255
190 216 255
190 216 255
190 216 255
190 216 255
190 216 255
190 216 255
190 216 255
190 216 255
190 216 255
190 216 255
190 216 255
190 216 255
190 216 255
190 216 255
190 216 255
190 216 255
190 216 255
190 216 255
190 216 255
190 216 255
190 216 255
190 216 255
191 217 255
191 217 255
191 217 255
191 217 255
191 217 255
191 217 255
191 217 255
191 217 255
191 217 255
191 217 255
191 217 255
191 217 255
191 217 255
191 217 255
191 217 255
191 217 255
191 217 255
191 217 255
191 217 255
191 217 255
191 217 255
191 217 255
191 217 255
191 217 255
191 217 255
191 217 255
191 217 255
191 217 255
191 217 255
191 217 255
191 217 255
191 217 255
191 217 255
191 217 255
191 217 255
127 145 171
55 62 74
37 43 51
149 169 199
191 217 255
190 216 255
190 216 255
190 216 255
189 216 255
189 216 255
189 215 255
189 215 255
188 215 255
188 215 255
188 215 255
188 215 255
187 215 255
187 215 255
187 214 255
187 214 255
187 214 255
187 214 255
187 215 255
188 215 255
188 215 255
188 215 255
188 214 253
188 215 255
187 214 253
188 215 255
188 215 255
187 215 255
188 214 253
185 214 253
184 214 253
179 212 250
179 212 250
184 214 253
184 212 248
182 212 250
184 210 244
186 210 243
182 207 238
183 208 240
185 211 245
189 214 253
184 208 240
184 209 243
183 206 235
179 202 232
181 207 240
188 215 255
187 215 255
183 214 252
188 215 255
182 213 251
185 214 253
181 213 251
183 214 252
188 215 255
183 214 252
180 213 250
181 213 251
180 213 250
177 212 249
183 214 252
179 212 249
182 213 251
183 214 252
184 214 253
181 213 251
181 213 251
185 214 253
185 214 253
179 212 249
182 213 251
185 214 253
184 214 253
184 214 253
178 212 249
183 214 252
185 213 251
180 213 250
185 214 253
186 214 254
181 213 251
184 214 253
186 214 254
185 211 249
176 203 234
184 213 250
184 211 246
189 213 250
188 213 250
184 206 235
184 209 243
186 211 245
185 209 242
187 213 250
184 206 238
141 139 94
147 142 99
110 89 0
116 92 0
121 99 2
128 103 7
124 104 2
133 104 5
127 103 5
122 101 5
149 139 94
183 204 232
185 205 230
181 202 225
182 199 215
169 178 166
189 214 253
191 217 255
150 141 89
116 91 0
111 85 0
108 83 0
118 87 0
119 93 0
105 84 0
114 93 0
117 93 0
121 94 0
119 97 0
126 97 0
140 106 0
131 102 0
132 100 0
143 107 0
142 107 0
145 108 0
141 109 0
143 109 0
155 110 0
142 108 0
135 108 0
147 110 0
139 109 0
145 109 0
140 108 0
139 108 0
146 110 0
150 110 0
145 109 0
140 109 0
142 109 0
138 108 0
144 110 0
145 110 0
144 109 0
132 107 0
140 108 0
145 109 0
142 109 0
140 108 0
137 108 0
142 109 0
146 109 0
134 108 0
136 108 0
144 109 0
145 109 0
149 110 0
142 109 0
147 109 0
145 110 0
142 109 0
137 108 0
148 110 0
139 108 0
144 109 0
141 108 0
143 109 0
139 109 0
137 108 0
140 108 0
141 108 0
139 108 0
147 110 0
143 109 0
142 108 0
141 108 0
141 108 0
144 109 0
153 110 0
136 108 0
144 109 0
145 109 0
143 107 0
149 107 0
143 102 0
136 105 0
137 100 0
140 98 0
145 98 0
144 95 0
131 90 0
143 91 0
131 86 0
139 85 0
136 82 0
134 74 0
140 65 0
141 63 0
133 54 0
134 34 0
153 110 120
191 217 255
150 150 173
87 15 13
111 5 0
117 8 0
118 11 0
120 16 0
127 18 0
123 23 0
132 29 0
132 27 0
122 29 0
129 36 0
130 34 0
138 35 0
132 40 0
126 41 0
134 43 0
136 48 5
146 51 10
146 60 28
136 65 38
142 71 47
153 78 64
156 85 77
150 87 82
150 89 85
156 91 90
157 92 91
160 92 92
159 93 91
163 93 92
160 92 92
161 93 92
161 93 91
164 93 93
165 93 93
165 93 93
162 93 92
164 93 93
159 93 91
160 93 91
156 92 90
161 93 92
158 92 91
162 93 92
153 92 90
160 93 91
165 93 92
163 93 92
158 92 91
160 93 91
160 93 92
161 93 92
156 92 91
168 94 93
162 93 92
163 93 92
158 92 91
163 93 92
156 92 91
163 93 92
160 93 91
163 93 92
164 93 93
159 92 91
163 93 92
161 93 92
165 93 92
160 92 92
160 93 91
163 93 92
161 93 91
164 93 92
159 92 91
160 93 91
158 92 91
165 93 92
169 94 94
154 92 90
164 93 92
163 93 92
166 94 93
162 93 92
158 92 91
158 92 91
161 93 92
150 91 89
164 93 92
163 93 92
160 93 91
153 92 90
167 94 93
162 93 92
161 93 92
161 93 91
159 93 91
162 93 92
164 93 92
163 93 92
160 93 91
161 93 91
166 93 93
154 92 90
166 94 92
159 93 91
157 92 91
157 92 91
162 93 91
159 93 91
159 93 91
155 92 90
166 94 93
154 91 89
143 84 82
122 72 70
95 58 56
113 102 113
191 217 255
191 217 255
191 217 255
191 217 255
191 217 255
191 217 255
191 217 255
191 217 255
191 217 255
191 217 255
191 217 255
191 217 255
191 217 255
191 217 255
191 217 255
191 217 255
191 217 255
191 217 255
191 217 255
191 217 255
191 217 255
191 217 255
191 217 255
191 217 255
191 217 255
191 217 255
191 217 255
191 217 255
191 217 255
191 217 255
191 217 255
191 217 255
191 217 255
191 217 255
191 217 255
191 217 255
191 217 255
191 217 255
191 217 255
191 217 255
191 217 255
191 217 255
191 217 255
191 217 255
191 217 255
191 217 255
191 217 255
191 217 255
191 217 255
191 217 255
191 217 255
191 217 255
191 217 255
191 217 255
191 217 255
191 217 255
191 217 255
191 217 255
191 217 255
191 217 255
191 217 255
191 217 255
191 217 255
191 217 255
191 217 255
191 217 255
191 217 255
191 217 255
191 217 255
191 217 255
126 143 168
53 60 71
28 32 38
136 154 181
191 217 255
191 217 255
190 216 255
190 216 255
190 216 255
190 216 255
190 216 255
190 216 255
189 216 255
189 216 255
189 216 255
189 216 255
189 215 255
189 215 255
189 215 255
188 215 255
188 215 255
188 215 255
189 216 255
189 216 255
189 216 255
189 216 255
189 216 255
189 216 255
188 214 250
189 216 255
189 215 253
189 216 255
189 216 255
189 216 255
189 216 255
190 216 255
189 216 255
190 216 255
186 214 252
187 214 252
183 206 232
187 211 245
180 204 232
183 208 240
181 205 232
181 205 230
188 214 250
183 208 240
183 207 238
184 206 238
186 210 243
185 211 248
185 209 242
183 213 249
178 212 249
184 214 252
185 215 253
188 216 255
184 214 252
183 214 251
180 213 249
182 214 251
182 214 251
180 213 249
184 214 252
182 214 251
185 215 253
188 216 255
185 215 253
186 215 253
185 215 253
188 215 255
185 215 253
185 215 253
186 215 253
184 214 252
187 215 254
184 213 251
188 215 254
185 214 250
186 215 253
185 215 253
184 214 252
187 215 254
189 216 255
187 215 254
189 216 255
187 215 254
188 211 248
188 214 251
188 211 243
190 215 253
185 207 235
182 200 230
187 210 244
187 208 239
186 209 243
186 210 245
181 207 243
186 211 248
144 141 107
151 144 102
111 87 2
123 97 0
123 95 0
127 102 5
123 103 2
125 99 2
127 101 5
130 103 2
133 123 58
182 208 238
181 204 230
180 200 220
178 190 194
171 176 161
189 215 253
191 217 255
156 147 99
111 93 0
111 88 0
93 76 0
114 90 0
110 86 0
117 91 0
119 93 0
127 95 0
111 90 0
131 101 0
129 101 0
117 94 0
128 100 0
132 102 0
139 106 0
132 106 0
143 108 0
142 108 0
137 108 0
143 109 0
140 109 0
145 109 0
137 108 0
148 110 0
139 108 0
129 107 0
145 109 0
151 110 0
136 108 0
143 109 0
147 110 0
141 109 0
144 109 0
144 109 0
141 109 0
154 111 0
138 108 0
141 109 0
136 107 0
143 109 0
147 110 0
143 109 0
138 108 0
144 109 0
149 111 0
139 108 0
145 110 0
137 108 0
138 108 0
143 109 0
142 109 0
145 110 0
143 109 0
144 109 0
140 109 0
136 108 0
138 109 0
146 110 0
135 108 0
139 109 0
141 109 0
144 110 0
136 108 0
133 107 0
143 109 0
139 108 0
140 109 0
137 108 0
146 109 0
138 108 0
136 108 0
139 108 0
133 107 0
147 109 0
141 108 0
142 107 0
139 104 0
134 105 0
137 103 0
141 98 0
134 94 0
135 97 0
133 88 0
135 88 0
135 84 0
134 85 0
134 82 0
129 73 0
131 65 0
133 62 0
122 48 0
135 35 0
139 71 69
191 217 255
146 145 167
84 11 9
97 3 0
113 9 0
120 12 0
121 15 0
123 19 0
123 22 0
128 23 0
123 26 0
127 30 0
119 33 0
131 34 0
122 35 0
135 39 0
129 42 0
140 41 0
137 45 0
135 55 18
144 60 28
144 68 43
147 75 56
148 78 63
150 83 72
148 81 69
152 89 85
152 90 87
152 92 89
152 91 90
158 92 91
159 92 91
151 91 89
156 92 90
155 92 90
155 92 90
161 93 92
156 92 90
159 93 91
163 93 92
151 92 89
155 92 90
157 92 90
152 92 89
156 92 90
157 92 90
152 92 89
157 92 90
156 92 90
161 93 91
163 93 92
157 92 90
156 92 90
155 92 90
153 92 89
161 93 92
155 92 90
156 92 90
156 92 90
161 93 91
157 92 90
156 92 90
153 92 89
153 92 89
160 93 91
155 92 90
157 93 90
150 91 89
167 94 93
155 92 90
159 93 91
164 93 92
155 92 90
154 92 90
156 92 90
159 93 91
164 93 92
164 93 92
156 92 90
158 93 90
162 93 92
160 93 91
154 92 90
155 92 90
155 92 90
155 92 90
160 93 91
156 92 90
161 93 91
160 93 91
162 93 91
151 92 89
158 93 90
158 93 90
158 93 91
154 92 90
158 92 91
160 93 91
153 92 90
157 92 91
160 93 91
163 93 92
160 93 91
163 93 92
163 93 91
160 93 91
151 91 89
160 93 91
158 93 90
157 92 90
155 92 90
154 92 90
156 92 90
152 90 88
142 86 83
117 71 68
93 57 55
102 80 87
191 217 255
191 217 255
191 217 255
191 217 255
191 217 255
191 217 255
191 217 255
191 217 255
191 217 255
191 217 255
191 217 255
191 217 255
191 217 255
191 217 255
191 217 255
191 217 255
191 217 255
191 217 255
191 217 255
191 217 255
191 217 255
191 217 255
191 217 255
191 217 255
191 217 255
191 217 255
191 217 255
191 217 255
191 217 255
191 217 255
191 217 255
191 217 255
191 217 255
191 217 255
191 217 255
191 217 255
191 217 255
191 217 255
191 217 255
191 217 255
191 217 255
191 217 255
191 217 255
191 217 255
191 217 255
191 217 255
191 217 255
191 217 255
191 217 255
191 217 255
191 217 255
191 217 255
191 217 255
191 217 255
191 217 255
191 217 255
191 217 255
191 217 255
191 217 255
191 217 255
191 217 255
191 217 255
191 217 255
191 217 255
191 217 255
191 217 255
191 217 255
191 217 255
191 217 255
191 217 255
116 132 156
66 76 89
42 47 56
138 156 184
191 217 255
191 217 255
191 217 255
191 217 255
191 217 255
191 217 255
191 217 255
190 216 255
190 216 255
190 216 255
190 216 255
190 216 255
190 216 255
190 216 255
190 216 255
190 216 255
190 216 255
190 216 255
190 216 255
190 216 255
190 216 255
190 216 255
190 216 255
191 217 255
190 215 253
189 215 253
190 216 255
190 215 253
189 215 253
191 217 255
191 217 255
190 216 255
191 217 255
191 217 255
189 215 253
189 214 250
190 213 248
189 213 248
185 210 245
185 210 245
188 213 248
187 210 240
189 213 248
185 208 238
188 213 248
185 210 243
188 212 245
187 211 245
187 212 245
189 215 253
190 216 255
191 217 255
190 216 255
191 217 255
190 216 255
190 216 255
191 217 255
191 217 255
191 217 255
190 216 255
191 217 255
191 217 255
190 216 255
191 217 255
191 217 255
191 217 255
190 216 255
191 217 255
191 217 255
191 217 255
191 217 255
191 216 253
191 217 255
191 216 253
190 215 253
191 217 255
191 217 255
190 216 253
191 217 255
191 217 255
191 217 255
191 217 255
191 217 255
189 213 251
189 210 247
189 213 249
189 212 245
189 213 248
189 212 245
188 212 245
188 206 238
186 208 242
190 213 248
189 214 253
187 210 243
184 209 240
141 143 112
152 144 92
125 102 12
115 91 0
130 102 0
126 105 5
121 105 7
124 102 10
127 101 7
128 103 5
128 110 35
187 210 240
182 204 232
177 193 202
179 194 204
169 178 174
183 206 240
191 217 255
145 135 76
112 90 0
98 82 0
118 93 0
118 91 0
121 89 0
114 89 0
113 88 0
119 95 0
119 95 0
118 93 0
130 101 0
137 105 0
131 103 0
136 105 0
134 104 0
127 107 0
140 106 0
136 107 0
136 107 0
142 109 0
144 109 0
147 109 0
130 107 0
136 108 0
133 108 0
143 109 0
140 109 0
141 109 0
133 106 0
147 110 0
146 109 0
138 108 0
145 109 0
125 106 0
141 109 0
130 107 0
143 109 0
145 109 0
137 108 0
138 109 0
145 109 0
149 110 0
143 109 0
146 110 0
143 109 0
138 108 0
137 109 0
149 110 0
142 109 0
136 108 0
132 107 0
132 107 0
137 109 0
132 107 0
140 109 0
137 108 0
129 107 0
146 110 0
141 108 0
134 107 0
141 108 0
146 110 0
142 110 0
136 108 0
143 109 0
142 108 0
137 108 0
140 109 0
142 108 0
132 107 0
133 107 0
134 108 0
136 108 0
139 105 0
144 109 0
138 105 0
139 106 0
133 100 0
137 102 0
136 97 0
138 97 0
137 91 0
130 88 0
128 87 0
130 81 0
136 77 0
143 80 0
134 71 0
125 66 0
123 60 0
135 49 0
117 31 0
142 80 84
191 217 255
133 118 135
84 9 7
92 4 0
105 6 0
115 10 0
118 15 0
122 19 0
117 22 0
115 22 0
120 30 0
131 32 0
125 32 0
121 35 0
129 35 0
128 39 0
135 41 0
138 43 0
130 47 5
129 49 8
138 60 25
138 69 44
142 69 43
149 77 60
142 79 63
146 87 80
142 85 75
150 91 88
151 91 89
154 92 90
151 92 88
146 91 88
154 92 90
147 91 88
144 91 87
154 92 89
154 92 90
152 92 89
150 92 88
153 92 89
153 92 89
156 92 90
148 91 88
153 92 90
158 93 90
154 92 90
147 91 88
158 93 90
150 92 89
151 92 89
145 91 87
148 91 88
154 92 89
150 92 88
147 91 88
154 92 89
151 92 89
156 92 90
151 92 89
153 92 89
158 93 90
155 92 90
153 92 89
141 90 86
152 92 89
149 91 88
159 93 91
150 92 88
147 91 88
154 92 89
159 93 90
147 91 88
160 93 91
162 93 91
144 91 87
151 92 88
154 92 89
154 92 89
151 92 88
157 92 90
145 91 87
155 92 90
152 92 89
158 93 90
154 92 90
153 92 89
151 92 89
152 92 89
160 93 91
155 92 90
152 92 89
156 93 90
161 93 91
161 93 91
155 92 90
156 93 90
161 93 91
157 93 90
159 93 91
154 92 89
146 91 87
155 92 90
156 92 90
154 92 90
151 92 89
152 92 89
153 92 89
147 91 88
149 92 88
149 91 88
145 91 87
151 92 88
157 93 90
147 90 87
136 85 82
124 76 73
105 65 63
109 88 95
191 217 255
191 217 255
191 217 255
191 217 255
191 217 255
191 217 255
191 217 255
191 217 255
191 217 255
191 217 255
191 217 255
191 217 255
191 217 255
191 217 255
191 217 255
191 217 255
191 217 255
191 217 255
191 217 255
191 217 255
191 217 255
191 217 255
191 217 255
191 217 255
191 217 255
191 217 255
191 217 255
191 217 255
191 217 255
191 217 255
191 217 255
191 217 255
191 217 255
191 217 255
191 217 255
191 217 255
191 217 255
191 217 255
191 217 255
191 217 255
191 217 255
192 217 255
192 217 255
192 217 255
191 217 255
191 217 255
191 217 255
192 217 255
192 217 255
192 217 255
192 217 255
191 217 255
191 217 255
191 217 255
191 217 255
192 217 255
191 217 255
192 217 255
191 217 255
192 217 255
191 217 255
192 217 255
192 217 255
191 217 255
192 217 255
191 217 255
192 217 255
191 217 255
192 217 255
191 217 255
120 137 161
51 58 69
48 54 63
153 174 204
191 217 255
191 217 255
191 217 255
191 217 255
192 217 255
191 217 255
192 217 255
192 217 255
192 217 255
192 217 255
192 217 255
192 217 255
192 217 255
191 217 255
191 217 255
192 217 255
192 217 255
192 217 255
192 217 255
191 217 255
191 217 255
192 217 255
191 217 255
192 217 255
190 216 253
191 217 255
191 217 255
191 215 250
191 216 253
192 217 255
192 217 255
191 217 255
191 217 255
191 216 253
190 215 250
191 216 253
189 211 243
184 206 232
189 212 245
188 211 243
189 212 245
188 212 245
188 210 240
190 214 248
187 209 238
186 210 240
185 209 240
183 206 235
189 213 245
191 216 253
191 217 255
191 217 255
192 217 255
191 217 255
192 217 255
192 217 255
192 217 255
192 217 255
191 217 255
191 217 255
192 217 255
191 217 255
192 217 255
192 217 255
192 217 255
191 217 255
191 217 255
191 217 255
191 217 255
191 217 255
191 217 255
191 217 255
192 217 255
191 215 253
191 217 255
191 217 255
191 217 255
191 216 253
192 217 255
192 217 255
192 217 255
192 217 255
191 217 255
192 217 255
190 213 250
189 214 249
191 212 243
189 212 243
190 214 248
187 208 238
185 207 238
188 212 246
182 205 235
188 210 240
190 215 250
183 208 240
150 150 122
138 130 79
116 97 2
116 93 0
124 103 0
125 102 5
123 102 5
122 101 5
119 100 0
121 100 7
116 109 51
185 208 238
180 203 227
181 201 217
174 187 191
167 178 176
190 215 253
191 217 255
145 135 74
113 91 0
105 82 0
92 78 0
108 82 0
113 89 0
107 93 0
107 88 0
110 91 0
125 99 0
126 100 0
124 95 0
129 100 0
131 104 0
130 103 0
132 105 0
129 103 0
134 106 0
133 106 0
139 109 0
133 107 0
141 109 0
144 110 0
131 107 0
127 107 0
143 109 0
148 110 0
140 109 0
143 109 0
143 109 0
143 109 0
142 109 0
129 107 0
150 110 0
150 111 0
138 109 0
139 108 0
147 110 0
149 110 0
134 108 0
145 110 0
144 110 0
131 107 0
135 108 0
137 107 0
140 108 0
139 109 0
142 109 0
140 109 0
139 109 0
132 108 0
137 108 0
138 109 0
133 107 0
143 109 0
138 108 0
144 109 0
139 109 0
127 107 0
142 109 0
140 109 0
136 108 0
133 108 0
139 109 0
141 109 0
132 108 0
143 109 0
133 108 0
139 108 0
134 107 0
137 108 0
145 109 0
140 109 0
140 109 0
138 107 0
139 108 0
139 105 0
127 102 0
141 106 0
134 102 0
132 95 0
128 96 0
134 88 0
137 95 0
128 86 0
141 89 0
119 81 0
124 76 0
128 70 0
138 69 0
131 59 0
128 45 0
126 33 0
131 73 74
191 217 255
149 145 166
75 9 8
84 3 0
108 7 0
109 10 0
104 14 0
116 17 0
123 22 0
121 27 0
115 27 0
123 30 0
123 32 0
126 33 0
120 37 0
125 37 0
126 41 0
131 42 0
135 47 3
122 50 12
132 59 25
134 64 37
138 71 48
142 75 55
137 80 64
140 83 73
144 85 76
146 91 87
145 91 87
148 91 88
148 91 88
148 91 88
149 91 88
149 92 88
142 90 86
149 91 88
150 92 88
140 90 86
146 91 87
146 91 87
142 90 86
149 92 88
141 90 86
149 91 88
151 92 88
144 91 87
142 91 86
142 90 87
145 91 87
141 90 86
153 92 89
148 91 88
148 91 88
149 92 88
152 92 89
149 92 88
145 91 87
141 90 86
149 92 88
152 92 89
150 92 88
138 90 85
150 92 88
150 92 88
142 90 87
148 91 88
148 91 88
151 92 88
140 90 86
157 93 90
153 92 89
148 91 88
155 92 90
150 92 89
141 91 86
156 92 90
140 90 86
146 91 87
153 92 89
152 92 89
147 91 87
148 91 88
146 91 87
150 92 88
146 91 87
143 91 86
155 93 89
151 92 88
149 92 88
156 93 90
149 91 88
144 91 87
154 92 89
149 91 88
148 91 88
154 92 89
145 91 87
154 92 89
152 92 89
146 91 87
153 92 89
156 92 90
149 92 88
158 93 90
153 92 89
148 91 88
147 91 87
146 91 87
144 91 87
148 91 88
151 92 88
146 91 87
154 92 89
145 90 87
136 84 80
131 80 77
98 60 57
104 89 97
192 217 255
192 217 255
191 217 255
192 217 255
191 217 255
192 217 255
192 217 255
191 217 255
192 217 255
192 217 255
192 217 255
192 217 255
192 217 255
192 217 255
191 217 255
191 217 255
192 217 255
192 217 255
191 217 255
191 217 255
191 217 255
191 217 255
191 217 255
191 217 255
191 217 255
191 217 255
191 217 255
192 217 255
191 217 255
192 217 255
191 217 255
192 217 255
191 217 255
192 217 255
191 217 255
192 217 255
192 217 255
192 217 255
192 217 255
192 217 255
192 217 255
192 217 255
192 217 255
192 217 255
192 217 255
192 217 255
192 217 255
192 217 255
192 217 255
192 217 255
192 217 255
192 217 255
192 217 255
192 217 255
192 217 255
192 217 255
192 217 255
192 217 255
192 217 255
192 217 255
192 217 255
192 217 255
192 217 255
192 217 255
192 217 255
192 217 255
192 217 255
192 217 255
192 217 255
192 217 255
105 119 140
48 54 63
46 52 61
169 191 225
192 217 255
192 217 255
192 217 255
192 217 255
192 217 255
192 218 255
192 218 255
192 218 255
193 218 255
193 218 255
193 218 255
193 218 255
193 218 255
193 218 255
193 218 255
193 218 255
193 218 255
193 218 255
193 218 255
193 218 255
193 218 255
193 218 255
192 217 253
193 218 255
191 216 253
192 218 255
192 217 253
192 218 255
191 216 253
192 218 255
193 218 255
192 218 255
192 218 255
192 217 253
191 215 250
191 214 248
186 206 230
190 214 248
187 209 235
186 209 240
190 213 248
185 206 232
192 215 248
191 214 248
191 214 248
190 213 245
190 211 240
189 213 245
191 213 245
191 216 253
192 217 255
192 217 255
192 218 255
192 217 255
192 217 255
192 217 255
192 218 255
192 217 255
192 218 255
192 217 255
192 217 255
192 217 255
192 218 255
192 217 255
192 218 255
192 218 255
192 218 255
192 218 255
192 218 255
192 218 255
192 218 255
191 216 253
192 218 255
192 218 255
192 218 255
192 218 255
192 218 255
192 218 255
192 218 255
192 218 255
192 218 255
192 218 255
192 218 255
192 216 254
191 216 254
189 212 244
190 214 248
190 212 243
190 211 240
189 209 241
187 211 241
188 212 245
189 208 235
186 209 238
190 212 243
184 207 240
145 147 112
140 139 87
112 92 2
109 89 0
109 93 0
119 101 2
122 102 5
119 100 5
125 104 5
122 100 2
118 109 38
187 206 232
186 208 235
180 195 204
180 193 202
162 171 158
188 213 250
192 217 255
140 131 66
108 91 0
105 83 0
96 80 0
100 79 0
94 77 0
110 89 0
112 91 0
110 92 0
119 99 0
126 98 0
121 100 0
127 100 0
120 99 0
134 105 0
135 103 0
127 101 0
131 105 0
136 107 0
139 107 0
139 109 0
142 109 0
132 107 0
136 108 0
135 108 0
136 108 0
141 109 0
135 108 0
137 108 0
136 108 0
148 110 0
145 109 0
125 106 0
136 108 0
127 107 0
135 108 0
138 108 0
143 109 0
146 109 0
137 108 0
137 109 0
137 109 0
138 108 0
147 110 0
139 109 0
135 108 0
138 108 0
141 109 0
131 107 0
136 108 0
138 109 0
137 109 0
137 108 0
137 108 0
137 108 0
137 108 0
149 110 0
137 108 0
133 108 0
141 109 0
141 108 0
137 108 0
142 109 0
125 107 0
128 107 0
141 109 0
145 109 0
137 108 0
135 108 0
132 107 0
145 109 0
133 107 0
143 108 0
133 107 0
135 105 0
130 106 0
135 106 0
128 104 0
127 102 0
137 99 0
138 103 0
138 99 0
141 94 0
134 96 0
126 82 0
135 83 0
132 79 0
128 76 0
129 76 0
126 69 0
131 58 0
117 45 0
108 32 0
137 90 94
192 217 255
151 152 176
64 5 4
82 4 0
95 8 0
99 8 0
99 14 0
106 15 0
120 22 0
112 23 0
116 25 0
118 30 0
114 31 0
114 34 0
113 34 0
121 38 0
118 40 0
123 41 0
127 46 4
124 52 12
126 59 24
132 64 35
130 73 54
133 75 54
125 80 67
137 84 74
138 85 75
131 87 81
128 88 82
141 90 86
134 90 84
136 90 85
138 89 85
134 90 84
138 90 85
140 90 86
145 91 87
143 91 86
147 91 87
137 90 85
143 91 86
139 90 85
142 91 86
153 92 89
132 89 83
139 90 85
149 92 88
147 91 87
142 91 86
142 91 86
134 90 84
134 90 84
145 91 87
136 90 85
145 91 87
138 90 85
135 90 84
141 90 86
134 89 84
147 91 88
147 92 87
140 90 86
139 90 85
147 91 87
139 90 85
141 90 86
141 90 86
143 91 86
139 90 85
144 91 87
139 90 85
151 92 88
145 91 87
142 91 86
141 90 86
132 89 84
147 91 87
143 91 86
137 90 85
132 89 84
144 91 86
141 91 86
147 91 87
147 91 87
137 90 85
146 91 87
149 92 88
145 91 87
145 91 87
148 92 87
144 91 86
144 91 86
137 90 85
142 91 86
143 91 86
142 91 86
145 91 87
148 92 87
144 91 87
145 91 87
146 91 87
148 91 88
144 91 87
147 91 87
146 91 87
143 91 87
147 91 87
141 90 86
147 91 87
140 90 86
141 90 86
140 90 86
152 92 89
138 87 83
138 86 82
103 67 64
78 53 50
109 85 90
192 217 255
192 217 255
192 217 255
192 217 255
192 217 255
192 217 255
192 217 255
192 217 255
192 217 255
192 217 255
192 217 255
192 217 255
192 217 255
192 217 255
192 217 255
192 217 255
192 217 255
192 217 255
192 217 255
192 217 255
192 217 255
192 217 255
192 217 255
192 217 255
192 217 255
192 217 255
192 217 255
192 217 255
192 217 255
192 217 255
192 217 255
192 217 255
192 217 255
192 217 255
192 217 255
192 217 255
192 217 255
192 217 255
192 217 255
192 217 255
192 217 255
192 217 255
192 217 255
192 217 255
192 217 255
192 217 255
192 217 255
192 217 255
192 217 255
192 217 255
192 217 255
192 217 255
192 217 255
192 217 255
192 217 255
192 217 255
192 217 255
192 217 255
192 217 255
192 217 255
192 217 255
192 217 255
192 217 255
192 217 255
192 217 255
192 217 255
192 217 255
192 217 255
192 217 255
192 217 255
121 137 161
67 76 89
34 39 46
157 178 209
192 217 255
192 217 255
192 218 255
193 218 255
193 218 255
193 218 255
193 218 255
194 218 255
194 218 255
194 219 255
194 219 255
194 219 255
194 219 255
194 219 255
195 219 255
195 219 255
195 219 255
195 219 255
194 219 255
194 219 255
194 218 255
194 218 255
193 217 253
194 218 255
193 217 253
194 218 255
193 217 253
194 218 255
194 218 255
193 218 255
193 218 255
193 218 255
193 218 255
193 218 255
193 216 250
193 217 253
193 213 243
188 211 240
193 217 253
186 207 235
190 211 240
188 209 238
188 209 238
189 209 235
188 208 235
189 212 243
192 213 243
191 214 248
188 203 225
193 218 255
191 217 254
191 217 255
193 218 255
193 218 255
192 218 255
191 217 254
192 217 255
190 217 254
192 218 255
191 217 254
192 218 255
193 218 255
193 218 255
190 217 254
193 218 255
189 217 253
193 218 255
191 217 254
192 218 255
193 218 255
192 218 255
192 218 255
193 218 255
190 217 254
187 214 248
192 217 253
192 217 253
189 216 252
191 217 254
193 218 255
192 217 255
192 218 255
193 218 255
192 218 255
190 214 250
191 215 249
192 216 250
191 213 243
187 210 240
191 214 245
188 211 244
189 210 239
193 216 250
186 209 235
190 212 240
191 212 243
144 149 125
139 139 92
101 88 0
103 88 0
116 96 0
123 103 7
122 105 7
113 101 5
119 97 5
124 102 7
118 112 53
186 207 232
190 214 248
184 204 227
179 197 212
170 176 161
190 215 253
192 217 255
146 148 112
120 91 0
92 80 0
103 86 0
114 93 0
104 81 0
118 94 0
121 95 0
115 87 0
107 94 0
124 98 0
121 97 0
125 102 0
126 99 0
128 104 0
131 107 0
135 107 0
132 106 0
133 105 0
134 108 0
145 108 0
139 109 0
141 109 0
137 108 0
137 108 0
136 108 0
129 107 0
140 109 0
141 109 0
143 109 0
124 106 0
132 108 0
137 108 0
137 109 0
140 109 0
140 109 0
136 108 0
139 109 0
137 108 0
137 108 0
140 109 0
131 108 0
150 110 0
135 108 0
128 107 0
128 107 0
148 110 0
128 107 0
139 109 0
131 108 0
137 109 0
141 109 0
146 110 0
138 108 0
128 106 0
137 108 0
144 109 0
138 109 0
141 109 0
144 110 0
138 109 0
135 108 0
138 108 0
137 109 0
139 108 0
133 108 0
137 108 0
133 108 0
141 109 0
143 109 0
133 107 0
130 107 0
137 108 0
144 109 0
137 108 0
129 106 0
141 107 0
131 102 0
132 101 0
136 102 0
133 100 0
136 99 0
132 95 0
136 94 0
128 89 0
136 82 0
135 84 0
128 76 0
120 69 0
126 58 0
117 57 0
121 50 0
111 35 0
122 78 81
192 217 255
148 149 172
74 14 11
77 5 0
87 6 0
104 11 0
103 16 0
101 17 0
103 20 0
115 25 0
108 26 0
113 29 0
118 31 0
127 33 0
118 37 0
112 37 0
123 42 0
113 40 0
115 43 4
117 50 10
123 59 24
123 65 37
120 67 41
125 76 57
121 76 59
129 85 75
128 84 75
132 88 82
128 88 82
122 88 81
136 90 85
122 88 81
128 89 82
125 88 82
134 90 84
139 90 85
134 89 84
124 88 82
132 89 83
145 91 87
124 88 81
141 91 86
133 90 84
134 89 84
132 89 84
145 91 87
139 90 85
131 89 83
133 89 84
133 89 84
135 90 84
133 89 84
132 89 84
135 90 84
134 90 84
133 89 84
129 89 83
135 90 84
135 90 84
133 89 84
130 89 83
127 89 82
130 89 83
129 89 83
133 89 84
137 90 85
126 89 82
134 90 84
131 89 83
131 89 83
140 90 85
132 89 84
134 90 84
147 91 87
138 90 85
142 91 86
139 90 85
130 89 83
131 89 83
136 90 85
140 91 85
141 91 85
132 89 83
138 90 85
128 89 82
136 90 84
135 90 84
142 91 86
140 90 85
130 89 83
138 90 85
136 90 85
136 90 85
141 91 86
135 90 84
139 90 85
139 90 85
138 90 85
142 91 86
126 88 82
143 91 86
145 91 86
134 90 84
145 91 87
136 90 84
141 91 86
146 91 87
145 91 87
138 90 85
135 90 84
149 91 88
141 91 86
140 90 85
140 90 85
140 85 81
118 74 70
98 63 59
110 98 108
192 217 255
192 217 255
192 217 255
192 217 255
192 217 255
192 217 255
192 217 255
192 217 255
192 217 255
192 217 255
192 217 255
192 217 255
192 217 255
192 217 255
192 217 255
192 217 255
192 217 255
192 217 255
192 217 255
192 217 255
192 217 255
192 217 255
192 217 255
192 217 255
192 217 255
192 217 255
192 217 255
192 217 255
192 217 255
192 217 255
192 217 255
192 217 255
192 217 255
192 217 255
192 217 255
192 218 255
192 218 255
192 218 255
192 218 255
192 218 255
192 218 255
192 218 255
192 218 255
192 218 255
192 218 255
192 218 255
192 218 255
192 218 255
192 218 255
192 218 255
192 218 255
192 218 255
192 218 255
192 218 255
192 218 255
192 218 255
192 218 255
192 218 255
192 218 255
192 218 255
192 218 255
192 218 255
192 218 255
192 218 255
192 218 255
192 218 255
192 218 255
192 218 255
192 218 255
192 218 255
123 139 163
66 74 87
44 50 58
128 145 171
192 217 255
193 218 255
193 218 255
193 218 255
194 218 255
194 219 255
194 219 255
195 219 255
195 219 255
195 219 255
195 219 255
195 219 255
196 220 255
196 220 255
196 220 255
196 220 255
196 220 255
196 220 255
195 219 255
195 219 255
195 219 255
195 218 253
195 219 255
193 217 253
194 218 253
195 219 255
192 218 254
195 219 255
193 218 255
190 218 253
191 218 253
191 217 253
190 217 253
192 218 254
190 216 250
189 216 248
189 214 246
189 213 241
185 209 233
187 213 243
189 214 246
187 214 248
186 212 243
187 212 243
185 210 240
183 211 240
189 213 243
185 211 239
187 213 244
188 217 252
187 216 251
189 217 253
183 215 249
185 216 251
189 217 253
189 217 253
188 217 253
188 217 253
185 216 251
184 215 250
190 217 253
183 215 249
191 218 254
190 217 253
189 217 253
188 216 252
187 216 252
189 217 253
189 217 253
189 217 253
181 214 248
184 215 250
187 215 250
186 216 251
188 216 250
189 215 252
185 216 251
190 217 253
191 218 254
187 216 251
185 216 250
189 217 252
190 217 253
190 217 253
188 213 247
181 206 233
190 212 239
189 214 245
191 212 240
193 214 246
188 211 242
188 211 240
189 212 240
187 210 240
194 218 253
189 211 243
132 141 102
132 127 74
103 82 0
102 88 0
116 92 0
115 97 2
106 94 0
114 98 5
121 102 7
114 98 7
141 145 112
190 213 245
183 200 220
184 202 220
170 186 186
173 183 181
189 213 250
192 218 255
155 162 133
100 84 0
97 81 0
103 87 0
112 91 0
109 85 0
119 93 0
103 89 0
108 92 0
118 97 0
119 96 0
113 95 0
127 102 0
127 103 0
124 100 0
119 100 0
136 107 0
125 105 0
131 107 0
136 108 0
132 106 0
135 107 0
134 108 0
132 107 0
134 106 0
131 108 0
128 107 0
138 108 0
133 108 0
129 107 0
132 107 0
138 109 0
126 107 0
144 110 0
129 107 0
139 109 0
134 108 0
133 108 0
128 107 0
133 108 0
140 109 0
143 109 0
134 108 0
137 108 0
132 107 0
129 107 0
131 107 0
137 108 0
123 106 0
122 106 0
143 109 0
134 108 0
139 109 0
130 107 0
134 108 0
144 110 0
136 108 0
133 108 0
144 110 0
136 108 0
130 107 0
131 108 0
126 106 0
129 107 0
135 108 0
126 107 0
136 108 0
141 108 0
130 107 0
134 108 0
135 107 0
133 107 0
130 107 0
142 108 0
143 109 0
129 106 0
132 105 0
132 104 0
134 101 0
138 100 0
138 100 0
127 95 0
123 93 0
131 90 0
132 89 0
130 80 0
123 75 0
121 75 0
124 73 0
116 64 0
118 52 0
119 54 0
108 33 0
133 95 102
192 218 255
144 137 157
62 16 14
74 5 1
91 7 0
88 9 0
101 16 0
107 20 0
103 21 0
103 22 0
104 27 0
105 30 0
109 30 0
112 31 0
122 37 0
114 38 0
116 38 0
131 43 0
116 43 3
124 51 11
123 58 26
113 56 22
113 66 39
118 72 50
109 77 60
119 81 68
122 84 73
134 89 82
119 88 80
120 88 80
123 88 81
126 88 82
129 89 83
123 88 81
123 88 81
128 89 82
122 88 81
124 88 81
117 87 80
122 88 81
124 88 81
130 89 83
117 87 80
126 88 82
128 89 82
128 89 82
132 89 83
134 90 84
126 89 82
130 89 83
133 90 83
122 88 81
125 88 81
120 88 80
124 88 81
116 87 79
128 89 82
127 89 82
132 89 83
125 88 82
125 88 81
129 89 82
123 88 81
127 89 82
138 90 85
124 88 81
132 89 83
136 90 84
133 89 84
123 88 81
129 89 82
128 89 82
134 90 84
134 90 84
131 89 83
130 89 83
135 90 84
138 90 85
129 89 83
129 89 82
136 90 84
129 89 82
124 88 81
133 89 84
117 87 79
138 90 85
127 89 82
138 90 85
139 90 85
133 90 84
134 90 84
137 90 85
131 89 83
130 89 83
138 90 85
144 91 86
129 89 82
135 90 84
139 90 85
123 88 81
137 90 85
130 89 83
138 90 85
133 90 84
133 90 84
143 91 86
149 92 87
133 89 84
144 91 86
135 90 84
126 88 82
139 90 85
132 89 83
126 87 81
125 81 77
107 70 66
88 61 57
120 104 114
192 218 255
192 218 255
192 218 255
192 218 255
192 218 255
192 218 255
192 218 255
192 218 255
192 218 255
192 218 255
192 218 255
192 218 255
192 218 255
192 218 255
192 218 255
192 218 255
192 218 255
192 218 255
192 218 255
192 218 255
192 218 255
192 218 255
192 218 255
192 218 255
192 218 255
192 218 255
192 218 255
192 218 255
192 218 255
192 218 255
192 218 255
192 218 255
192 218 255
192 218 255
192 218 255
193 218 255
193 218 255
193 218 255
193 218 255
193 218 255
193 218 255
193 218 255
193 218 255
193 218 255
193 218 255
193 218 255
193 218 255
193 218 255
193 218 255
193 218 255
193 218 255
193 218 255
193 218 255
193 218 255
193 218 255
193 218 255
193 218 255
193 218 255
193 218 255
193 218 255
193 218 255
193 218 255
193 218 255
193 218 255
193 218 255
193 218 255
193 218 255
193 218 255
193 218 255
193 218 255
133 150 176
62 70 81
33 37 43
131 148 174
192 218 255
193 218 255
193 218 255
194 218 255
194 219 255
195 219 255
195 219 255
195 219 255
196 220 255
196 220 255
196 220 255
197 220 255
197 220 255
197 221 255
198 221 255
190 218 251
175 214 243
160 209 234
185 216 249
193 219 253
188 217 251
191 218 253
185 216 249
186 217 249
184 216 249
186 217 250
191 218 253
195 219 255
187 217 251
186 215 248
191 218 253
190 218 253
188 217 251
186 216 250
188 216 250
191 217 251
194 218 252
189 217 250
186 214 246
180 208 231
181 205 226
178 206 233
188 212 240
180 206 230
179 209 236
185 212 241
186 212 241
186 207 227
188 217 251
190 217 253
190 217 253
184 215 250
189 217 252
190 218 253
185 216 250
185 216 250
186 216 251
184 215 250
189 217 253
187 216 251
188 217 251
187 217 251
185 216 250
185 216 251
184 215 250
189 217 253
186 216 251
190 217 253
183 215 249
189 217 253
183 215 249
186 216 251
189 217 253
186 216 251
187 216 251
190 216 252
191 218 253
190 217 253
190 217 253
190 217 253
185 216 250
190 217 253
187 217 251
191 218 253
186 214 248
182 208 234
190 215 247
190 216 249
185 211 239
191 215 249
188 208 233
183 204 229
194 215 245
188 213 243
161 200 218
147 195 210
122 134 97
139 137 94
101 85 0
98 87 0
101 90 2
125 102 7
118 101 7
107 95 2
113 99 2
113 97 5
155 162 143
187 207 230
184 204 230
175 195 209
171 187 189
171 184 186
191 216 253
193 218 255
160 162 135
105 89 0
101 88 0
104 86 0
110 88 0
90 81 0
105 90 0
120 98 0
109 92 0
122 96 0
123 95 0
127 102 0
118 98 0
127 100 0
131 105 0
135 105 0
128 105 0
131 105 0
123 106 0
132 107 0
135 108 0
136 109 0
129 107 0
133 108 0
135 107 0
130 107 0
134 108 0
141 109 0
137 108 0
128 107 0
143 109 0
129 107 0
141 109 0
137 108 0
135 108 0
138 109 0
128 107 0
130 107 0
130 107 0
130 107 0
131 107 0
125 106 0
125 107 0
140 109 0
125 107 0
130 107 0
132 108 0
144 110 0
124 107 0
136 108 0
126 106 0
133 108 0
132 107 0
132 107 0
137 108 0
130 108 0
126 106 0
141 109 0
131 108 0
130 107 0
137 109 0
129 107 0
132 106 0
125 105 0
129 106 0
138 109 0
141 109 0
146 110 0
136 108 0
134 108 0
129 106 0
136 108 0
129 106 0
134 106 0
132 106 0
140 108 0
138 106 0
125 100 0
131 99 0
127 99 0
128 99 0
129 96 0
139 96 0
125 91 0
120 82 0
116 77 0
124 79 0
123 77 0
112 70 0
119 62 0
115 53 0
116 47 0
95 29 0
131 102 110
193 218 255
156 160 185
66 22 19
74 8 3
79 7 0
83 9 0
93 14 0
99 18 0
103 23 0
104 25 0
103 26 0
103 27 0
108 32 0
116 35 0
104 33 0
114 37 0
111 38 0
112 41 0
118 44 2
112 52 15
116 54 15
111 62 31
110 65 39
109 73 52
111 77 61
111 82 70
106 80 68
116 87 79
119 87 79
117 87 79
108 86 77
108 86 77
118 87 79
110 86 78
111 86 78
130 89 83
110 86 78
117 87 79
117 87 80
119 87 80
124 88 81
111 86 78
113 87 78
114 87 79
109 86 78
113 87 78
125 88 81
123 88 81
116 87 79
117 87 79
112 87 78
110 86 78
119 88 80
115 87 79
131 89 83
124 88 81
115 87 79
119 88 80
124 88 81
118 87 80
109 86 78
115 87 79
120 88 80
121 88 80
117 87 79
124 88 81
116 87 79
116 87 79
122 88 81
128 89 82
122 88 81
120 88 80
132 89 83
126 88 82
121 88 80
120 88 80
117 87 80
127 89 82
113 87 79
128 89 82
132 89 83
133 89 83
133 89 83
121 88 80
126 89 82
128 89 82
124 88 81
121 88 80
135 90 84
123 88 81
117 87 79
124 88 81
118 87 80
130 89 82
130 89 82
130 89 83
127 89 82
124 88 81
129 89 82
135 90 84
138 90 85
127 89 82
129 89 82
127 89 82
124 88 81
126 89 81
127 89 82
135 90 84
136 90 84
127 88 82
132 89 84
141 91 86
136 90 84
131 88 82
126 83 78
96 66 61
86 56 53
125 120 135
193 218 255
193 218 255
193 218 255
193 218 255
193 218 255
193 218 255
193 218 255
193 218 255
193 218 255
193 218 255
193 218 255
193 218 255
193 218 255
193 218 255
193 218 255
193 218 255
193 218 255
193 218 255
193 218 255
193 218 255
193 218 255
193 218 255
193 218 255
193 218 255
193 218 255
193 218 255
193 218 255
193 218 255
193 218 255
193 218 255
193 218 255
193 218 255
193 218 255
193 218 255
193 218 255
193 218 255
193 218 255
193 218 255
193 218 255
193 218 255
193 218 255
193 218 255
193 218 255
193 218 255
193 218 255
193 218 255
193 218 255
193 218 255
193 218 255
193 218 255
193 218 255
193 218 255
193 218 255
193 218 255
193 218 255
193 218 255
193 218 255
193 218 255
193 218 255
193 218 255
193 218 255
193 218 255
193 218 255
193 218 255
193 218 255
193 218 255
193 218 255
193 218 255
193 218 255
193 218 255
158 179 209
74 83 97
54 61 71
123 139 163
192 218 255
193 218 255
194 219 255
195 219 255
195 219 255
195 219 255
196 220 255
196 220 255
193 219 253
196 220 255
196 220 255
180 215 245
152 206 229
120 195 210
100 189 199
82 183 189
80 183 187
80 182 187
111 192 206
119 195 210
135 199 218
148 204 227
162 209 235
173 213 242
183 215 245
190 218 251
191 218 251
186 215 246
189 218 251
186 216 249
188 217 251
186 216 249
191 218 253
190 218 252
187 217 251
187 215 246
187 216 248
183 212 241
183 210 234
189 214 243
191 214 244
182 205 226
187 213 244
186 209 239
186 210 237
187 217 250
186 211 236
187 209 235
192 217 252
191 218 253
183 215 249
186 216 251
191 218 253
188 217 251
187 217 251
185 216 249
190 217 253
185 216 250
185 216 250
189 217 252
187 216 251
188 217 251
186 216 251
187 217 251
190 217 253
180 214 247
192 218 254
186 216 251
186 216 251
190 218 252
190 218 253
192 218 253
187 215 250
190 217 253
185 216 249
190 218 253
187 217 251
189 217 252
182 215 248
189 217 251
187 216 251
184 216 249
189 218 251
186 217 249
191 217 252
189 213 245
192 218 252
181 210 235
170 209 235
148 198 216
127 186 195
119 187 199
105 183 185
95 180 181
99 182 187
96 181 184
113 119 74
103 103 40
97 87 0
96 86 0
105 89 0
111 93 5
110 101 2
109 98 7
112 100 7
97 87 2
172 184 189
190 211 240
182 203 227
174 194 204
172 186 189
172 192 207
189 214 250
193 218 255
163 177 166
111 90 0
100 84 0
87 77 0
87 78 0
92 77 0
111 94 0
111 90 0
121 99 0
107 89 0
123 100 0
121 100 0
120 100 0
121 102 0
125 102 0
124 103 0
126 106 0
124 104 0
124 105 0
120 105 0
126 107 0
129 107 0
140 109 0
141 109 0
132 108 0
132 108 0
125 106 0
130 107 0
135 109 0
122 106 0
125 106 0
134 107 0
135 108 0
135 108 0
134 108 0
138 109 0
132 108 0
138 109 0
134 108 0
136 108 0
122 106 0
132 108 0
126 107 0
127 107 0
136 108 0
128 107 0
136 109 0
129 107 0
131 107 0
126 107 0
131 107 0
133 108 0
126 107 0
127 107 0
132 108 0
128 107 0
134 108 0
135 107 0
126 107 0
131 107 0
132 107 0
127 107 0
130 107 0
134 108 0
127 106 0
134 108 0
128 107 0
131 108 0
125 107 0
138 109 0
127 107 0
133 107 0
130 106 0
137 106 0
143 109 0
132 105 0
138 105 0
126 103 0
132 103 0
130 98 0
129 95 0
135 101 0
125 89 0
119 90 0
118 79 0
120 82 0
122 74 0
127 77 0
120 67 0
111 60 0
123 63 0
111 45 0
102 30 0
142 132 148
193 218 255
169 183 212
60 20 17
60 6 2
77 8 0
85 11 0
90 14 0
101 18 0
97 19 0
102 24 0
103 24 0
101 28 0
103 30 0
101 32 0
106 35 0
113 38 0
109 39 0
109 41 0
105 45 6
113 49 10
101 54 18
108 57 24
104 65 37
96 65 41
113 76 57
117 78 60
106 80 69
106 85 74
112 86 78
111 85 77
113 87 78
108 86 77
108 86 77
101 85 76
110 86 77
111 86 77
111 86 78
109 86 77
104 85 76
106 86 77
107 86 77
106 86 77
105 85 76
114 87 79
117 87 79
115 87 79
110 86 78
105 86 77
112 86 78
105 86 77
110 86 78
113 87 78
120 88 80
118 87 80
120 88 80
111 86 78
114 87 79
116 87 79
103 85 76
119 87 80
112 86 78
115 87 79
110 86 78
115 87 79
114 87 79
117 87 79
119 88 80
116 87 79
123 88 81
112 86 78
107 86 77
120 88 80
114 87 79
117 87 79
122 88 81
115 87 79
119 88 80
109 86 77
123 88 81
126 89 82
118 87 80
124 88 81
123 88 81
116 87 79
112 87 78
121 88 80
117 87 79
129 89 82
128 89 82
117 87 79
127 89 82
118 87 80
116 87 79
119 88 80
116 87 79
118 87 80
120 88 80
122 88 81
125 89 81
126 89 81
131 89 83
120 88 80
129 89 82
115 87 79
127 89 82
132 89 83
128 89 82
129 89 82
129 89 82
129 89 82
135 90 84
133 90 83
131 89 83
126 85 79
117 78 73
120 77 73
80 56 52
136 136 155
193 218 255
193 218 255
193 218 255
193 218 255
193 218 255
193 218 255
193 218 255
193 218 255
193 218 255
193 218 255
193 218 255
193 218 255
193 218 255
193 218 255
193 218 255
193 218 255
193 218 255
193 218 255
193 218 255
193 218 255
193 218 255
193 218 255
193 218 255
193 218 255
193 218 255
193 218 255
193 218 255
193 218 255
193 218 255
193 218 255
193 218 255
193 218 255
193 218 255
193 218 255
193 218 255
193 218 255
193 218 255
193 218 255
193 218 255
193 218 255
193 218 255
193 218 255
193 218 255
193 218 255
193 218 255
193 218 255
193 218 255
193 218 255
193 218 255
193 218 255
193 218 255
193 218 255
193 218 255
193 218 255
193 218 255
193 218 255
193 218 255
193 218 255
193 218 255
193 218 255
193 218 255
193 218 255
193 218 255
193 218 255
193 218 255
193 218 255
193 218 255
193 218 255
193 218 255
193 218 255
162 183 215
56 63 74
57 63 74
77 87 102
193 218 255
193 218 255
190 217 253
187 217 251
191 218 253
189 218 251
194 219 254
192 219 253
188 218 250
154 207 230
92 186 194
86 184 191
82 183 189
84 184 189
80 182 187
80 182 187
81 183 188
80 183 187
99 188 199
109 192 204
104 190 202
97 188 197
93 186 193
94 187 196
88 184 190
100 189 199
111 192 206
124 196 214
120 195 210
139 202 222
150 205 228
157 207 232
163 209 236
171 212 240
186 217 249
191 218 252
192 217 248
186 216 247
189 216 246
186 213 239
186 213 240
192 215 243
181 210 237
188 213 242
191 213 241
189 213 239
188 214 241
192 215 243
189 217 251
192 218 254
188 217 251
187 217 251
194 219 254
191 218 253
189 217 252
187 217 251
191 218 253
188 217 251
188 217 251
187 217 251
191 218 253
189 217 252
184 216 249
186 217 249
191 218 253
189 217 252
186 216 251
187 217 251
193 219 253
191 218 253
188 215 248
194 218 252
190 218 252
191 218 253
183 216 248
184 216 249
182 214 245
170 211 240
160 208 235
154 205 230
151 205 228
140 202 223
135 198 217
122 192 208
110 189 202
106 190 203
92 183 189
87 181 184
88 181 184
86 182 188
90 179 183
89 178 182
89 181 182
87 176 176
92 180 183
100 186 192
105 113 59
96 104 41
80 75 0
100 87 0
92 83 3
107 96 5
107 94 2
110 97 7
102 92 10
97 94 14
174 204 222
192 212 243
186 209 238
186 203 222
168 184 184
183 204 225
190 214 250
193 218 255
168 179 174
107 90 0
97 82 0
102 88 0
102 88 0
95 84 0
110 91 0
104 88 0
114 97 0
113 92 0
116 98 0
114 98 0
117 100 0
119 99 0
123 104 0
130 104 0
122 102 0
140 108 0
121 104 0
124 107 0
136 108 0
129 107 0
126 106 0
132 108 0
131 107 0
126 107 0
124 106 0
124 106 0
121 106 0
129 106 0
135 108 0
132 107 0
131 106 0
132 107 0
124 107 0
129 107 0
132 108 0
126 107 0
132 108 0
128 107 0
129 107 0
128 107 0
136 109 0
141 109 0
133 108 0
124 107 0
127 107 0
124 106 0
127 107 0
126 107 0
132 108 0
140 109 0
118 105 0
130 107 0
123 107 0
124 106 0
122 106 0
126 106 0
134 108 0
136 108 0
133 108 0
133 108 0
137 108 0
128 107 0
133 108 0
125 106 0
129 107 0
129 108 0
132 107 0
127 106 0
131 105 0
132 108 0
133 107 0
135 107 0
131 107 0
118 103 0
132 107 0
132 104 0
125 102 0
117 99 0
129 97 0
123 91 0
116 88 0
115 85 0
118 89 0
108 78 0
114 81 0
124 77 0
117 71 0
106 61 0
106 55 0
99 46 0
89 29 0
159 163 186
193 218 255
184 203 236
53 23 20
60 13 8
66 8 0
77 9 0
93 14 0
80 15 0
92 21 0
96 23 0
95 23 0
99 29 0
108 31 0
100 31 0
107 35 0
103 36 0
105 38 0
98 40 1
104 45 6
98 47 9
107 51 15
104 57 25
94 67 43
107 75 55
102 72 52
95 75 57
99 81 67
98 80 68
105 85 74
101 83 74
109 84 75
97 84 74
101 84 75
94 84 74
110 86 78
104 85 76
105 85 76
102 85 76
96 84 74
100 85 75
95 84 74
100 85 75
102 85 76
99 85 75
108 86 77
101 85 75
100 85 75
111 86 78
94 84 74
113 87 78
103 85 76
105 86 76
98 85 75
106 86 77
103 85 76
104 86 76
116 87 79
107 86 77
119 88 80
115 87 79
114 87 79
99 85 75
100 85 75
104 85 76
103 85 76
95 84 74
112 87 78
100 85 75
107 86 77
107 86 77
109 86 77
105 85 76
101 85 76
100 85 75
104 85 76
111 86 78
102 85 76
106 86 77
107 86 77
99 85 75
112 86 78
113 87 78
115 87 79
112 87 78
113 87 78
114 87 79
124 88 81
116 87 79
108 86 77
105 85 76
114 87 79
118 88 80
117 87 79
118 88 80
112 86 78
114 87 79
118 88 80
114 87 79
124 88 81
121 88 80
114 87 79
115 87 79
112 87 78
114 87 79
121 88 80
122 88 81
125 88 81
117 87 79
134 90 84
124 88 81
124 88 81
132 89 83
129 89 82
124 85 79
123 80 76
106 69 65
93 61 57
142 139 158
193 218 255
193 218 255
193 218 255
193 218 255
193 218 255
193 218 255
193 218 255
193 218 255
193 218 255
193 218 255
193 218 255
193 218 255
193 218 255
193 218 255
193 218 255
193 218 255
193 218 255
193 218 255
193 218 255
193 218 255
193 218 255
193 218 255
193 218 255
193 218 255
193 218 255
193 218 255
193 218 255
193 218 255
193 218 255
193 218 255
193 218 255
193 218 255
193 218 255
193 218 255
193 218 255
193 218 255
193 218 255
193 218 255
193 218 255
193 218 255
193 218 255
193 218 255
193 218 255
193 218 255
193 218 255
193 218 255
193 218 255
193 218 255
193 218 255
193 218 255
193 218 255
193 218 255
193 218 255
193 218 255
193 218 255
193 218 255
193 218 255
193 218 255
193 218 255
193 218 255
193 218 255
193 218 255
193 218 255
193 218 255
193 218 255
193 218 255
193 218 255
193 218 255
193 218 255
193 218 255
180 203 238
78 88 102
39 44 51
59 67 79
186 215 252
187 216 252
186 216 251
190 218 253
194 219 254
194 220 254
194 219 253
146 204 225
96 188 196
83 183 189
85 184 191
82 183 189
83 183 189
80 182 187
80 183 187
80 182 187
80 182 187
80 182 187
88 185 192
97 188 197
101 189 200
90 186 193
98 188 199
92 186 195
95 187 197
88 185 192
90 185 194
90 184 191
86 184 191
87 185 192
83 183 189
90 185 194
86 184 191
87 184 192
83 184 189
91 186 195
92 186 195
95 185 192
114 186 191
104 187 194
101 182 184
121 191 200
112 191 201
121 193 204
114 191 200
132 192 201
129 195 210
136 200 221
141 201 224
140 201 223
138 201 221
132 199 217
142 202 224
134 200 220
145 203 225
137 201 221
142 202 224
142 202 224
150 204 230
140 201 223
134 200 219
138 201 222
143 203 224
137 200 221
125 197 214
124 196 214
122 196 212
117 194 210
122 196 212
107 191 204
105 190 202
100 188 200
106 189 202
89 184 192
90 185 194
83 182 188
82 183 189
82 183 189
82 183 189
86 184 192
83 183 190
82 182 187
86 180 187
87 183 192
88 182 190
90 182 191
84 177 179
88 180 184
87 180 185
84 175 175
85 178 181
87 178 181
88 182 189
93 186 193
92 182 187
100 176 173
104 117 64
86 94 34
99 81 0
102 89 0
91 88 5
95 83 0
93 93 9
91 79 2
89 82 5
93 115 55
94 182 188
185 208 230
178 197 212
184 202 217
171 188 199
171 192 220
194 218 255
194 218 255
173 190 199
111 93 0
106 94 0
101 83 0
99 85 0
102 88 0
98 89 0
120 94 0
109 95 0
106 95 0
109 94 0
116 98 0
106 97 0
119 101 0
122 103 0
125 105 0
120 102 0
128 106 0
126 106 0
119 105 0
141 109 0
127 107 0
133 108 0
124 107 0
132 107 0
126 107 0
134 108 0
125 107 0
133 108 0
120 106 0
130 107 0
129 107 0
133 108 0
127 107 0
130 108 0
137 109 0
135 108 0
124 106 0
126 107 0
129 107 0
127 107 0
128 108 0
127 107 0
124 106 0
126 107 0
133 108 0
131 108 0
132 108 0
132 108 0
125 107 0
127 107 0
129 107 0
125 107 0
124 107 0
135 108 0
124 106 0
126 107 0
130 107 0
123 105 0
130 108 0
122 106 0
129 107 0
134 108 0
132 107 0
126 106 0
135 108 0
125 106 0
130 105 0
126 107 0
125 105 0
120 104 0
137 108 0
130 107 0
131 108 0
126 105 0
129 106 0
129 105 0
131 100 0
128 98 0
120 96 0
125 97 0
125 93 0
112 84 0
111 87 0
128 87 0
113 80 0
114 77 0
111 72 0
105 65 0
114 56 0
98 47 0
92 39 0
89 25 0
178 188 217
194 218 255
194 218 255
65 42 41
61 17 13
61 7 0
65 8 0
74 13 0
80 15 0
90 20 0
91 23 0
98 26 0
91 28 0
94 31 0
103 31 0
104 34 0
104 37 0
113 38 0
88 37 1
102 43 4
110 51 15
94 52 16
98 59 29
96 66 38
100 68 44
91 73 52
94 80 65
98 78 64
103 83 72
104 85 75
93 83 72
99 84 74
94 83 73
91 83 72
93 83 72
95 82 70
100 85 75
99 83 73
94 84 74
98 85 75
95 84 74
87 83 71
106 86 77
97 84 74
91 84 73
93 84 74
100 85 75
99 85 75
96 84 74
94 84 74
93 84 74
99 85 75
106 86 76
103 85 76
101 85 75
95 84 74
96 84 74
96 84 74
101 85 75
97 84 75
98 85 75
105 86 76
102 85 76
93 84 74
101 85 75
103 85 76
105 86 76
97 84 74
100 85 75
100 85 75
101 85 75
100 85 75
98 84 75
101 85 75
111 86 78
102 85 76
103 85 76
105 86 76
114 87 79
110 86 78
109 86 77
105 86 76
103 85 76
103 85 76
95 84 74
104 85 76
115 87 79
112 87 78
106 86 77
115 87 79
104 86 76
114 87 79
103 85 76
111 86 78
107 86 77
107 86 77
110 86 78
107 86 77
107 86 77
113 87 78
104 85 76
110 86 78
109 86 77
104 85 76
119 88 80
116 87 79
116 87 79
109 86 77
121 88 80
112 86 78
116 87 79
120 88 80
118 87 80
125 88 81
120 84 78
103 72 66
82 57 53
95 60 57
163 178 207
193 218 255
193 218 255
193 218 255
193 218 255
193 218 255
193 218 255
193 218 255
193 218 255
193 218 255
193 218 255
193 218 255
193 218 255
193 218 255
193 218 255
193 218 255
193 218 255
193 218 255
193 218 255
193 218 255
193 218 255
193 218 255
193 218 255
193 218 255
193 218 255
193 218 255
193 218 255
193 218 255
193 218 255
193 218 255
193 218 255
193 218 255
193 218 255
193 218 255
193 218 255
193 218 255
194 218 255
194 218 255
194 218 255
194 218 255
194 218 255
194 218 255
194 218 255
194 218 255
194 218 255
194 218 255
194 218 255
194 218 255
194 218 255
194 218 255
194 218 255
194 218 255
194 218 255
194 218 255
194 218 255
194 218 255
194 218 255
194 218 255
194 218 255
194 218 255
194 218 255
194 218 255
194 218 255
194 218 255
194 218 255
194 218 255
194 218 255
194 218 255
194 218 255
194 218 255
194 218 255
194 218 255
78 88 102
53 59 69
23 38 42
173 211 245
183 215 249
187 217 251
188 217 251
187 217 250
194 219 253
131 199 217
81 183 188
82 183 189
85 184 190
87 185 191
80 183 187
80 183 187
79 182 187
80 182 187
80 183 187
80 182 187
80 182 187
82 183 189
103 189 201
103 189 202
99 187 196
95 187 197
89 185 193
89 185 193
85 184 191
92 186 195
87 184 189
86 184 191
83 183 189
84 183 190
85 184 191
87 184 192
85 184 191
85 184 191
85 184 191
83 183 189
82 183 189
83 182 187
84 182 188
84 181 182
84 181 184
83 178 178
82 181 184
83 180 180
86 182 187
83 183 190
86 184 192
83 181 189
87 184 193
83 183 190
86 184 193
85 183 191
82 183 189
84 183 190
82 182 189
86 184 192
84 184 191
85 184 191
87 184 193
81 183 188
84 183 190
84 183 191
85 184 191
83 183 190
84 183 191
85 183 192
89 184 195
84 183 191
83 183 190
86 183 193
83 183 190
83 183 190
85 182 190
87 184 193
83 183 190
87 184 193
87 184 193
88 184 194
86 184 192
83 182 189
85 182 188
80 182 187
90 184 193
83 181 187
85 181 188
83 180 184
85 176 177
84 181 185
90 181 183
86 179 181
85 177 181
90 182 188
93 178 176
97 186 196
103 169 155
96 123 82
84 76 4
93 86 0
92 84 0
85 86 5
83 82 3
95 90 5
84 80 0
96 89 10
83 151 129
79 176 176
157 197 215
183 203 225
175 193 204
157 177 181
187 214 248
194 219 255
194 219 255
193 216 250
104 95 10
104 88 0
92 84 0
86 78 0
100 89 0
95 83 0
102 88 0
103 88 0
101 88 0
109 97 0
108 94 0
117 99 0
130 104 0
109 99 0
126 106 0
118 101 0
131 106 0
122 104 0
124 104 0
126 107 0
125 107 0
126 106 0
127 107 0
125 106 0
126 107 0
130 108 0
128 106 0
122 106 0
116 105 0
127 105 0
127 107 0
130 107 0
128 107 0
124 106 0
123 106 0
129 107 0
123 106 0
116 106 0
124 107 0
134 108 0
126 106 0
126 107 0
130 107 0
129 107 0
130 108 0
129 107 0
136 109 0
124 106 0
126 107 0
126 107 0
126 107 0
123 107 0
133 108 0
121 106 0
131 107 0
125 107 0
132 108 0
123 106 0
126 106 0
130 108 0
125 107 0
127 106 0
123 106 0
121 106 0
131 106 0
132 108 0
123 107 0
127 106 0
133 107 0
123 106 0
127 106 0
122 105 0
132 106 0
135 106 0
122 102 0
123 105 0
128 102 0
127 101 0
118 97 0
121 97 0
125 97 0
107 85 0
112 81 0
117 84 0
114 82 0
116 80 0
101 69 0
110 65 0
101 59 0
101 49 0
91 37 0
86 34 17
190 212 248
194 219 255
194 219 255
96 74 75
62 24 18
60 10 3
61 11 0
75 13 0
72 13 0
86 20 0
92 20 0
92 25 0
95 27 0
94 30 0
102 30 0
101 34 0
95 37 0
98 36 0
95 40 2
105 46 6
98 49 10
90 54 20
84 59 32
85 64 38
92 69 48
91 71 49
88 76 60
84 75 60
81 78 66
91 81 68
86 82 70
87 81 68
89 82 71
96 84 74
87 82 71
83 82 71
85 82 71
87 83 72
89 83 73
88 83 72
82 82 71
95 84 74
92 84 73
94 84 74
92 84 73
83 82 71
86 83 72
90 83 73
92 84 73
93 84 74
90 83 73
96 84 74
92 84 73
87 83 72
87 83 72
94 84 74
95 84 74
92 84 73
93 84 74
94 84 74
87 83 72
91 83 73
98 85 75
96 84 74
88 83 72
91 84 73
91 84 73
96 84 74
99 85 75
104 85 76
94 84 74
91 83 73
96 84 74
100 85 75
104 85 76
94 84 74
95 84 74
99 85 75
100 85 75
99 85 75
110 86 78
103 85 76
113 87 78
92 84 73
97 84 75
102 85 76
107 86 77
97 84 75
100 85 75
106 86 77
100 85 75
100 85 75
114 87 78
101 85 76
108 86 77
106 86 77
96 84 74
108 86 77
111 87 78
106 86 77
113 87 78
114 87 79
105 86 76
104 85 76
102 85 76
111 86 78
104 85 76
105 86 76
122 88 80
110 86 78
116 87 79
111 86 78
124 88 81
123 88 81
119 84 77
110 79 73
88 56 53
66 47 43
169 189 219
194 218 255
194 218 255
194 218 255
194 218 255
194 218 255
194 218 255
194 218 255
194 218 255
194 218 255
194 218 255
194 218 255
194 218 255
194 218 255
194 218 255
194 218 255
194 218 255
194 218 255
194 218 255
194 218 255
194 218 255
194 218 255
194 218 255
194 218 255
194 218 255
194 218 255
194 218 255
194 218 255
194 218 255
194 218 255
194 218 255
194 218 255
194 218 255
194 218 255
194 218 255
194 218 255
194 219 255
194 219 255
194 219 255
194 219 255
194 219 255
194 219 255
194 219 255
194 219 255
194 219 255
194 219 255
194 219 255
194 219 255
194 219 255
194 219 255
194 219 255
194 219 255
194 219 255
194 219 255
194 219 255
194 219 255
194 219 255
194 219 255
194 219 255
194 219 255
194 219 255
194 219 255
194 219 255
194 219 255
194 219 255
194 219 255
194 219 255
194 219 255
194 219 255
194 219 255
194 219 255
194 219 255
104 116 135
35 55 60
15 34 35
146 174 203
177 213 246
185 216 250
190 218 252
188 217 251
155 207 231
82 183 189
81 183 188
83 184 189
81 183 188
83 184 189
80 183 187
80 183 187
80 182 187
80 182 187
81 183 188
80 182 187
80 182 187
80 183 187
88 185 192
98 188 198
95 187 196
95 187 197
91 186 194
89 185 193
87 183 189
90 185 193
88 185 193
84 183 191
86 182 187
87 184 192
89 184 191
88 185 193
87 184 192
82 183 189
88 185 193
87 184 193
87 184 193
91 185 196
82 182 187
85 182 186
87 184 193
84 182 185
86 184 192
87 184 193
84 183 191
83 183 190
83 183 189
84 183 191
84 183 191
84 183 191
84 183 191
84 183 191
86 183 193
86 183 193
80 181 186
85 184 191
82 183 189
86 183 192
82 182 189
83 183 190
82 183 189
84 184 191
86 184 193
84 183 191
81 181 187
81 183 189
85 183 192
89 184 195
86 183 193
83 183 190
82 183 189
84 183 191
85 182 189
84 183 191
80 182 188
83 183 190
85 183 191
82 183 189
81 180 185
86 184 193
83 183 190
86 183 191
81 180 184
85 179 185
84 178 184
85 180 184
84 181 186
88 182 187
84 176 176
94 178 179
92 177 177
90 184 190
97 186 194
102 183 187
95 156 142
93 120 71
85 83 0
79 79 0
93 91 9
88 88 5
95 90 5
89 84 3
85 82 3
88 99 31
84 178 180
84 177 177
130 189 198
178 199 217
174 193 207
156 183 185
180 211 245
194 219 255
194 219 255
194 219 255
110 112 61
92 83 0
104 88 0
102 88 0
85 82 0
98 87 0
111 94 0
110 94 0
99 89 0
112 97 0
103 91 0
120 101 0
117 102 0
117 102 0
111 97 0
117 102 0
120 104 0
133 105 0
120 104 0
114 103 0
128 107 0
138 108 0
122 107 0
119 106 0
135 108 0
131 106 0
126 107 0
125 106 0
117 105 0
124 106 0
125 106 0
130 107 0
133 108 0
129 107 0
125 106 0
133 108 0
124 106 0
134 108 0
124 106 0
124 106 0
124 107 0
120 105 0
119 105 0
119 106 0
125 107 0
126 107 0
122 106 0
115 105 0
119 106 0
113 105 0
123 106 0
124 107 0
119 105 0
132 107 0
122 106 0
132 107 0
127 107 0
140 109 0
124 107 0
129 108 0
123 106 0
123 105 0
132 108 0
117 106 0
129 107 0
132 108 0
124 106 0
125 105 0
126 106 0
120 104 0
124 104 0
132 108 0
132 106 0
121 105 0
118 103 0
124 102 0
115 99 0
123 98 0
123 100 0
129 94 0
116 95 0
117 90 0
112 85 0
108 78 0
109 82 0
115 79 0
104 68 0
111 68 0
99 60 0
94 50 0
84 40 0
96 59 51
194 219 255
194 219 255
194 219 255
129 130 146
71 35 28
61 20 12
58 8 0
60 10 0
68 14 0
69 17 0
80 22 0
79 23 0
78 24 0
92 29 0
93 30 0
93 30 0
100 36 0
90 34 0
98 40 1
92 46 10
83 45 13
81 51 16
90 57 26
88 61 32
82 64 39
82 71 52
85 72 53
79 74 57
84 77 62
83 79 65
83 81 69
87 81 69
86 81 69
81 80 68
82 81 69
84 81 69
84 82 70
79 80 67
85 83 72
90 83 73
82 82 71
86 82 70
86 83 72
84 82 71
83 82 71
86 82 71
84 82 72
86 83 72
85 83 72
83 82 71
88 83 72
83 83 71
89 83 73
88 83 72
83 82 71
91 84 73
91 83 73
87 83 72
83 82 71
86 83 72
88 83 72
99 85 75
84 82 72
95 84 74
87 83 72
89 83 73
88 83 72
91 83 73
91 84 73
91 83 73
92 84 73
93 84 74
91 84 73
92 84 73
95 84 74
100 85 75
92 84 73
95 84 74
93 84 74
100 85 75
95 84 74
106 86 77
90 83 73
89 83 73
100 85 75
88 83 72
103 85 76
102 85 76
102 85 76
98 85 75
95 84 74
97 84 74
104 85 76
98 85 75
99 85 75
95 84 74
98 85 75
92 84 73
103 85 76
98 85 75
96 84 74
102 85 76
104 85 76
98 85 75
99 85 75
108 86 77
110 86 78
107 86 77
106 86 77
103 85 76
110 86 78
103 85 76
110 86 78
106 84 75
115 82 75
108 74 69
83 58 53
90 73 76
194 219 255
194 219 255
194 219 255
194 219 255
194 219 255
194 219 255
194 219 255
194 219 255
194 219 255
194 219 255
194 219 255
194 219 255
194 219 255
194 219 255
194 219 255
194 219 255
194 219 255
194 219 255
194 219 255
194 219 255
194 219 255
194 219 255
194 219 255
194 219 255
194 219 255
194 219 255
194 219 255
194 219 255
194 219 255
194 219 255
194 219 255
194 219 255
194 218 255
194 219 255
194 219 255
194 219 255
194 219 255
194 219 255
194 219 255
194 219 255
194 219 255
194 219 255
194 219 255
194 219 255
194 219 255
194 219 255
194 219 255
194 219 255
194 219 255
194 219 255
194 219 255
194 219 255
194 219 255
194 219 255
194 219 255
194 219 255
194 219 255
194 219 255
194 219 255
194 219 255
194 219 255
194 219 255
194 219 255
194 219 255
194 219 255
194 219 255
194 219 255
194 219 255
194 219 255
194 219 255
194 219 255
194 219 255
117 132 153
31 54 58
19 44 45
115 147 169
182 214 249
180 214 247
186 217 250
192 219 253
110 192 204
80 182 187
84 184 190
81 183 188
81 183 188
80 182 187
80 182 187
80 183 187
80 182 187
80 182 187
80 183 187
80 182 187
79 182 187
80 182 187
84 184 189
88 185 192
97 188 197
94 186 193
95 186 194
89 185 193
85 184 191
88 183 190
92 186 195
86 185 191
86 184 191
85 182 189
87 184 192
83 183 189
88 184 193
86 184 191
85 183 191
87 184 193
87 184 193
87 184 193
84 183 191
84 183 191
84 184 191
83 183 191
83 183 190
89 184 195
88 184 195
82 183 189
82 183 189
84 183 191
86 183 193
84 183 191
82 183 189
82 183 189
83 183 190
83 183 190
83 183 190
84 183 191
86 183 193
83 183 189
85 184 191
87 183 193
82 183 189
84 183 191
84 182 191
81 182 188
83 183 191
84 182 189
86 183 193
84 183 191
86 184 193
85 184 192
84 183 191
82 183 189
84 183 191
82 183 189
82 182 188
86 183 191
82 183 189
81 183 189
82 182 187
84 183 191
85 183 191
83 181 187
83 181 187
85 183 191
84 177 181
87 183 191
87 177 179
85 182 187
90 180 182
90 177 180
87 177 179
86 179 183
91 180 185
98 184 191
96 149 119
84 100 42
79 79 0
76 82 3
80 79 5
86 81 0
80 79 5
83 84 3
89 83 6
89 146 111
85 182 185
90 174 171
107 179 184
181 199 217
164 179 184
147 193 209
189 216 251
195 219 255
195 219 255
195 219 255
131 135 94
98 85 0
85 79 0
101 89 0
96 88 0
97 88 0
94 89 0
92 89 0
103 89 0
106 94 0
104 94 0
115 99 0
109 97 0
108 96 0
123 104 0
118 104 0
131 104 0
115 102 0
118 105 0
121 105 0
121 106 0
116 105 0
120 105 0
124 107 0
129 107 0
124 106 0
114 104 0
112 105 0
125 106 0
120 105 0
124 106 0
119 105 0
132 108 0
125 106 0
128 107 0
120 106 0
125 107 0
123 106 0
124 106 0
126 107 0
133 107 0
123 106 0
132 108 0
123 107 0
121 106 0
126 107 0
123 106 0
119 105 0
121 105 0
121 106 0
129 108 0
123 106 0
118 106 0
131 108 0
129 107 0
128 107 0
119 105 0
123 106 0
122 106 0
124 107 0
120 106 0
126 106 0
120 106 0
124 107 0
120 105 0
131 107 0
124 105 0
124 107 0
121 104 0
122 105 0
133 108 0
118 104 0
124 104 0
122 104 0
121 105 0
119 101 0
122 103 0
125 98 0
123 97 0
122 95 0
116 93 0
115 93 0
111 84 0
113 79 0
101 74 0
110 78 0
105 76 0
103 64 0
105 62 0
94 49 0
82 37 0
108 89 87
195 219 255
195 219 255
195 219 255
156 164 187
65 33 27
59 21 12
58 11 2
58 11 0
65 14 0
73 19 0
76 18 0
75 23 0
85 25 0
84 25 0
90 32 0
95 31 0
97 35 0
96 40 2
94 39 4
80 41 8
94 44 6
83 50 14
79 56 27
76 61 34
79 65 42
82 68 46
88 75 56
75 73 56
79 78 65
75 76 61
78 77 64
75 79 65
80 81 69
77 79 66
78 81 70
81 81 69
79 80 68
80 80 68
78 81 69
80 81 70
80 82 70
78 81 69
78 81 69
80 81 70
81 82 70
78 82 70
81 82 71
76 81 69
83 82 71
83 82 71
80 82 71
77 81 70
81 82 71
81 82 71
82 82 71
82 82 71
86 83 72
81 82 71
80 82 71
89 83 73
81 82 71
81 82 71
80 82 71
81 82 71
81 82 71
87 83 72
81 82 71
86 83 72
87 83 72
85 83 72
85 83 72
86 83 72
82 82 71
92 84 73
85 83 72
89 83 73
89 83 73
84 82 71
86 83 72
96 84 74
85 83 72
86 83 72
95 84 74
96 84 74
90 83 73
97 84 75
90 83 73
87 83 72
89 83 73
91 83 73
96 84 74
93 84 74
92 84 73
94 84 74
93 84 74
90 83 73
86 83 72
96 84 74
93 84 74
100 84 75
98 85 75
95 84 74
99 85 75
90 83 73
103 85 76
107 86 77
101 85 75
105 86 76
100 85 75
107 86 77
99 85 75
120 88 80
107 86 77
108 85 77
96 75 68
90 68 62
86 61 56
112 101 110
194 219 255
194 219 255
194 219 255
194 219 255
194 219 255
194 219 255
194 219 255
194 219 255
194 219 255
194 219 255
194 219 255
194 219 255
194 219 255
194 219 255
194 219 255
194 219 255
194 219 255
194 219 255
194 219 255
194 219 255
194 219 255
194 219 255
194 219 255
194 219 255
194 219 255
194 219 255
194 219 255
194 219 255
194 219 255
194 219 255
194 219 255
194 219 255
194 219 255
194 219 255
194 219 255
194 219 255
194 219 255
194 219 255
194 219 255
194 219 255
194 219 255
194 219 255
194 219 255
194 219 255
194 219 255
194 219 255
194 219 255
194 219 255
194 219 255
194 219 255
194 219 255
194 219 255
194 219 255
194 219 255
194 219 255
194 219 255
194 219 255
194 219 255
194 219 255
194 219 255
194 219 255
194 219 255
194 219 255
194 219 255
194 219 255
194 219 255
194 219 255
194 219 255
194 219 255
194 219 255
194 219 255
194 219 255
152 171 199
31 61 64
15 34 35
72 99 112
176 212 246
187 216 251
190 218 252
174 213 242
85 184 190
81 183 188
82 183 189
83 184 189
83 184 189
80 182 187
80 182 187
80 183 187
80 182 187
80 182 187
80 183 187
79 182 187
80 183 187
80 182 187
80 181 186
89 185 193
92 185 192
105 189 200
90 185 193
95 187 197
85 184 191
92 186 195
87 184 192
89 184 191
84 183 191
86 184 191
83 183 190
87 184 193
83 184 189
86 183 193
87 184 193
85 183 192
81 183 188
82 183 189
84 183 191
81 183 189
85 183 191
83 183 190
85 183 192
88 183 195
82 183 189
83 183 190
84 183 191
81 182 188
86 183 193
87 183 194
82 183 189
86 183 193
82 183 189
84 183 191
82 183 189
86 183 193
83 183 191
87 184 194
82 183 189
85 184 192
83 181 189
84 183 191
83 183 190
81 182 189
85 183 193
81 181 187
85 183 192
86 183 191
84 183 191
85 183 193
83 183 190
87 184 193
81 183 188
84 183 191
83 182 188
86 182 191
84 182 189
87 183 191
86 183 190
85 182 187
87 183 191
87 182 189
88 184 191
87 181 186
83 179 186
86 184 191
85 177 181
91 183 189
90 178 181
91 181 187
84 179 181
94 181 187
93 178 178
96 181 184
91 145 115
81 84 11
86 81 0
78 78 1
77 83 1
79 82 3
76 76 0
80 76 0
84 105 37
82 178 179
83 179 181
79 175 178
108 181 191
180 200 220
161 179 184
148 200 223
191 215 250
195 219 255
195 219 255
195 219 255
147 161 153
93 85 0
87 85 0
100 89 0
90 81 0
91 86 0
89 86 0
97 92 0
109 96 0
100 93 0
111 100 0
115 98 0
124 104 0
124 101 0
112 103 0
114 103 0
119 105 0
116 103 0
117 105 0
128 105 0
119 105 0
127 107 0
111 104 0
120 105 0
123 106 0
125 106 0
126 106 0
114 104 0
117 106 0
117 106 0
124 107 0
127 107 0
124 107 0
125 107 0
120 105 0
120 106 0
133 107 0
123 105 0
127 107 0
119 106 0
120 106 0
116 105 0
126 107 0
121 106 0
115 104 0
118 106 0
131 108 0
124 107 0
124 106 0
115 104 0
116 105 0
128 107 0
121 107 0
118 105 0
131 107 0
121 106 0
122 105 0
123 106 0
128 107 0
119 106 0
126 105 0
113 104 0
112 104 0
122 105 0
111 103 0
121 104 0
121 106 0
118 104 0
114 104 0
125 106 0
122 105 0
111 102 0
124 104 0
119 102 0
119 105 0
120 103 0
125 100 0
122 97 0
117 94 0
116 93 0
121 90 0
112 86 0
112 85 0
106 76 0
104 76 0
108 73 0
93 63 0
87 55 0
99 56 0
90 52 0
69 28 0
145 150 168
195 219 255
195 219 255
195 219 255
179 199 231
78 46 41
58 26 18
58 23 14
52 12 2
59 13 0
68 16 0
78 18 0
79 21 0
83 26 0
84 27 0
78 26 0
82 30 0
91 34 0
86 35 2
83 40 4
82 43 9
77 45 14
72 50 21
75 53 24
75 58 32
80 68 45
76 68 46
71 69 51
74 74 58
74 76 60
73 76 62
74 77 63
75 79 66
76 78 64
75 79 66
76 79 65
74 79 68
76 81 69
75 80 68
75 81 69
76 80 69
76 81 69
76 81 69
76 81 69
76 81 69
76 81 69
76 80 68
76 81 69
76 81 69
76 81 69
76 81 69
76 81 69
77 82 70
76 81 69
76 81 69
76 81 69
76 81 69
76 81 69
77 82 70
77 82 70
77 81 70
78 82 70
84 82 71
77 81 70
77 82 70
79 82 70
79 82 70
79 82 70
83 82 71
77 81 69
79 81 70
81 82 71
81 82 71
81 82 71
82 82 71
81 82 71
83 82 71
86 83 72
86 83 72
85 83 72
82 82 71
84 83 71
82 82 71
84 82 71
86 83 72
85 83 72
84 82 72
84 83 71
85 83 72
80 82 71
88 83 72
81 82 71
85 83 72
92 84 73
85 83 72
89 83 73
92 84 73
93 84 74
87 83 72
92 84 73
100 85 75
84 82 72
95 84 74
95 84 74
100 85 75
91 83 73
94 84 74
102 85 76
100 85 75
100 85 75
99 85 75
96 84 74
94 84 74
105 86 76
110 84 76
108 78 72
88 71 64
82 60 54
119 127 143
194 219 255
194 219 255
194 219 255
194 219 255
194 219 255
194 219 255
194 219 255
194 219 255
194 219 255
194 219 255
194 219 255
194 219 255
194 219 255
194 219 255
194 219 255
194 219 255
194 219 255
194 219 255
194 219 255
194 219 255
194 219 255
194 219 255
194 219 255
194 219 255
194 219 255
194 219 255
194 219 255
194 219 255
194 219 255
194 219 255
194 219 255
194 219 255
194 219 255
194 219 255
194 219 255
194 219 255
195 219 255
195 219 255
195 219 255
195 219 255
195 219 255
195 219 255
195 219 255
195 219 255
195 219 255
195 219 255
195 219 255
195 219 255
195 219 255
195 219 255
195 219 255
195 219 255
195 219 255
195 219 255
195 219 255
195 219 255
195 219 255
195 219 255
195 219 255
195 219 255
195 219 255
195 219 255
195 219 255
195 219 255
195 219 255
195 219 255
195 219 255
195 219 255
195 219 255
195 219 255
195 219 255
195 219 255
173 195 227
35 69 72
20 47 48
28 48 52
179 213 248
183 215 249
182 215 247
161 209 234
83 184 189
80 183 187
83 184 189
80 182 187
83 183 189
80 182 187
81 183 187
80 183 187
80 183 187
80 182 187
80 182 187
80 182 187
80 183 187
80 182 187
80 182 187
83 183 189
90 185 194
95 187 197
98 188 198
89 185 193
90 185 193
87 184 192
87 184 189
87 184 193
88 185 193
83 183 190
85 184 191
86 184 192
83 183 189
84 183 191
81 182 189
85 183 191
88 184 194
82 183 189
84 183 191
85 183 191
85 183 192
85 183 192
86 183 193
81 183 189
83 183 191
88 184 195
85 183 191
82 183 189
84 183 191
81 181 187
85 184 192
85 183 192
87 183 194
85 183 192
84 183 191
83 183 190
88 184 195
85 183 193
82 182 190
87 184 193
88 183 195
83 181 189
82 183 189
83 183 190
85 183 192
85 183 193
85 183 192
83 183 190
82 181 188
83 183 191
82 183 189
84 183 191
87 184 193
82 183 189
85 183 192
85 182 189
85 182 190
84 182 189
84 183 191
85 183 191
84 182 186
85 181 187
84 181 187
87 182 190
85 180 183
88 179 185
84 182 187
84 180 184
86 178 178
87 184 192
90 179 183
90 179 181
95 181 184
87 175 169
91 119 66
71 79 5
58 66 1
67 73 0
88 88 3
82 82 3
77 85 3
75 84 9
83 158 139
80 177 178
81 176 177
78 173 175
108 177 178
173 192 207
154 188 200
148 202 228
195 219 255
195 219 255
195 219 255
195 219 255
185 207 232
103 91 2
89 84 0
89 78 0
79 78 0
94 87 0
99 87 0
98 92 0
94 93 0
94 88 0
112 102 0
106 99 0
112 100 0
120 104 0
118 101 0
118 101 0
115 105 0
119 104 0
113 104 0
117 105 0
115 105 0
121 106 0
118 105 0
120 106 0
130 108 0
115 102 0
120 106 0
119 106 0
116 105 0
125 107 0
121 106 0
121 106 0
116 105 0
121 106 0
117 105 0
118 105 0
115 105 0
122 105 0
115 105 0
120 106 0
118 106 0
125 107 0
117 104 0
123 106 0
115 105 0
120 106 0
127 107 0
113 105 0
119 106 0
116 105 0
113 105 0
122 106 0
122 107 0
111 105 0
124 107 0
127 107 0
126 106 0
120 106 0
121 106 0
115 104 0
118 105 0
115 105 0
123 105 0
118 106 0
115 105 0
124 106 0
132 107 0
124 104 0
116 103 0
120 105 0
113 103 0
114 101 0
122 102 0
121 102 0
115 102 0
125 102 0
115 101 0
117 94 0
116 94 0
113 91 0
110 90 0
119 87 0
105 83 0
108 85 0
96 72 0
107 74 0
101 69 0
89 57 0
94 60 0
84 50 0
69 29 0
179 196 225
195 219 255
195 219 255
195 219 255
195 219 255
76 63 60
59 32 22
60 29 19
57 16 2
60 12 0
62 15 0
64 18 0
74 21 0
75 21 0
84 26 0
82 26 0
83 31 0
77 32 0
75 31 1
84 37 2
71 40 9
68 46 14
74 45 14
77 52 20
73 53 24
73 66 43
66 62 41
70 68 49
68 68 49
74 75 57
73 76 59
75 76 60
75 77 60
75 79 65
74 77 64
74 79 66
75 80 68
74 80 68
76 79 66
76 81 69
76 81 69
76 80 67
76 80 68
76 81 69
76 81 69
76 81 69
76 81 69
76 81 69
76 81 69
76 81 69
76 81 69
76 81 69
75 81 69
76 81 69
76 81 69
76 81 69
76 81 69
77 82 69
76 81 69
76 81 69
76 81 69
76 81 69
76 81 69
76 81 69
76 81 69
76 81 69
76 81 69
76 81 69
75 80 69
76 81 69
77 81 69
76 81 69
76 81 69
77 81 70
80 82 71
78 82 70
78 82 70
80 82 70
83 82 71
79 82 70
81 82 71
82 82 71
84 82 71
76 81 69
84 83 71
77 81 70
83 82 71
87 83 72
78 81 70
86 83 72
80 82 70
81 82 71
84 82 71
86 83 72
80 82 71
84 82 71
85 83 72
90 83 73
88 83 72
91 83 73
87 83 72
96 84 74
93 84 74
81 82 71
89 83 73
91 84 73
92 84 73
95 84 74
97 85 74
86 83 72
93 84 74
99 85 75
110 86 78
95 84 74
112 84 76
101 77 70
81 64 58
78 55 51
156 171 198
195 219 255
195 219 255
195 219 255
195 219 255
195 219 255
195 219 255
195 219 255
195 219 255
195 219 255
195 219 255
195 219 255
195 219 255
195 219 255
195 219 255
195 219 255
195 219 255
195 219 255
195 219 255
195 219 255
195 219 255
195 219 255
195 219 255
195 219 255
195 219 255
195 219 255
195 219 255
195 219 255
195 219 255
195 219 255
195 219 255
195 219 255
195 219 255
195 219 255
195 219 255
195 219 255
195 219 255
195 219 255
195 219 255
195 219 255
195 219 255
195 219 255
195 219 255
195 219 255
195 219 255
195 219 255
195 219 255
195 219 255
195 219 255
195 219 255
195 219 255
195 219 255
195 219 255
195 219 255
195 219 255
195 219 255
195 219 255
195 219 255
195 219 255
195 219 255
195 219 255
195 219 255
195 219 255
195 219 255
195 219 255
195 219 255
195 219 255
195 219 255
195 219 255
195 219 255
195 219 255
195 219 255
195 219 255
195 219 255
66 117 124
24 54 56
18 42 43
145 180 208
177 213 246
186 216 250
157 208 232
81 183 188
81 183 188
82 183 189
85 184 190
84 184 189
80 182 187
80 183 187
80 182 187
81 183 188
80 183 187
80 182 187
80 182 187
80 182 187
80 183 187
80 183 187
84 184 190
87 185 191
91 186 194
94 187 196
94 186 196
90 185 194
92 186 195
86 184 191
88 184 193
84 184 190
86 184 191
90 184 195
86 183 192
83 183 190
85 183 191
85 183 191
82 183 189
83 183 190
86 183 193
82 183 189
82 182 189
85 183 192
82 182 189
83 183 191
84 183 191
81 183 189
83 183 189
82 182 190
82 182 190
85 183 193
83 183 191
83 182 191
86 183 193
84 183 192
82 183 189
85 183 193
82 181 188
84 183 191
86 183 193
84 183 191
87 183 194
82 183 189
83 183 191
82 183 190
83 182 191
84 183 192
82 182 189
85 182 190
86 183 194
84 183 191
82 183 190
83 182 189
87 183 194
80 182 187
81 183 188
83 183 190
83 182 189
83 183 190
82 182 189
84 182 189
84 183 191
83 180 185
81 182 186
81 180 184
88 183 192
84 183 191
82 176 181
80 176 180
87 181 185
88 179 182
90 178 182
92 180 189
100 181 185
91 172 167
87 162 145
76 103 37
74 81 1
70 81 5
69 76 3
72 80 1
77 82 3
75 80 0
81 142 112
81 180 184
83 173 173
80 174 175
89 176 172
128 180 179
166 186 202
146 197 221
147 202 226
196 220 255
196 220 255
196 220 255
196 220 255
196 220 255
109 106 46
87 78 0
98 89 0
88 84 0
85 82 0
85 82 0
98 94 0
81 80 0
103 97 0
104 96 0
109 101 0
110 98 0
108 99 0
112 101 0
113 103 0
115 101 0
117 101 0
117 103 0
125 106 0
113 105 0
114 105 0
118 104 0
120 105 0
114 105 0
124 106 0
114 105 0
118 106 0
109 103 0
112 105 0
123 107 0
122 106 0
124 106 0
108 104 0
107 101 0
124 106 0
124 107 0
111 103 0
120 106 0
117 105 0
122 106 0
121 105 0
117 105 0
109 103 0
113 105 0
122 106 0
120 106 0
122 106 0
118 106 0
120 106 0
118 106 0
115 105 0
124 106 0
119 106 0
117 105 0
119 104 0
120 106 0
117 106 0
115 106 0
120 105 0
117 104 0
118 105 0
129 107 0
117 105 0
123 106 0
113 105 0
121 105 0
114 104 0
115 100 0
114 105 0
114 104 0
117 102 0
120 103 0
113 103 0
120 102 0
119 100 0
112 99 0
115 98 0
114 95 0
109 93 0
118 92 0
108 83 0
109 85 0
98 76 0
106 71 0
100 75 0
98 71 0
89 60 0
84 61 0
91 45 0
89 61 40
196 220 255
196 220 255
196 220 255
196 220 255
196 220 255
123 123 135
61 37 28
68 32 22
60 28 14
64 22 6
62 19 0
64 19 0
60 18 0
76 21 0
75 24 0
81 28 0
76 29 0
67 27 0
71 30 0
72 33 2
71 34 5
68 38 10
62 41 13
71 53 25
64 56 31
70 60 35
69 63 42
69 66 44
74 77 61
74 74 56
69 73 56
75 77 62
74 78 63
72 74 57
75 78 66
76 79 66
75 79 65
76 80 67
76 81 68
75 79 65
75 79 67
76 81 69
76 81 69
76 80 68
76 81 69
76 80 68
76 81 69
76 81 69
76 80 68
76 81 69
76 81 69
76 81 69
76 81 69
76 80 69
76 81 69
76 81 69
76 81 69
76 81 69
75 80 69
76 81 69
76 81 69
75 81 69
76 81 69
76 81 69
76 81 69
76 81 69
75 81 69
76 81 69
76 81 69
76 81 69
76 81 69
77 82 69
76 81 69
76 81 69
76 81 69
76 81 69
76 80 69
76 81 69
76 81 69
76 81 69
76 81 69
76 81 69
76 81 69
76 81 69
76 81 69
76 81 69
77 81 70
77 81 70
80 81 70
78 82 70
78 82 70
80 82 70
77 81 70
81 82 70
76 81 69
80 82 71
86 83 72
81 82 71
85 83 72
84 82 72
85 82 71
87 83 72
82 82 71
85 83 72
85 82 71
84 82 72
86 83 72
93 83 72
90 83 73
84 82 71
98 85 75
95 84 74
100 84 75
109 86 77
98 76 69
92 70 64
80 63 57
80 63 62
195 218 254
195 219 255
195 219 255
195 219 255
195 219 255
195 219 255
195 219 255
195 219 255
195 219 255
195 219 255
195 219 255
195 219 255
195 219 255
195 219 255
195 219 255
195 219 255
195 219 255
195 219 255
195 219 255
195 219 255
195 219 255
195 219 255
195 219 255
195 219 255
195 219 255
195 219 255
195 219 255
195 219 255
195 219 255
195 219 255
195 219 255
195 219 255
195 219 255
195 219 255
195 219 255
195 219 255
195 219 255
195 219 255
195 219 255
195 219 255
195 219 255
195 219 255
195 219 255
195 219 255
195 219 255
195 219 255
195 219 255
195 219 255
195 219 255
195 219 255
195 219 255
195 219 255
195 219 255
195 219 255
195 219 255
195 219 255
195 219 255
195 219 255
195 219 255
195 219 255
195 219 255
195 219 255
195 219 255
195 219 255
195 219 255
195 219 255
195 219 255
195 219 255
195 219 255
195 219 255
195 219 255
195 219 255
195 219 255
195 219 255
91 122 136
29 67 69
17 40 41
98 118 138
175 212 245
185 216 250
160 208 234
80 182 187
80 182 187
83 183 189
85 184 190
82 183 189
80 183 187
80 183 187
80 182 187
80 182 187
80 182 187
80 182 187
80 182 187
80 182 187
80 183 187
80 182 187
80 182 187
87 185 191
92 186 195
88 185 192
99 188 199
97 188 198
91 185 195
93 186 196
83 183 189
85 184 191
90 185 194
83 183 190
84 183 191
86 184 191
86 183 192
83 183 190
81 182 189
83 183 190
82 183 189
85 183 191
83 183 191
81 183 188
81 182 189
81 182 189
84 183 191
82 182 190
84 183 191
86 183 194
82 183 189
82 183 189
83 183 190
83 183 191
82 183 190
84 182 193
83 182 191
82 182 190
82 183 189
83 183 191
82 182 190
84 182 192
82 183 189
82 183 189
83 182 191
82 183 190
81 183 188
84 183 192
84 183 191
82 182 190
83 182 189
83 183 191
81 183 189
84 182 189
84 183 192
83 183 191
84 182 192
83 183 190
83 182 189
84 182 189
83 183 190
87 184 193
85 181 188
84 179 184
83 180 182
85 182 188
83 181 187
85 180 183
82 181 184
82 176 180
83 177 182
87 179 183
89 177 178
96 178 179
93 177 176
93 174 169
76 137 97
86 87 3
66 76 3
73 80 1
70 80 5
68 78 7
65 77 5
82 142 105
79 177 178
84 182 185
81 174 173
86 174 169
84 172 166
138 182 181
173 198 217
146 203 229
176 208 240
196 220 255
196 220 255
196 220 255
196 220 255
196 220 255
134 141 110
99 91 0
94 89 0
84 84 0
84 82 0
97 90 0
86 83 0
94 89 0
106 91 0
95 93 0
102 95 0
101 98 0
111 102 0
106 97 0
125 105 0
110 103 0
118 104 0
107 103 0
114 104 0
109 103 0
114 105 0
119 106 0
112 103 0
121 106 0
122 106 0
109 102 0
115 105 0
118 105 0
115 105 0
125 106 0
120 106 0
113 105 0
113 105 0
116 105 0
115 105 0
121 106 0
114 104 0
120 106 0
118 106 0
117 104 0
115 106 0
127 107 0
118 106 0
118 106 0
124 106 0
116 105 0
122 106 0
127 107 0
116 104 0
115 105 0
115 105 0
116 105 0
112 105 0
110 104 0
112 104 0
118 105 0
114 105 0
120 105 0
119 105 0
112 103 0
118 105 0
122 104 0
115 105 0
118 105 0
107 102 0
113 101 0
119 105 0
119 106 0
124 104 0
108 101 0
121 104 0
117 103 0
119 104 0
113 100 0
116 97 0
119 100 0
111 95 0
114 96 0
116 91 0
109 90 0
106 86 0
104 78 0
105 79 0
100 74 0
98 69 0
93 61 0
96 64 0
77 48 0
68 35 0
125 116 115
196 220 255
196 220 255
196 220 255
196 220 255
196 220 255
167 178 204
72 54 45
72 45 35
56 24 13
58 25 11
57 17 3
55 15 0
65 18 0
65 22 0
69 23 0
73 25 0
63 23 0
71 27 0
75 29 0
67 35 4
58 31 3
68 33 6
75 48 15
73 53 28
70 58 34
67 57 30
68 61 36
70 68 49
69 68 48
68 69 53
74 77 61
71 74 57
76 77 61
73 76 61
71 74 58
74 77 61
75 79 66
75 79 66
76 78 64
76 78 65
75 78 65
76 80 67
76 78 64
76 80 67
76 81 68
76 81 69
76 80 67
76 81 69
76 81 69
76 81 68
76 81 68
76 81 69
76 81 69
76 81 69
76 81 69
76 81 69
76 81 69
76 81 69
76 81 69
76 80 69
76 81 69
76 81 69
76 81 69
76 81 69
76 81 69
76 80 69
76 80 69
76 81 69
75 80 68
76 80 69
76 81 69
76 81 69
76 81 69
76 81 69
76 81 69
76 81 69
76 81 69
76 81 69
75 80 69
75 81 69
76 81 69
76 81 69
76 81 69
76 81 69
76 81 69
76 82 69
76 81 69
75 81 69
75 81 69
76 81 69
76 81 69
76 81 69
76 81 69
77 82 70
79 81 70
78 82 70
77 81 69
77 81 70
77 81 70
77 81 70
79 82 70
81 82 71
80 81 70
80 82 71
81 82 70
81 82 71
88 83 72
84 82 71
95 84 74
88 83 72
89 82 72
99 85 75
96 84 74
101 82 73
105 78 71
89 70 63
86 62 56
112 115 128
195 219 255
195 219 255
195 219 255
195 219 255
195 219 255
195 219 255
195 219 255
195 219 255
195 219 255
195 219 255
195 219 255
195 219 255
195 219 255
195 219 255
195 219 255
195 219 255
195 219 255
195 219 255
195 219 255
195 219 255
195 219 255
195 219 255
195 219 255
195 219 255
195 219 255
195 219 255
195 219 255
195 219 255
195 219 255
195 219 255
195 219 255
195 219 255
195 219 255
195 219 255
195 219 255
195 219 255
195 219 255
195 219 255
195 219 255
195 219 255
195 219 255
195 219 255
195 219 255
195 219 255
195 219 255
195 219 255
195 219 255
195 219 255
195 219 255
195 219 255
195 219 255
195 219 255
195 219 255
195 219 255
195 219 255
195 219 255
195 219 255
196 220 255
196 219 255
195 219 255
195 219 255
195 219 255
196 220 255
196 220 255
195 219 255
196 220 255
196 220 255
196 220 255
196 220 255
196 220 255
196 220 255
196 220 255
196 220 255
196 220 255
155 192 219
30 69 71
17 40 41
54 83 91
179 213 248
184 215 249
171 212 240
81 183 188
83 183 189
81 182 188
81 182 188
82 183 189
81 183 188
80 183 187
80 183 187
80 183 187
79 182 187
80 182 187
80 182 187
80 182 187
80 182 187
80 183 187
80 183 187
81 182 189
89 185 193
85 184 191
92 186 195
95 187 197
86 184 191
89 185 193
84 183 190
84 183 190
87 184 193
85 184 191
83 183 190
88 184 193
89 184 194
82 183 189
83 183 190
85 183 192
84 184 191
91 184 197
81 181 187
84 183 191
83 181 189
84 183 191
83 183 191
83 183 191
84 183 191
83 183 191
84 183 191
84 183 192
84 183 192
81 183 189
83 183 191
82 183 189
81 183 189
83 182 191
83 182 191
82 181 189
84 181 190
83 183 191
82 182 190
85 181 191
82 181 189
83 182 191
83 183 191
83 182 191
81 182 189
82 182 190
82 183 189
85 183 193
83 183 191
84 182 193
82 182 190
82 182 190
85 183 192
83 183 191
85 182 189
82 180 185
82 182 187
84 183 191
86 182 191
82 179 180
83 180 184
83 180 184
80 179 181
85 178 183
86 180 188
85 177 184
87 177 183
84 175 181
89 178 181
99 176 174
84 172 167
78 155 129
66 89 32
64 77 1
71 78 1
67 75 0
73 83 9
65 77 7
74 135 99
79 169 157
80 178 180
81 177 178
81 169 165
83 173 169
81 167 160
150 186 195
159 207 236
137 196 220
195 220 255
196 220 255
196 220 255
196 220 255
196 220 255
196 220 255
171 183 184
73 72 0
89 85 0
85 82 0
83 83 0
94 88 0
93 90 0
104 93 0
100 94 0
93 93 0
98 94 0
100 96 0
103 96 0
105 96 0
115 104 0
111 103 0
110 102 0
107 101 0
118 105 0
116 105 0
106 102 0
115 103 0
120 105 0
119 105 0
114 105 0
111 103 0
123 106 0
116 104 0
113 105 0
115 104 0
119 106 0
115 106 0
117 105 0
124 107 0
123 106 0
120 106 0
114 104 0
120 106 0
110 103 0
104 101 0
115 105 0
114 105 0
114 105 0
109 103 0
110 104 0
118 105 0
121 106 0
107 103 0
114 104 0
119 106 0
111 103 0
110 105 0
117 104 0
124 107 0
110 103 0
114 104 0
117 105 0
106 102 0
107 102 0
117 103 0
116 105 0
118 105 0
121 105 0
118 104 0
110 104 0
110 102 0
116 105 0
124 104 0
116 102 0
123 104 0
111 101 0
113 103 0
117 102 0
121 103 0
110 100 0
113 99 0
105 93 0
107 96 0
104 86 0
107 86 0
94 82 0
106 81 0
97 85 0
103 73 0
100 66 0
94 63 0
84 51 0
86 49 0
72 37 0
169 180 202
196 220 255
196 220 255
196 220 255
196 220 255
196 220 255
192 215 250
94 81 81
74 47 35
65 42 29
59 32 18
58 24 7
56 20 3
54 18 0
59 19 0
59 20 0
59 21 0
58 23 0
56 24 1
63 30 3
66 29 3
58 35 6
54 33 8
63 44 15
66 46 14
62 56 35
63 55 28
68 60 36
70 68 47
70 69 49
69 67 45
71 69 51
71 72 55
74 76 61
73 74 59
75 75 60
75 77 63
75 78 64
74 76 63
77 77 63
75 80 68
76 80 69
77 78 64
76 81 68
76 81 69
76 81 69
76 80 67
76 80 68
76 81 69
76 80 67
75 80 68
75 80 69
76 80 69
77 81 69
76 81 69
76 81 69
75 81 69
76 81 69
76 81 69
76 81 69
76 81 69
76 81 69
76 81 69
76 81 69
76 81 69
76 81 69
76 80 69
76 81 69
76 81 69
76 81 69
75 81 69
76 81 69
76 81 69
76 81 69
76 81 69
76 81 69
76 81 69
75 81 69
76 81 69
76 80 68
76 79 68
76 81 69
76 81 69
76 81 69
76 81 69
76 81 69
76 81 69
75 81 69
76 81 69
76 81 69
76 81 69
75 81 69
75 80 69
76 81 69
76 81 69
76 81 69
76 81 69
75 80 69
75 80 68
76 81 69
76 81 69
76 81 69
77 81 70
76 81 69
79 82 70
78 81 70
84 83 71
79 82 70
89 83 72
83 82 70
83 81 70
96 84 74
89 83 72
88 82 71
90 78 69
88 73 65
76 64 57
74 55 50
163 175 199
196 220 255
196 220 255
196 220 255
196 220 255
196 220 255
196 220 255
196 220 255
196 220 255
196 220 255
196 220 255
195 219 255
196 220 255
195 219 255
195 219 255
195 219 255
195 219 255
195 219 255
195 219 255
195 219 255
195 219 255
195 219 255
195 219 255
195 219 255
195 219 255
195 219 255
195 219 255
195 219 255
195 219 255
195 219 255
195 219 255
195 219 255
195 219 255
195 219 255
195 219 255
195 219 255
195 219 255
195 219 255
196 220 255
196 220 255
196 220 255
196 220 255
196 220 255
196 220 255
196 220 255
196 220 255
196 220 255
196 220 255
196 220 255
196 220 255
196 220 255
196 220 255
196 220 255
196 220 255
196 220 255
196 220 255
196 220 255
196 220 255
196 220 255
196 220 255
196 220 255
196 220 255
196 220 255
196 220 255
196 220 255
196 220 255
196 220 255
196 220 255
196 220 255
196 220 255
196 220 255
196 220 255
196 220 255
196 220 255
196 220 255
194 218 253
52 97 102
22 51 52
13 29 30
141 171 199
177 213 246
189 217 251
82 183 189
81 183 188
81 182 188
80 182 187
82 183 189
81 183 188
80 182 187
80 182 187
80 182 187
80 182 187
80 183 187
80 182 187
80 182 187
80 183 187
80 182 187
80 182 187
81 183 188
84 183 190
90 182 191
87 184 192
93 187 195
93 186 195
92 186 195
87 184 192
86 184 191
84 184 190
83 183 190
85 184 191
83 183 190
83 183 189
85 184 191
85 183 192
81 182 189
87 184 193
83 183 191
86 183 193
84 182 189
91 184 197
84 183 191
84 181 190
83 181 190
80 182 188
83 182 191
84 182 192
82 182 189
84 182 193
85 182 193
81 182 189
85 183 193
83 182 191
84 183 191
82 183 189
82 182 190
84 183 191
82 183 190
82 183 189
85 182 194
82 182 189
83 182 191
84 182 192
83 182 192
83 182 191
82 182 188
83 182 191
82 182 190
82 182 190
82 182 190
83 183 191
82 183 190
83 182 189
82 180 185
83 183 190
82 181 188
85 181 188
84 183 191
85 180 187
84 180 187
85 182 190
84 181 187
83 178 182
84 181 186
87 182 187
84 178 183
86 176 180
94 179 187
104 183 190
90 169 169
82 160 142
74 128 93
65 77 0
64 72 0
62 75 1
70 79 1
72 105 37
79 143 101
79 170 159
78 177 176
80 176 174
81 173 172
78 175 174
81 174 174
92 172 170
170 204 228
152 205 232
148 198 223
196 220 255
196 220 255
196 220 255
196 220 255
196 220 255
196 220 255
196 220 255
86 87 28
88 84 0
83 83 0
78 82 0
83 87 0
98 90 0
102 90 0
83 84 0
106 96 0
97 94 0
103 93 0
101 95 0
106 100 0
112 103 0
116 102 0
114 101 0
111 104 0
111 102 0
110 104 0
106 104 0
115 105 0
103 103 0
108 102 0
114 104 0
108 102 0
104 103 0
101 101 0
113 105 0
116 104 0
107 102 0
113 103 0
118 104 0
116 106 0
117 106 0
110 104 0
122 106 0
119 106 0
107 103 0
120 106 0
108 104 0
112 104 0
115 105 0
106 103 0
110 103 0
108 103 0
115 105 0
107 104 0
110 104 0
117 106 0
115 104 0
112 104 0
113 104 0
107 102 0
113 104 0
112 104 0
107 102 0
105 103 0
116 104 0
104 103 0
114 105 0
111 102 0
113 104 0
109 102 0
109 103 0
109 104 0
115 104 0
109 102 0
113 102 0
114 102 0
106 98 0
109 101 0
113 101 0
100 99 0
102 98 0
117 94 0
103 90 0
112 95 0
106 90 0
106 90 0
105 84 0
104 82 0
95 74 0
94 69 0
97 69 0
85 59 0
87 52 0
73 46 0
86 59 33
195 218 253
196 220 255
196 220 255
196 220 255
196 220 255
196 220 255
196 220 255
129 130 142
73 54 43
71 44 31
59 38 22
57 30 14
60 23 7
49 18 1
52 19 1
61 20 0
51 18 0
54 21 0
55 22 0
57 27 3
55 27 2
58 32 4
56 35 9
63 44 15
55 42 15
60 47 21
61 56 32
62 58 35
65 65 46
69 65 46
67 66 45
71 69 51
74 72 53
73 74 57
74 72 56
74 76 62
74 77 63
74 77 62
77 77 64
76 78 64
76 79 66
76 80 68
77 77 62
77 78 65
75 80 68
75 79 66
76 80 67
76 81 69
76 81 69
76 80 68
76 80 68
75 80 69
76 81 69
76 80 68
76 80 68
76 80 68
76 80 69
76 80 69
76 80 68
76 80 68
76 81 69
76 80 68
76 81 69
76 80 69
76 80 68
76 81 69
76 81 69
76 81 69
76 81 69
76 80 68
76 81 69
76 81 69
76 81 69
76 81 69
76 80 69
76 80 69
75 81 69
75 80 69
76 80 68
76 81 69
76 81 69
76 81 69
76 81 69
76 81 69
76 81 69
75 80 68
76 81 69
75 80 68
76 81 69
76 81 69
75 81 69
76 80 69
75 81 69
76 81 69
76 81 69
75 81 69
76 80 68
76 81 69
76 81 69
76 81 69
76 81 69
76 81 69
76 81 69
76 81 69
76 81 69
77 81 70
77 81 69
79 81 70
77 80 69
85 82 71
80 81 70
89 83 72
88 83 72
94 84 74
86 77 67
74 65 57
77 60 54
54 44 42
194 217 252
196 220 255
196 220 255
196 220 255
196 220 255
196 220 255
196 220 255
196 220 255
196 220 255
196 220 255
196 220 255
196 220 255
196 220 255
196 220 255
196 220 255
196 220 255
196 220 255
196 220 255
196 220 255
196 220 255
196 220 255
196 220 255
196 220 255
196 220 255
196 220 255
196 220 255
196 220 255
196 220 255
196 220 255
196 220 255
196 220 255
196 220 255
196 220 255
196 220 255
196 220 255
196 220 255
196 220 255
196 220 255
196 220 255
196 220 255
196 220 255
196 220 255
196 220 255
196 220 255
196 220 255
196 220 255
196 220 255
196 220 255
196 220 255
196 220 255
196 220 255
196 220 255
196 220 255
196 220 255
196 220 255
196 220 255
196 220 255
196 220 255
196 220 255
196 220 255
196 220 255
196 220 255
196 220 255
196 220 255
196 220 255
196 220 255
196 220 255
196 220 255
196 220 255
196 220 255
196 220 255
196 220 255
196 220 255
196 220 255
196 220 255
196 220 255
108 152 168
23 52 54
16 36 37
70 97 109
180 214 248
183 215 249
107 191 203
83 183 189
82 183 189
80 182 187
82 183 189
81 183 188
80 182 187
80 183 187
80 183 187
80 183 187
80 183 187
80 182 187
80 183 187
80 182 187
80 182 187
80 182 187
80 182 187
82 180 185
87 183 190
91 184 193
89 183 192
89 185 193
98 188 199
91 185 195
91 184 193
85 184 191
83 182 188
87 184 193
84 183 191
84 183 191
85 184 191
84 183 191
85 184 191
85 183 192
84 182 189
84 183 191
86 184 193
82 181 189
84 183 191
83 183 191
83 183 191
85 183 193
83 183 190
83 182 191
85 183 193
83 183 191
81 183 189
84 182 192
82 183 190
83 183 190
81 183 189
84 182 193
89 182 198
84 180 191
83 182 191
83 183 191
82 182 189
84 182 193
82 182 189
83 182 191
83 182 191
81 182 189
82 182 189
84 182 193
83 182 189
83 183 191
83 182 191
83 183 191
82 182 190
83 182 191
81 180 185
84 182 189
83 182 189
81 182 187
86 182 188
82 179 180
83 180 187
85 179 188
85 179 184
82 178 185
89 180 187
86 182 189
87 182 189
87 173 175
88 171 170
81 167 161
85 159 149
73 151 130
32 53 27
38 51 0
47 65 5
55 76 11
57 104 41
64 129 80
74 153 127
78 161 136
78 170 163
81 177 174
85 179 178
78 171 169
81 166 162
127 192 204
166 209 239
131 196 219
130 197 215
149 205 227
137 201 221
138 201 221
135 200 219
129 198 216
123 196 212
130 199 216
105 145 120
75 75 0
76 80 0
86 84 0
91 89 0
98 95 0
90 86 0
91 89 0
104 99 0
92 89 0
100 93 0
105 98 0
106 99 0
103 100 0
112 103 0
104 102 0
103 102 0
106 103 0
110 104 0
108 103 0
116 106 0
106 102 0
114 104 0
107 102 0
110 103 0
112 104 0
108 104 0
104 102 0
112 105 0
111 103 0
105 103 0
99 100 0
108 104 0
121 106 0
108 102 0
118 106 0
112 102 0
111 104 0
116 106 0
111 104 0
108 104 0
115 106 0
105 103 0
117 103 0
109 103 0
111 103 0
113 105 0
110 103 0
112 104 0
105 104 0
113 103 0
106 103 0
106 103 0
112 103 0
110 104 0
121 106 0
99 101 0
111 104 0
108 100 0
113 103 0
111 103 0
108 100 0
105 103 0
117 105 0
117 103 0
106 103 0
114 102 0
119 105 0
111 100 0
108 102 0
108 99 0
111 102 0
109 101 0
118 101 0
105 96 0
105 92 0
98 89 0
99 81 0
92 83 0
102 77 0
109 79 0
97 72 0
85 66 0
95 66 0
94 61 0
75 52 0
64 33 0
83 93 83
127 198 214
128 198 215
128 198 215
135 200 219
138 201 221
150 205 228
142 203 223
130 175 190
73 59 50
71 52 39
57 35 21
56 30 15
51 23 6
52 22 5
54 22 3
57 19 1
52 19 0
54 19 0
50 20 0
54 24 1
54 29 2
54 30 6
53 31 5
61 42 14
59 47 19
54 48 25
59 49 27
61 59 37
60 56 31
63 59 37
68 63 42
71 70 54
73 70 53
71 71 55
73 71 52
74 74 59
74 77 62
76 74 59
75 75 61
74 76 62
77 78 66
77 76 62
76 78 65
75 77 65
76 79 67
76 79 67
76 78 66
77 79 67
75 80 68
76 80 68
75 79 67
76 80 68
75 80 68
75 80 69
77 79 67
76 81 69
76 81 69
76 80 68
75 80 69
76 80 68
76 80 69
76 81 69
76 80 69
75 79 68
76 80 69
76 80 68
76 80 68
76 81 69
76 80 69
76 81 69
76 80 68
76 81 69
75 81 69
76 81 69
75 80 69
75 80 68
76 81 69
76 80 68
76 80 69
76 81 69
76 81 69
76 80 68
76 80 68
76 81 69
76 81 69
76 79 68
76 80 69
76 81 69
76 80 69
76 80 69
76 80 68
75 80 68
76 81 69
76 81 69
76 81 69
76 81 69
76 81 69
76 81 69
75 80 68
76 81 69
75 80 68
76 81 69
76 80 68
75 80 68
75 80 69
76 81 69
76 81 69
77 80 68
78 80 68
80 82 71
82 82 71
86 82 71
93 82 72
85 80 70
86 77 67
84 69 61
61 51 45
136 142 158
196 220 255
196 220 255
196 220 255
196 220 255
196 220 255
196 220 255
196 220 255
196 220 255
196 220 255
196 220 255
196 220 255
196 220 255
196 220 255
196 220 255
196 220 255
196 220 255
196 220 255
196 220 255
196 220 255
196 220 255
196 220 255
196 220 255
196 220 255
196 220 255
196 220 255
196 220 255
196 220 255
196 220 255
196 220 255
196 220 255
196 220 255
196 220 255
196 220 255
196 220 255
196 220 255
196 220 255
196 220 255
196 220 255
196 220 255
196 220 255
196 220 255
196 220 255
196 220 255
196 220 255
196 220 255
196 220 255
196 220 255
196 220 255
196 220 255
196 220 255
196 220 255
196 220 255
196 220 255
196 220 255
196 220 255
196 220 255
196 220 255
196 220 255
196 220 255
196 220 255
196 220 255
196 220 255
196 220 255
196 220 255
196 220 255
196 220 255
196 220 255
196 220 255
196 220 255
196 220 255
196 220 255
196 220 255
196 220 255
196 220 255
196 220 255
196 220 255
167 198 227
40 88 90
25 56 58
21 39 42
167 203 236
184 215 249
136 200 221
88 185 192
81 183 188
85 184 190
82 183 189
84 184 189
80 183 187
80 182 187
80 182 187
80 182 187
80 182 187
80 182 187
80 183 187
79 181 185
80 182 187
80 181 185
80 182 187
79 180 185
83 183 189
90 185 193
84 184 190
89 182 190
96 184 194
89 184 191
86 180 189
87 182 191
89 183 192
85 184 191
85 183 191
85 184 191
86 184 192
86 184 192
80 182 188
86 183 193
83 183 190
85 183 192
85 183 192
82 183 189
82 182 189
85 183 192
83 182 191
82 182 189
84 183 192
83 182 191
82 182 190
82 182 189
82 183 189
83 182 191
84 183 192
82 182 190
83 182 191
83 182 191
81 183 189
80 182 189
84 183 193
82 182 191
82 182 190
83 180 191
84 182 193
84 182 192
81 182 186
83 183 191
83 182 189
83 182 191
82 182 190
84 183 193
83 181 190
81 182 189
84 182 189
81 180 185
84 180 186
83 183 191
84 181 187
85 181 191
83 182 189
83 178 186
85 182 188
84 181 190
82 178 183
86 182 189
90 176 182
82 175 172
89 177 177
93 171 165
89 173 170
78 151 127
77 152 131
42 87 61
20 37 7
23 41 7
34 67 24
47 97 56
54 110 60
61 124 73
72 160 140
79 166 150
81 174 168
81 177 174
82 177 175
78 171 169
81 168 160
148 204 227
156 206 234
104 183 197
80 182 187
80 182 187
80 183 187
80 182 187
80 182 187
80 182 187
80 183 187
80 182 187
80 177 178
83 85 3
80 80 0
85 83 0
84 81 0
80 83 0
92 90 0
98 92 0
95 92 0
93 96 0
104 96 0
96 96 0
91 96 0
108 102 0
110 102 0
114 103 0
114 104 0
109 103 0
112 103 0
99 99 0
113 105 0
112 105 0
108 104 0
107 101 0
103 102 0
106 102 0
116 103 0
112 104 0
109 104 0
115 105 0
117 104 0
113 104 0
117 105 0
116 105 0
100 101 0
107 104 0
104 103 0
103 103 0
109 104 0
117 104 0
101 102 0
103 103 0
110 102 0
112 104 0
108 103 0
121 105 0
119 106 0
111 104 0
117 102 0
108 103 0
105 103 0
114 105 0
102 102 0
108 102 0
113 103 0
111 103 0
104 102 0
118 106 0
104 101 0
103 100 0
112 103 0
107 102 0
116 104 0
110 100 0
117 103 0
102 99 0
115 103 0
105 102 0
112 100 0
111 100 0
111 95 0
107 98 0
109 100 0
110 101 0
98 92 0
104 93 0
95 85 0
98 86 0
103 86 0
104 81 0
96 80 0
94 71 0
100 70 0
91 65 0
76 55 0
71 44 0
64 38 3
77 173 176
80 182 187
80 183 187
80 182 187
80 183 187
80 182 187
80 183 187
80 182 187
81 183 187
78 85 79
70 52 41
72 47 31
55 37 21
56 33 14
54 26 9
54 24 7
51 22 3
44 14 0
48 17 1
44 18 1
49 22 1
45 23 1
52 31 8
51 33 10
53 38 11
57 41 20
55 43 18
58 49 26
57 49 25
63 57 34
66 61 37
68 67 47
70 69 52
71 67 48
75 74 58
74 71 55
71 72 55
74 71 54
76 78 64
75 76 62
76 75 59
75 78 65
75 77 64
77 76 62
75 77 64
75 79 66
75 77 65
76 78 65
75 79 67
76 80 67
76 79 66
76 80 68
76 78 66
76 77 65
75 78 65
76 81 69
76 78 66
76 79 68
75 81 69
76 79 67
75 80 69
75 80 69
76 76 65
76 80 68
77 78 66
76 79 68
76 80 68
76 81 69
76 81 69
76 79 68
76 78 66
76 81 69
76 81 69
76 81 69
76 81 69
75 78 67
76 79 68
76 79 68
75 80 69
76 80 68
76 80 69
75 79 67
76 81 69
75 79 67
75 81 69
75 80 68
76 80 68
76 81 69
76 81 69
76 81 69
76 80 69
76 80 69
76 81 69
76 80 68
76 81 69
75 80 68
76 80 69
76 81 69
76 80 68
76 81 69
75 80 68
76 81 69
76 81 69
76 80 69
76 80 69
76 81 69
76 80 68
76 81 69
76 79 68
76 80 68
77 81 69
86 82 71
80 81 70
89 82 71
86 78 68
85 71 63
74 62 55
58 52 46
172 188 216
196 220 255
196 220 255
196 220 255
196 220 255
196 220 255
196 220 255
196 220 255
196 220 255
196 220 255
196 220 255
196 220 255
196 220 255
196 220 255
196 220 255
196 220 255
196 220 255
196 220 255
196 220 255
196 220 255
196 220 255
196 220 255
196 220 255
196 220 255
196 220 255
196 220 255
196 220 255
196 220 255
196 220 255
196 220 255
196 220 255
196 220 255
196 220 255
196 220 255
196 220 255
196 220 255
196 220 255
196 220 255
196 220 255
196 220 255
196 220 255
196 220 255
196 220 255
196 220 255
196 220 255
196 220 255
196 220 255
196 220 255
196 220 255
197 220 255
196 220 255
197 220 255
197 220 255
197 220 255
197 220 255
197 220 255
197 220 255
197 220 255
197 220 255
197 220 255
197 220 255
197 220 255
197 220 255
197 220 255
197 220 255
197 220 255
197 220 255
197 220 255
197 220 255
197 220 255
197 220 255
197 220 255
197 220 255
197 220 255
197 220 255
197 220 255
197 220 255
197 220 255
84 130 142
23 52 54
21 47 48
91 116 134
177 213 246
166 210 238
81 183 188
84 184 189
83 184 189
82 183 189
84 184 190
83 184 189
80 182 187
79 182 187
80 183 187
80 182 187
79 181 185
77 177 182
79 180 185
79 180 185
80 182 187
80 182 187
79 181 185
79 181 185
83 182 187
90 185 193
87 185 192
92 186 195
91 183 192
92 186 195
85 182 189
87 181 190
86 182 191
86 184 192
83 178 186
82 181 187
87 182 193
81 181 187
84 183 191
83 180 187
83 183 191
83 183 190
84 183 191
84 183 191
84 183 191
82 181 188
83 183 190
83 182 191
84 181 191
84 182 193
83 183 190
83 183 191
81 181 187
83 183 191
83 183 191
82 182 191
84 181 191
82 182 191
81 180 188
85 182 193
83 183 191
81 180 188
83 182 189
82 183 189
81 182 189
82 180 187
81 179 187
81 182 189
85 183 193
82 183 189
81 183 189
82 182 190
83 182 189
81 182 189
84 182 189
82 178 186
83 181 187
86 183 194
85 181 188
81 181 185
85 178 184
85 180 188
83 177 180
82 177 180
86 176 176
84 172 169
86 171 167
88 170 158
84 167 156
79 159 140
78 158 139
66 127 103
28 54 15
30 60 16
33 67 22
41 86 43
50 103 46
56 120 73
68 140 95
70 144 108
77 167 155
79 172 169
82 176 174
81 175 173
80 175 171
92 185 191
166 209 237
140 200 225
92 184 193
80 183 187
80 182 187
80 182 187
80 182 187
80 182 187
80 183 187
80 183 187
81 183 187
80 182 187
75 110 61
78 84 0
80 86 0
81 86 0
87 87 0
91 92 0
99 91 0
89 94 0
103 97 0
88 88 0
94 93 0
97 98 0
97 97 0
101 99 0
112 103 0
106 101 0
105 102 0
101 101 0
97 99 0
109 103 0
111 103 0
111 103 0
105 101 0
104 101 0
115 104 0
106 101 0
108 103 0
101 103 0
114 102 0
113 104 0
108 102 0
106 104 0
105 102 0
104 102 0
111 104 0
111 104 0
102 101 0
114 102 0
100 101 0
104 103 0
104 103 0
92 99 0
107 103 0
102 102 0
115 105 0
111 103 0
106 101 0
104 103 0
111 103 0
106 103 0
119 105 0
113 102 0
108 104 0
106 102 0
105 102 0
104 102 0
107 101 0
103 102 0
114 103 0
108 100 0
107 102 0
105 100 0
116 102 0
108 100 0
103 99 0
112 99 0
95 98 0
112 101 0
103 98 0
109 101 0
103 94 0
107 95 0
104 94 0
105 92 0
99 85 0
112 93 0
104 90 0
97 84 0
99 80 0
91 71 0
94 71 0
95 70 0
80 56 0
77 58 0
68 43 0
64 89 71
80 182 187
80 183 187
80 183 187
80 182 187
80 182 187
80 183 187
80 183 187
80 183 187
80 182 187
74 125 124
76 64 52
70 59 44
60 42 25
54 35 18
52 30 16
49 24 7
53 24 4
46 23 6
47 20 1
47 22 2
49 23 4
43 22 5
44 26 4
54 33 7
51 34 10
52 37 15
52 41 15
57 50 26
53 51 29
66 63 41
65 57 37
69 65 46
69 65 45
70 67 48
71 67 48
73 72 54
73 73 57
73 74 57
76 75 60
76 72 56
72 73 59
76 77 63
76 74 59
75 76 62
75 79 66
76 76 63
76 76 64
76 80 68
76 78 66
76 77 64
76 78 65
76 78 66
76 78 65
76 80 68
75 77 65
76 78 66
76 80 68
76 79 67
76 79 68
76 80 69
76 80 68
75 77 66
75 81 69
74 78 66
76 79 68
76 79 68
76 80 68
75 76 65
75 80 69
76 80 68
76 78 66
75 79 68
76 80 68
75 80 68
76 81 69
76 81 69
76 80 68
76 79 68
76 79 68
76 80 69
75 80 69
76 80 69
76 77 65
75 79 68
76 80 69
76 80 69
76 80 68
76 81 69
76 80 69
76 81 69
76 81 69
75 80 68
76 80 69
76 81 69
76 80 68
76 80 69
76 80 68
76 80 68
76 80 69
75 79 67
76 81 69
76 78 66
76 80 69
76 80 68
76 80 68
76 79 68
76 81 69
76 79 68
76 79 67
76 80 68
76 79 68
79 81 70
79 81 69
85 82 71
84 76 66
78 67 59
87 67 61
102 100 107
197 220 255
197 220 255
197 220 255
197 220 255
197 220 255
197 220 255
197 220 255
197 220 255
197 220 255
197 220 255
197 220 255
197 220 255
197 220 255
197 220 255
197 220 255
197 220 255
197 220 255
197 220 255
197 220 255
197 220 255
197 220 255
197 220 255
197 220 255
197 220 255
197 220 255
197 220 255
197 220 255
197 220 255
197 220 255
197 220 255
196 220 255
196 220 255
196 220 255
196 220 255
196 220 255
196 220 255
196 220 255
196 220 255
196 220 255
197 220 255
197 220 255
197 220 255
197 220 255
197 220 255
197 220 255
197 220 255
197 220 255
197 220 255
197 220 255
197 220 255
197 220 255
197 220 255
197 220 255
197 220 255
197 220 255
197 220 255
197 220 255
197 220 255
197 220 255
197 220 255
197 220 255
197 220 255
197 220 255
197 220 255
197 220 255
197 220 255
197 220 255
197 220 255
197 220 255
197 220 255
197 220 255
197 220 255
197 220 255
197 220 255
197 220 255
197 220 255
197 220 255
197 220 255
171 203 232
28 65 67
21 49 50
37 62 67
167 203 236
187 217 251
103 190 201
84 183 190
83 183 189
81 182 188
81 183 188
80 182 187
80 182 187
80 182 187
80 183 187
79 181 185
79 181 185
78 179 183
79 181 185
80 183 187
80 182 187
80 182 187
79 180 185
78 178 183
79 181 185
84 183 188
82 179 184
88 185 192
102 189 201
92 181 190
88 181 190
86 182 191
93 184 196
82 180 186
83 181 188
85 182 191
80 179 185
84 181 190
84 178 188
82 179 187
82 181 188
84 181 189
85 182 193
83 183 189
85 183 193
81 178 184
81 179 187
80 181 185
81 182 189
80 180 187
83 180 190
83 182 191
81 180 188
81 179 187
81 180 187
82 180 189
80 178 187
82 182 190
80 180 186
81 183 188
81 180 188
81 182 189
81 182 188
82 182 190
82 182 191
81 182 189
81 182 189
83 182 191
82 182 191
84 182 192
83 182 191
85 179 191
81 177 186
84 182 189
83 182 191
81 179 187
83 182 189
84 183 191
84 178 181
80 178 184
86 180 188
82 174 180
84 176 180
87 182 190
83 171 174
90 180 186
85 169 159
87 165 152
87 176 170
76 146 123
71 146 113
51 99 62
40 79 30
39 77 24
44 91 37
46 94 41
55 116 65
63 131 91
66 135 102
72 158 142
76 159 144
77 167 164
78 171 165
86 179 181
82 182 185
123 196 211
166 209 240
124 192 213
80 183 187
80 182 187
80 183 187
80 182 187
80 182 187
80 183 187
80 183 187
80 183 187
80 182 187
80 182 187
76 167 165
83 85 0
73 76 0
83 82 0
90 90 0
81 85 0
75 83 0
89 91 0
99 94 0
95 95 0
94 94 0
96 95 0
103 99 0
105 100 0
105 103 0
108 102 0
104 101 0
105 101 0
109 103 0
102 101 0
108 103 0
114 105 0
110 103 0
107 103 0
106 103 0
109 103 0
101 101 0
101 103 0
105 102 0
106 102 0
106 103 0
112 104 0
108 102 0
97 101 0
102 103 0
106 103 0
105 102 0
114 105 0
108 104 0
104 103 0
115 104 0
108 103 0
110 104 0
111 102 0
100 101 0
104 102 0
106 103 0
106 101 0
106 101 0
107 102 0
114 105 0
109 103 0
96 101 0
109 103 0
104 100 0
104 103 0
110 101 0
108 101 0
103 102 0
107 102 0
111 101 0
99 99 0
104 103 0
101 101 0
109 99 0
102 99 0
98 94 0
105 99 0
104 99 0
103 98 0
98 95 0
101 94 0
94 97 0
101 89 0
103 92 0
105 92 0
95 77 0
97 81 0
94 78 0
96 77 0
93 72 0
79 59 0
82 56 0
71 46 0
68 47 1
77 157 157
80 182 187
80 183 187
80 183 187
80 182 187
80 182 187
80 182 187
80 182 187
80 182 187
80 182 187
79 181 185
77 70 61
76 65 54
67 51 32
62 46 27
52 30 12
47 26 8
51 24 6
43 21 3
42 20 1
43 20 4
36 17 3
42 24 4
42 22 3
43 31 10
44 27 5
52 36 14
50 40 18
50 43 23
53 46 25
58 52 31
67 61 40
68 63 42
67 65 45
72 67 46
72 69 51
72 69 51
73 72 55
75 72 57
76 70 54
75 70 55
75 73 60
77 74 62
76 76 62
75 71 57
76 76 62
74 76 63
76 77 64
76 75 63
76 76 64
76 78 65
76 78 66
74 77 64
76 79 66
75 76 64
76 80 67
76 77 66
76 78 66
76 80 68
75 79 68
76 79 67
76 80 68
75 77 66
76 79 68
75 78 66
76 79 67
76 80 68
76 79 68
76 79 67
76 79 68
76 80 68
75 78 67
77 78 66
76 80 68
76 79 68
76 79 67
76 79 67
75 79 67
76 80 68
76 80 68
76 78 66
76 79 67
77 78 66
76 79 67
76 79 68
76 79 67
76 80 69
76 80 68
76 80 68
76 80 68
76 80 69
76 80 68
76 80 68
75 80 68
76 78 66
76 79 68
76 80 69
75 79 67
76 78 66
76 79 67
76 80 68
76 77 66
76 81 69
76 79 67
76 78 66
76 79 68
75 79 68
76 78 67
76 80 68
76 79 67
76 80 69
76 79 67
76 81 69
83 81 70
83 79 69
78 69 60
70 63 55
65 56 50
169 185 212
197 220 255
197 220 255
197 220 255
197 220 255
197 220 255
197 220 255
197 220 255
197 220 255
197 220 255
197 220 255
197 220 255
197 220 255
197 220 255
197 220 255
197 220 255
197 220 255
197 220 255
197 220 255
197 220 255
197 220 255
197 220 255
197 220 255
197 220 255
197 220 255
197 220 255
197 220 255
197 220 255
197 220 255
197 220 255
197 220 255
197 220 255
197 220 255
197 220 255
197 220 255
197 220 255
197 220 255
197 220 255
197 220 255
197 220 255
197 220 255
197 220 255
197 220 255
197 220 255
197 220 255
197 220 255
197 220 255
197 220 255
197 220 255
197 220 255
197 220 255
197 220 255
197 220 255
197 220 255
197 220 255
197 220 255
197 220 255
197 220 255
197 220 255
197 220 255
197 220 255
197 220 255
197 220 255
197 220 255
197 220 255
197 220 255
197 220 255
197 220 255
197 220 255
197 220 255
197 220 255
197 220 255
197 220 255
197 220 255
197 220 255
197 220 255
197 220 255
197 220 255
197 220 255
197 221 255
78 133 142
28 65 67
16 38 39
92 118 136
174 212 245
155 206 232
80 183 187
85 184 191
82 183 189
83 183 189
82 183 189
80 182 187
80 182 187
80 182 187
81 183 188
78 179 183
79 181 185
78 177 182
79 180 185
77 177 182
79 179 183
79 180 185
80 181 185
81 183 187
81 181 187
82 177 183
92 186 195
80 178 183
99 187 198
87 180 188
94 183 194
92 184 194
83 178 186
83 179 185
83 177 185
82 181 187
82 181 188
83 183 189
83 181 189
86 181 191
83 179 187
82 182 189
83 183 191
81 176 186
80 182 187
81 177 185
82 180 189
81 177 186
81 177 186
84 182 193
83 183 191
82 181 188
81 180 188
79 178 185
81 180 188
81 179 187
83 182 189
82 180 189
82 180 189
83 182 191
82 180 190
83 182 192
83 180 191
82 182 190
81 181 187
81 180 187
82 177 188
79 177 184
79 177 184
81 179 186
82 181 186
82 182 190
83 180 188
82 181 188
81 176 184
84 183 191
85 183 191
82 179 183
85 176 183
88 181 186
85 178 183
88 180 183
85 175 171
89 174 172
88 163 149
89 169 154
83 166 153
74 154 138
81 150 122
57 118 76
53 110 69
43 86 39
47 93 39
53 111 67
54 112 63
59 121 63
61 127 82
68 147 120
73 158 139
77 169 165
78 173 173
81 179 181
82 179 180
84 179 181
162 207 233
144 200 224
89 174 184
80 183 187
80 183 187
80 182 187
80 183 187
80 183 187
80 182 187
80 183 187
80 182 187
80 183 187
80 182 187
80 182 187
71 108 63
76 78 0
73 80 0
82 82 0
80 87 0
81 89 0
95 90 0
89 94 0
92 92 0
99 98 0
101 98 0
92 100 0
103 98 0
110 104 0
101 99 0
103 99 0
101 101 0
102 101 0
104 102 0
112 103 0
104 100 0
98 102 0
106 103 0
106 103 0
93 99 0
104 103 0
100 102 0
100 102 0
106 102 0
108 103 0
111 104 0
104 101 0
102 101 0
101 102 0
98 100 0
95 101 0
106 103 0
102 103 0
113 105 0
98 100 0
101 103 0
104 103 0
110 104 0
113 103 0
109 103 0
103 101 0
102 101 0
103 101 0
99 101 0
105 102 0
98 102 0
100 101 0
112 103 0
104 103 0
103 98 0
101 100 0
105 101 0
102 100 0
96 98 0
104 101 0
108 102 0
101 98 0
105 99 0
112 100 0
107 100 0
105 101 0
104 100 0
98 97 0
102 97 0
104 99 0
106 97 0
105 96 0
103 94 0
95 89 0
99 89 0
92 80 0
91 80 0
101 84 0
88 70 0
84 62 0
82 60 0
76 53 0
65 46 0
70 87 69
80 183 187
80 182 187
80 183 187
80 182 187
80 183 187
80 182 187
80 182 187
80 182 187
80 182 187
80 182 187
80 183 187
78 128 128
70 57 48
73 65 50
61 46 26
53 36 19
51 32 15
44 25 7
39 20 4
43 20 4
39 21 5
43 23 3
38 20 3
41 24 6
46 30 11
46 32 10
45 33 14
47 37 15
48 42 21
57 48 26
60 51 28
64 58 37
64 56 35
69 64 40
71 67 50
69 65 45
71 66 47
75 69 54
74 72 56
76 69 53
75 70 55
76 70 55
75 73 57
75 78 64
76 72 59
76 76 63
76 74 62
76 75 62
75 76 63
75 76 63
76 77 65
76 75 63
77 78 65
75 77 66
76 78 66
74 77 66
76 79 67
75 78 67
77 77 66
76 79 67
76 77 65
76 78 67
76 78 66
76 79 67
76 77 65
76 79 67
76 78 66
75 79 67
75 80 68
76 79 68
76 79 67
76 79 67
76 80 68
76 78 66
76 80 68
76 80 68
76 80 69
75 78 67
76 79 67
76 79 67
76 81 69
76 78 66
76 78 67
76 79 67
76 79 68
76 78 66
76 81 69
77 79 67
76 78 66
76 78 66
76 81 69
76 79 67
76 79 68
76 80 68
76 79 67
76 80 68
76 78 66
76 80 68
76 79 67
76 79 67
76 80 68
76 80 69
76 80 68
75 77 66
77 78 66
77 81 69
76 80 69
76 78 67
77 79 67
76 78 66
77 79 67
76 80 69
76 80 68
84 80 69
86 77 66
89 75 66
70 61 54
97 97 102
197 221 255
197 220 255
197 221 255
197 221 255
197 220 255
197 220 255
197 220 255
197 220 255
197 220 255
197 220 255
197 220 255
197 220 255
197 220 255
197 220 255
197 220 255
197 220 255
197 220 255
197 220 255
197 220 255
197 220 255
197 220 255
197 220 255
197 220 255
197 220 255
197 220 255
197 220 255
197 220 255
197 220 255
197 220 255
197 220 255
197 220 255
197 220 255
197 220 255
197 220 255
197 220 255
197 220 255
197 220 255
197 220 255
197 220 255
197 220 255
197 221 255
197 221 255
197 221 255
197 221 255
197 221 255
197 221 255
197 221 255
197 221 255
197 221 255
197 221 255
197 221 255
197 221 255
197 221 255
197 221 255
197 221 255
197 221 255
197 221 255
197 221 255
197 221 255
197 221 255
197 221 255
197 221 255
197 221 255
197 221 255
197 221 255
197 221 255
197 221 255
197 221 255
197 221 255
197 221 255
197 221 255
197 221 255
197 221 255
197 221 255
195 220 254
185 217 248
180 215 245
172 212 240
166 210 237
161 209 234
115 177 192
28 64 65
22 51 52
22 44 47
158 189 221
180 214 247
102 190 200
81 183 188
80 182 187
83 183 189
85 184 190
80 182 187
79 181 185
80 182 187
79 182 187
79 180 185
80 182 187
79 180 185
80 182 187
79 180 185
78 179 183
78 177 182
77 175 180
77 177 182
79 179 183
83 182 187
87 181 189
84 183 188
83 181 188
89 182 188
95 184 194
87 181 189
89 184 192
84 174 182
82 181 188
79 179 184
84 176 186
79 177 183
81 173 181
83 178 186
80 176 182
85 181 191
80 177 184
85 182 191
83 181 189
82 180 187
82 177 186
84 182 192
81 181 188
81 179 187
82 182 190
84 182 193
82 179 187
81 179 187
82 183 190
81 181 187
83 181 190
79 178 185
82 178 189
80 175 184
83 183 191
80 180 185
80 179 185
84 183 193
83 182 189
81 177 186
82 179 187
84 180 189
80 180 187
78 173 178
84 181 190
80 177 181
83 181 190
85 180 187
80 179 181
87 180 188
85 179 185
83 179 181
85 179 181
84 179 179
83 173 173
80 166 161
88 174 168
94 172 166
89 167 156
83 161 147
82 162 149
82 157 136
64 122 81
49 99 52
52 106 60
48 101 56
49 100 44
60 124 76
57 121 82
62 125 76
67 133 91
72 151 127
74 155 135
75 168 161
77 172 171
77 171 170
78 176 176
126 193 208
165 207 235
121 187 207
80 183 187
80 183 187
80 183 187
80 183 187
80 182 187
80 182 187
80 183 187
81 183 187
80 183 187
80 182 187
80 182 187
80 182 187
77 165 157
75 77 0
80 81 0
71 84 0
72 79 0
77 87 0
83 90 0
93 90 0
95 95 0
93 96 0
97 96 0
94 99 0
95 97 0
102 101 0
100 101 0
100 100 0
96 99 0
107 101 0
90 97 0
100 97 0
95 99 0
100 101 0
103 100 0
109 102 0
100 99 0
108 104 0
96 99 0
112 103 0
99 102 0
102 99 0
100 101 0
103 102 0
100 99 0
101 101 0
100 101 0
97 102 0
100 101 0
106 102 0
102 103 0
102 102 0
98 100 0
102 102 0
104 102 0
101 101 0
104 101 0
101 100 0
109 103 0
101 99 0
107 102 0
106 103 0
107 103 0
101 100 0
114 102 0
102 100 0
103 101 0
94 101 0
100 99 0
102 101 0
101 102 0
98 100 0
95 96 0
101 100 0
100 99 0
99 97 0
103 96 0
101 96 0
100 99 0
106 97 0
100 96 0
95 93 0
99 94 0
104 91 0
94 81 0
101 85 0
96 87 0
93 83 0
90 75 0
88 74 0
89 70 0
76 63 0
77 57 0
72 49 0
62 37 0
76 156 155
79 182 187
80 183 187
80 182 187
80 182 187
80 183 187
80 182 187
80 183 187
80 182 187
80 183 187
80 183 187
80 183 187
80 179 184
72 67 61
73 66 52
70 60 41
59 47 29
53 35 17
48 34 17
44 26 8
44 24 9
36 17 4
32 17 2
37 22 5
38 24 9
40 26 11
46 33 14
48 37 19
44 31 10
53 42 24
61 53 31
62 52 30
64 55 33
66 59 38
66 60 40
69 62 43
69 61 41
73 69 53
72 66 50
74 68 52
74 69 54
74 69 51
75 72 59
75 71 56
76 71 56
75 74 61
76 74 61
77 74 61
75 75 63
77 76 62
76 77 64
75 75 63
76 75 62
76 77 64
76 78 65
76 77 65
77 77 65
76 78 66
76 78 65
76 76 65
76 79 67
77 76 64
76 78 66
76 77 66
76 78 67
75 78 67
76 79 67
76 79 68
77 77 65
76 79 67
76 78 66
76 78 66
76 80 69
76 81 69
75 77 65
76 80 68
76 79 67
75 78 67
76 79 67
76 78 66
76 79 67
76 76 64
76 79 68
75 79 68
76 78 66
76 79 67
76 80 68
75 79 67
75 79 68
76 79 68
76 79 67
76 80 68
77 79 67
75 80 68
76 78 66
76 80 68
76 80 68
76 79 67
75 79 67
75 78 67
76 79 67
75 78 67
76 79 67
76 80 68
76 80 68
76 78 66
77 79 67
76 80 69
76 78 66
76 79 67
76 78 66
76 77 66
77 77 66
76 79 68
79 73 63
72 72 62
71 63 55
62 54 48
125 168 184
162 209 235
159 208 233
177 214 244
185 216 248
188 218 250
195 220 254
197 221 255
197 221 255
197 221 255
197 221 255
197 221 255
197 221 255
197 221 255
197 221 255
197 221 255
197 221 255
197 221 255
197 221 255
197 221 255
197 221 255
197 221 255
197 221 255
197 221 255
197 221 255
197 221 255
197 221 255
197 221 255
197 221 255
197 221 255
197 221 255
197 221 255
197 221 255
197 221 255
197 221 255
197 221 255
197 221 255
197 221 255
197 221 255
197 221 255
197 221 255
197 221 255
198 221 255
197 221 255
198 221 255
198 221 255
198 221 255
198 221 255
198 221 255
198 221 255
198 221 255
198 221 255
198 221 255
198 221 255
198 221 255
198 221 255
198 221 255
198 221 255
198 221 255
198 221 255
198 221 255
187 217 249
181 215 246
173 213 241
165 210 236
154 207 230
149 205 227
136 201 220
127 197 214
122 196 212
117 195 208
102 190 200
102 190 199
92 186 194
88 185 191
80 183 187
80 182 187
80 183 187
80 182 187
81 183 187
80 183 187
80 183 187
50 115 118
17 38 39
18 42 43
67 91 104
175 212 245
136 201 221
81 183 188
81 183 188
83 183 189
82 183 189
82 183 189
81 183 188
80 183 187
80 182 187
76 174 180
78 179 183
78 178 183
79 181 185
80 182 187
79 180 185
79 181 185
78 177 182
79 179 183
79 179 183
78 179 183
85 182 189
80 175 180
83 179 185
85 179 186
86 180 186
87 178 183
88 180 188
92 182 190
93 185 195
86 182 191
87 182 189
84 182 189
85 184 191
85 181 188
85 177 186
83 182 188
86 178 190
81 176 183
84 181 190
82 179 185
83 180 187
81 182 186
82 181 188
82 183 190
84 183 191
83 181 190
81 178 185
85 179 192
80 176 183
79 175 183
80 172 181
82 179 187
85 183 193
81 180 187
83 181 189
83 181 190
81 175 183
83 176 187
81 180 185
82 179 187
80 177 185
84 182 189
83 180 190
83 181 189
82 179 185
82 174 181
84 181 187
83 181 186
85 175 178
86 181 187
84 180 186
87 181 185
83 177 177
90 175 167
92 174 171
82 163 157
82 163 150
91 161 148
77 159 143
87 166 147
74 154 135
60 128 93
53 112 78
52 108 63
59 122 71
57 112 58
54 112 63
61 128 88
60 121 69
61 133 99
70 153 133
70 152 125
76 168 159
77 169 166
81 174 171
79 175 174
89 183 189
154 203 225
151 203 230
91 181 190
80 182 187
80 183 187
80 183 187
79 182 187
81 183 187
80 182 187
80 182 187
80 182 187
80 182 187
80 182 187
80 182 187
80 183 187
80 182 187
75 118 73
72 81 0
80 82 0
84 88 0
86 89 0
92 91 0
80 84 0
87 91 0
89 92 0
90 96 0
91 96 0
101 98 0
96 99 0
97 97 0
94 100 0
94 100 0
104 100 0
103 100 0
94 100 0
97 97 0
95 100 0
101 102 0
98 99 0
98 101 0
98 100 0
105 101 0
101 101 0
105 102 0
103 102 0
95 100 0
98 102 0
96 99 0
98 101 0
101 101 0
106 103 0
108 103 0
99 100 0
100 102 0
102 99 0
101 100 0
98 101 0
99 100 0
99 100 0
103 102 0
95 100 0
100 98 0
96 102 0
100 99 0
102 101 0
103 100 0
101 100 0
94 99 0
98 100 0
97 100 0
98 100 0
105 99 0
104 101 0
92 97 0
100 99 0
97 98 0
97 97 0
99 96 0
102 100 0
102 97 0
99 94 0
96 91 0
106 95 0
96 94 0
94 93 0
98 93 0
99 92 0
104 89 0
87 79 0
101 84 0
92 80 0
93 74 0
82 70 0
85 67 0
74 57 0
71 52 0
63 46 0
68 94 73
79 182 187
80 183 187
80 182 187
80 182 187
80 182 187
79 182 187
80 182 187
80 182 187
80 182 187
80 182 187
80 182 187
80 182 187
80 183 187
73 123 123
66 56 45
73 65 48
63 54 39
53 38 23
51 38 19
46 26 8
44 29 12
40 23 7
40 22 7
40 26 11
37 22 7
40 27 11
40 27 10
43 30 14
43 31 11
53 39 20
55 41 21
58 47 23
66 55 35
66 57 35
71 62 45
67 55 34
70 62 44
72 64 49
74 67 50
75 70 53
73 70 54
73 71 57
77 71 56
72 69 55
76 69 54
77 73 59
78 71 56
77 71 60
75 76 64
76 74 61
76 71 57
77 77 64
77 73 60
76 74 63
77 76 63
76 77 65
76 76 64
77 72 60
77 76 64
76 74 62
76 77 66
76 78 66
74 76 65
76 76 64
76 77 65
77 78 66
75 77 65
76 76 64
76 77 65
76 77 65
75 78 67
76 77 65
76 81 69
75 77 66
76 77 66
76 80 68
76 77 65
76 80 68
76 79 67
76 77 66
76 78 66
76 77 65
76 79 67
75 78 67
75 75 64
76 77 65
76 78 66
76 78 67
76 78 66
76 80 69
75 79 67
76 77 66
76 77 65
76 79 67
77 78 66
75 80 69
76 79 68
76 78 66
76 79 68
76 78 66
76 78 66
76 77 65
74 77 66
76 76 64
76 79 67
77 78 66
76 77 66
77 77 65
76 79 67
75 77 66
77 78 66
76 79 67
76 79 67
78 79 67
87 79 69
72 67 58
64 57 50
63 77 73
80 182 187
80 183 187
80 183 187
80 183 187
80 182 187
80 183 187
80 182 187
83 184 189
91 186 193
95 187 196
112 193 206
119 195 210
127 198 214
134 200 219
142 203 223
154 206 230
153 206 230
159 208 233
178 214 244
182 216 247
191 218 251
196 220 255
198 221 255
198 221 255
198 221 255
198 221 255
198 221 255
198 221 255
198 221 255
198 221 255
198 221 255
198 221 255
198 221 255
198 221 255
198 221 255
198 221 255
198 221 255
198 221 255
198 221 255
197 221 255
197 221 255
198 221 255
198 221 255
198 221 255
198 221 255
198 221 255
192 219 252
193 219 253
178 214 244
161 209 234
163 210 235
154 207 230
145 203 225
140 202 222
123 197 212
124 197 212
122 196 211
98 189 197
95 187 195
91 186 193
80 182 187
80 182 187
80 183 187
80 183 187
80 183 187
80 182 187
80 182 187
80 182 187
80 182 187
80 182 187
80 182 187
80 182 187
80 183 187
80 183 187
80 182 187
80 182 187
80 183 187
80 182 187
80 182 187
80 183 187
80 182 187
80 183 187
76 172 176
35 80 82
22 51 52
13 30 31
136 171 198
183 215 249
100 189 199
83 183 189
82 181 187
80 182 187
80 182 187
82 183 189
80 183 187
76 173 178
76 173 178
77 175 180
79 180 185
78 177 182
78 179 183
79 179 183
78 176 180
80 183 187
78 179 183
78 178 182
80 182 185
80 181 185
80 178 182
84 185 189
83 176 182
83 183 187
86 182 188
94 181 190
84 178 181
93 187 195
87 180 188
90 183 191
88 183 192
87 183 191
80 175 180
85 179 188
87 178 188
87 181 190
79 171 177
83 180 187
77 173 177
80 173 179
81 177 185
83 175 184
81 180 184
84 180 189
82 178 186
80 178 184
83 177 185
86 182 192
83 181 190
81 176 183
83 179 189
82 181 186
85 182 191
84 183 190
85 183 190
82 177 184
82 179 184
83 182 189
85 180 190
82 180 184
85 184 191
84 182 190
86 183 191
85 183 187
82 178 182
81 171 178
83 177 181
83 172 171
81 171 170
86 175 172
82 175 172
83 164 156
86 168 161
92 172 166
83 163 142
96 171 170
78 161 146
79 152 138
79 152 133
68 144 110
61 124 78
58 122 84
59 116 67
57 115 73
58 117 71
60 120 76
62 128 88
63 134 97
67 141 100
69 148 121
76 161 144
75 162 146
79 176 177
82 178 178
83 182 186
134 197 214
157 202 226
116 188 207
80 182 187
80 182 187
81 183 187
80 183 187
80 183 187
80 183 187
80 183 187
80 183 187
80 182 187
80 182 187
80 183 187
80 183 187
80 182 187
80 183 187
79 174 172
69 80 1
79 85 0
79 84 0
79 87 0
83 86 0
79 88 0
91 98 0
91 94 0
90 93 0
90 95 0
95 96 0
98 98 0
91 94 0
101 97 0
100 100 0
99 100 0
98 100 0
99 101 0
100 101 0
97 100 0
103 98 0
108 103 0
101 101 0
105 102 0
105 103 0
102 101 0
99 101 0
98 101 0
92 99 0
102 100 0
95 100 0
97 100 0
99 101 0
98 100 0
96 99 0
98 101 0
99 101 0
89 96 0
98 102 0
99 100 0
103 101 0
97 99 0
94 97 0
97 99 0
98 99 0
96 98 0
96 99 0
102 100 0
97 99 0
94 97 0
98 97 0
106 101 0
100 99 0
97 96 0
95 98 0
106 101 0
100 96 0
107 102 0
94 98 0
100 99 0
100 101 0
102 96 0
101 100 0
89 95 0
107 97 0
93 93 0
95 92 0
97 93 0
86 89 0
87 84 0
87 84 0
92 83 0
95 80 0
85 71 0
83 74 0
79 64 0
77 62 0
73 52 0
64 45 0
59 43 9
76 164 165
80 182 187
80 182 187
80 182 187
80 183 187
80 183 187
80 183 187
80 182 187
80 182 187
80 182 187
80 182 187
80 182 187
80 182 187
80 183 187
80 181 185
71 74 65
67 60 48
71 64 47
61 50 34
52 39 22
48 33 17
39 23 8
40 22 8
36 18 4
41 25 11
36 23 8
38 25 10
46 33 18
47 33 15
46 35 15
47 35 17
59 44 27
58 44 25
64 57 38
66 54 34
67 58 39
66 60 40
70 60 41
73 64 46
72 60 42
73 66 49
74 68 54
73 67 51
74 66 49
76 66 51
77 69 54
76 71 58
72 68 54
74 72 59
76 73 59
76 71 59
75 73 61
75 74 61
76 76 64
75 73 60
75 74 62
75 76 63
76 77 65
76 76 64
75 76 64
76 74 62
75 75 63
76 78 66
76 78 66
77 76 64
76 79 67
75 76 64
76 76 64
76 77 66
74 75 63
75 77 65
77 78 66
76 77 65
77 78 66
76 79 67
77 75 62
76 75 63
76 77 65
77 76 65
76 78 66
76 78 66
77 78 66
76 76 65
76 77 65
76 77 66
76 78 66
77 78 66
75 79 68
76 78 66
76 78 66
76 79 67
76 76 63
75 79 67
76 79 68
76 79 68
75 79 67
76 78 66
77 78 66
75 75 63
76 80 68
76 76 65
77 78 66
76 80 68
77 78 66
76 76 65
75 77 65
76 80 68
76 79 68
76 75 63
76 77 66
76 80 68
77 78 66
76 77 65
76 77 65
73 74 63
76 68 59
61 57 50
47 43 38
76 153 155
80 183 187
80 182 187
80 183 187
80 182 187
81 183 187
80 182 187
80 183 187
80 183 187
80 183 187
80 183 187
80 182 187
80 182 187
80 183 187
80 182 187
80 182 187
80 182 187
80 183 187
80 183 187
80 182 187
80 183 187
80 182 187
81 183 188
88 185 192
94 187 195
99 189 198
108 192 204
131 199 217
125 197 213
132 199 217
151 205 228
142 203 223
170 212 239
161 209 234
178 214 244
180 215 245
195 220 254
198 221 255
198 221 255
198 221 255
198 221 255
198 221 255
118 195 209
107 191 203
104 190 201
84 184 189
87 185 191
80 183 187
80 183 187
80 182 187
81 183 187
80 182 187
80 182 187
80 183 187
80 183 187
80 183 187
80 182 187
80 182 187
80 182 187
80 182 187
80 182 187
80 183 187
80 182 187
80 182 187
80 183 187
80 183 187
80 183 187
80 182 187
80 182 187
80 182 187
79 182 187
80 182 187
80 182 187
80 182 187
80 182 187
80 183 187
79 182 187
80 182 187
80 182 187
81 183 187
80 182 187
80 182 187
80 182 187
80 182 187
61 140 144
28 64 65
16 38 39
42 66 73
174 208 243
158 207 234
81 183 188
80 183 187
82 183 189
83 183 189
82 183 188
78 177 182
79 181 185
78 179 183
79 179 183
78 179 183
75 171 176
79 179 183
78 178 182
79 181 185
80 180 183
80 181 185
79 181 185
79 179 183
79 179 182
78 178 181
79 179 181
86 183 189
87 183 188
86 182 187
86 183 190
84 174 179
94 188 195
95 182 191
86 177 183
84 176 181
89 182 188
85 179 184
85 180 186
90 185 192
84 178 184
85 180 186
83 180 184
84 177 183
88 186 193
85 182 190
84 176 185
85 182 190
83 177 184
80 179 182
81 180 182
83 180 185
79 170 176
82 180 183
80 175 181
83 179 186
84 179 187
82 179 184
84 179 187
84 182 189
78 171 174
82 179 185
82 177 183
85 185 190
84 175 183
85 180 186
81 175 175
86 178 184
83 177 179
82 177 175
81 172 167
88 180 180
78 162 149
89 178 180
80 168 161
84 170 165
84 163 146
91 173 169
93 169 156
92 171 159
80 155 133
81 155 142
75 152 131
70 142 120
61 126 93
66 142 108
63 129 84
59 119 75
60 125 85
62 131 90
60 126 84
64 133 95
67 143 106
68 138 102
70 153 133
76 163 150
81 172 167
80 178 181
82 177 174
94 182 187
158 201 221
133 194 216
79 177 183
80 182 187
80 182 187
80 182 187
80 182 187
80 182 187
80 183 187
80 182 187
80 183 187
80 182 187
80 182 187
80 182 187
80 183 187
80 182 187
80 182 187
80 182 187
78 153 131
67 75 0
72 81 0
75 80 0
83 87 0
88 91 0
81 88 0
94 98 0
100 101 0
96 95 0
93 91 0
97 97 0
99 99 0
88 95 0
94 100 0
93 100 0
94 97 0
89 98 0
95 98 0
111 104 0
94 98 0
92 94 0
101 102 0
96 100 0
98 100 0
96 100 0
93 97 0
89 97 0
92 101 0
94 98 0
94 99 0
96 101 0
100 100 0
105 101 0
95 100 0
102 102 0
102 102 0
99 100 0
100 99 0
99 100 0
98 98 0
100 102 0
99 100 0
97 101 0
103 100 0
95 99 0
98 98 0
103 100 0
96 101 0
92 96 0
95 100 0
91 98 0
102 100 0
97 97 0
101 100 0
94 100 0
100 97 0
101 99 0
106 100 0
93 95 0
98 97 0
92 92 0
98 94 0
93 98 0
94 92 0
98 94 0
101 93 0
98 91 0
100 94 0
95 88 0
89 87 0
84 79 0
89 83 0
88 82 0
75 64 0
73 60 0
69 60 0
68 51 0
62 41 0
70 121 112
81 183 187
80 183 187
80 182 187
80 182 187
80 183 187
80 182 187
80 182 187
80 183 187
80 182 187
80 183 187
80 182 187
80 182 187
80 182 187
80 183 187
80 183 187
76 155 156
60 57 47
69 64 51
64 57 41
57 48 27
50 39 19
49 35 17
40 31 14
37 25 10
34 21 8
36 25 11
45 32 16
43 30 14
43 33 18
44 31 12
53 43 24
60 46 25
58 48 29
63 52 32
66 52 33
65 52 35
70 62 45
69 59 42
73 58 39
74 62 44
72 65 47
72 60 43
77 67 50
77 61 44
75 68 53
76 73 60
77 70 56
77 67 53
77 69 54
75 72 58
77 72 59
75 70 56
76 72 59
76 71 59
76 72 60
76 73 60
76 73 61
78 74 62
76 73 60
75 73 61
78 74 61
76 73 61
76 73 61
76 76 64
76 76 64
75 76 64
76 76 64
77 74 62
76 74 62
77 74 62
76 76 64
74 76 64
75 75 63
75 77 65
76 77 65
76 75 63
75 77 65
76 78 66
76 76 64
76 76 65
76 76 65
75 74 62
76 77 65
75 75 64
76 79 68
76 78 66
76 75 64
77 76 64
75 78 66
75 74 63
77 79 67
76 76 64
76 78 66
75 74 62
77 76 64
77 76 64
75 76 64
76 77 65
77 77 65
76 78 66
76 79 68
76 77 65
76 77 65
77 76 64
76 76 64
77 77 65
76 77 65
77 77 65
77 75 63
76 78 67
77 77 65
76 78 66
77 76 64
75 77 65
73 72 62
67 63 55
57 52 45
68 130 131
80 182 187
80 183 187
80 182 187
80 183 187
80 182 187
80 182 187
80 182 187
80 182 187
80 182 187
80 182 187
80 183 187
80 182 187
80 183 187
81 183 187
79 182 187
80 182 187
80 182 187
80 183 187
80 182 187
80 182 187
80 182 187
80 182 187
80 183 187
80 183 187
80 182 187
80 183 187
80 183 187
80 182 187
80 183 187
81 183 187
80 182 187
80 183 187
80 182 187
80 182 187
80 182 187
80 182 187
80 182 187
89 185 193
94 187 195
107 191 203
113 193 206
117 194 208
80 182 187
79 182 187
80 183 187
79 182 187
80 182 187
80 182 187
80 183 187
80 182 187
80 183 187
80 182 187
80 182 187
80 182 187
80 182 187
80 183 187
80 183 187
80 183 187
80 183 187
80 183 187
80 183 187
80 182 187
80 183 187
80 183 187
80 183 187
79 182 187
80 183 187
80 182 187
80 182 187
80 182 187
80 182 187
80 182 187
80 182 187
80 182 187
80 183 187
80 183 187
80 183 187
80 182 187
80 183 187
80 183 187
80 182 187
80 183 187
80 182 187
80 182 187
79 179 183
53 120 123
25 58 60
21 49 50
79 109 124
173 210 243
125 197 214
82 183 189
81 183 188
84 184 190
83 183 189
83 182 187
80 181 186
78 178 183
79 179 183
78 177 182
75 172 176
79 179 183
79 181 185
78 178 182
78 176 180
80 182 185
78 176 180
80 181 185
78 178 182
79 180 183
78 176 180
83 185 188
85 182 187
88 181 188
84 180 185
83 179 183
88 177 183
91 179 186
100 189 198
89 178 185
84 181 184
91 179 187
81 168 172
87 182 186
83 178 183
84 182 186
83 170 176
90 182 190
80 172 176
91 184 195
82 169 175
87 183 186
86 179 186
81 175 180
85 182 187
79 173 175
83 179 182
82 175 180
82 174 181
86 186 190
80 174 176
81 174 176
86 182 187
77 167 168
86 178 184
83 178 181
84 179 181
84 177 180
82 169 169
79 170 171
81 166 168
85 178 179
81 174 170
79 173 168
86 171 164
78 161 154
88 171 161
84 172 164
89 172 160
90 172 169
87 166 159
87 167 151
77 155 133
85 166 152
81 160 139
82 163 140
74 155 133
66 132 103
60 126 97
63 129 88
65 134 102
66 135 88
61 129 93
64 141 103
67 138 101
66 139 108
70 145 110
69 144 123
75 162 147
79 168 158
76 166 162
80 177 177
85 176 174
140 196 214
151 201 225
85 173 182
80 183 187
80 183 187
80 182 187
80 182 187
81 183 187
80 183 187
80 182 187
80 183 187
80 182 187
80 182 187
80 182 187
80 182 187
80 183 187
80 182 187
80 182 187
80 182 187
80 183 187
73 105 46
73 84 0
81 86 0
70 78 0
84 91 0
89 89 0
85 93 0
82 89 0
84 91 0
91 95 0
93 98 0
99 99 0
95 99 0
96 99 0
90 96 0
97 99 0
91 95 0
94 98 0
89 97 0
102 99 0
92 99 0
95 95 0
92 96 0
94 97 0
94 97 0
98 100 0
88 97 0
98 98 0
103 102 0
98 101 0
93 97 0
95 100 0
100 100 0
100 100 0
95 98 0
94 101 0
95 99 0
90 97 0
97 101 0
87 98 0
99 101 0
93 98 0
96 98 0
92 99 0
89 100 0
91 98 0
94 97 0
95 98 0
86 98 0
96 99 0
94 98 0
98 97 0
100 94 0
94 94 0
92 96 0
94 96 0
91 95 0
89 93 0
102 99 0
90 94 0
98 98 0
91 95 0
88 93 0
92 90 0
91 90 0
96 92 0
93 86 0
90 88 0
87 84 0
90 81 0
90 79 0
86 74 0
86 76 0
72 70 0
77 64 0
72 56 0
69 55 0
65 82 50
81 183 187
80 182 187
80 182 187
80 183 187
80 182 187
80 183 187
80 182 187
80 183 187
80 183 187
80 182 187
80 183 187
80 183 187
80 182 187
80 183 187
80 183 187
80 182 187
80 183 187
57 96 94
62 57 43
64 60 43
64 56 40
57 46 26
45 32 16
47 33 16
37 24 9
41 30 13
42 25 11
42 27 14
44 28 13
47 35 17
50 35 17
57 39 22
55 43 24
57 46 27
61 51 32
65 54 33
71 58 40
65 57 40
70 61 45
69 56 38
73 65 47
74 63 47
75 64 47
75 61 45
69 61 46
77 63 48
75 67 52
75 65 51
76 69 55
74 67 53
76 75 63
77 69 54
77 70 56
76 70 57
77 72 59
75 68 55
76 72 59
76 74 61
76 76 65
77 74 62
76 73 61
76 76 64
78 72 59
77 74 62
77 76 64
75 75 63
76 74 62
77 73 61
75 76 64
77 76 64
76 74 61
75 73 62
76 74 62
76 70 58
77 76 64
76 73 61
75 76 64
76 73 61
75 75 63
75 79 67
76 78 66
75 75 63
76 75 63
76 76 64
77 74 62
76 76 64
76 77 65
76 78 66
76 77 65
77 77 65
77 75 63
75 78 67
76 76 64
76 73 61
76 77 65
76 76 65
75 78 66
77 77 65
77 75 63
77 75 63
77 76 64
76 76 65
77 74 62
77 76 65
77 77 65
76 76 64
77 76 64
77 76 64
77 75 63
76 75 63
77 77 65
77 75 63
75 77 65
75 75 63
73 74 63
72 70 60
53 51 44
61 76 72
79 179 184
80 182 187
80 182 187
80 183 187
80 182 187
80 183 187
80 183 187
80 182 187
80 183 187
80 182 187
80 183 187
80 182 187
80 183 187
80 182 187
80 183 187
80 183 187
80 182 187
80 182 187
80 183 187
80 183 187
80 182 187
80 182 187
80 183 187
80 183 187
80 182 187
80 182 187
80 183 187
80 182 187
80 183 187
80 182 187
80 183 187
80 182 187
80 182 187
80 182 187
80 182 187
80 182 187
80 183 187
80 182 187
80 183 187
80 183 187
80 182 187
80 182 187
80 183 187
79 182 187
80 182 187
80 182 187
80 182 187
80 183 187
80 182 187
80 182 187
80 182 187
80 182 187
80 183 187
80 182 187
80 182 187
80 182 187
80 183 187
80 182 187
80 183 187
80 182 187
80 182 187
80 182 187
80 183 187
81 183 187
80 183 187
80 182 187
80 182 187
80 183 187
80 182 187
80 182 187
80 183 187
80 183 187
80 182 187
80 182 187
80 182 187
80 183 187
80 182 187
80 182 187
80 182 187
80 182 187
81 183 187
80 182 187
80 182 187
80 182 187
80 182 187
80 182 187
74 168 172
32 73 75
26 58 60
20 42 44
135 166 193
172 211 243
96 186 196
80 182 187
82 183 189
84 183 190
83 183 189
80 182 187
79 179 183
80 181 185
79 179 183
79 180 185
76 173 178
80 181 185
78 177 182
80 181 185
78 176 180
80 180 183
78 177 180
76 171 174
79 180 183
80 178 180
80 180 183
82 184 188
83 181 185
84 175 180
82 177 180
84 178 181
85 178 179
92 183 186
92 182 186
88 177 183
83 171 174
91 188 189
87 180 184
87 181 183
90 187 189
84 175 178
86 179 179
81 173 175
82 179 179
81 175 175
83 177 179
84 177 180
85 180 180
85 179 182
80 175 174
82 174 175
85 181 182
84 178 178
79 171 172
84 174 177
85 180 180
76 161 162
81 174 172
82 176 176
82 170 170
79 171 169
87 180 178
83 170 168
84 175 173
78 163 154
83 168 166
82 170 161
77 157 150
79 160 151
87 167 158
86 165 155
80 160 151
87 168 160
90 168 161
91 168 159
83 161 150
79 162 143
90 172 161
76 145 123
71 143 119
58 123 97
62 127 98
69 143 109
61 121 82
66 134 92
66 138 103
64 134 103
71 144 106
69 140 110
68 144 116
66 140 112
72 153 135
80 168 156
77 169 165
84 178 183
78 175 175
125 188 195
148 198 219
116 187 206
80 183 187
80 182 187
80 182 187
80 182 187
80 182 187
80 182 187
80 183 187
80 182 187
80 183 187
80 182 187
80 183 187
80 182 187
80 182 187
80 183 187
80 182 187
80 183 187
80 183 187
80 182 187
77 167 163
69 87 15
73 82 0
81 86 0
82 90 0
77 88 0
78 86 0
90 93 0
94 93 0
85 91 0
90 94 0
99 99 0
95 95 0
90 97 0
88 96 0
93 98 0
82 95 0
93 96 0
93 98 0
93 99 0
91 97 0
92 96 0
98 100 0
92 99 0
88 95 0
88 95 0
85 95 0
94 98 0
94 98 0
90 97 0
90 96 0
91 99 0
97 99 0
97 97 0
94 99 0
91 97 0
83 94 0
93 99 0
93 99 0
94 98 0
100 100 0
93 98 0
102 100 0
91 97 0
93 99 0
98 100 0
92 97 0
93 95 0
96 98 0
96 94 0
95 93 0
88 94 0
95 96 0
94 97 0
87 95 0
96 97 0
88 93 0
89 96 0
93 94 0
98 93 0
89 94 0
92 93 0
93 93 0
92 93 0
96 90 0
90 92 0
87 89 0
97 84 0
93 85 0
90 80 0
94 87 0
86 74 0
73 67 0
79 64 0
71 61 0
69 50 0
63 54 15
78 169 170
80 183 187
79 182 187
80 183 187
80 182 187
80 183 187
80 182 187
80 183 187
80 182 187
80 182 187
80 182 187
80 182 187
80 182 187
80 182 187
80 183 187
81 183 187
80 183 187
80 182 187
80 180 185
62 68 62
64 57 42
61 54 38
61 50 31
56 40 22
51 37 18
55 38 22
43 30 14
43 29 14
41 29 13
49 32 17
49 32 17
50 37 20
50 32 15
56 41 23
60 44 27
59 46 28
66 50 31
66 48 28
66 55 38
72 57 39
68 54 37
71 54 39
74 58 39
73 59 43
75 58 42
73 66 52
74 64 49
74 62 48
77 71 58
74 68 55
76 66 51
77 69 55
76 71 58
77 68 55
75 67 54
77 71 58
76 72 60
77 70 57
74 74 63
77 71 59
76 71 59
74 69 56
75 72 60
77 75 62
78 70 57
77 72 60
77 75 63
79 71 58
75 74 62
74 70 58
78 75 63
77 72 60
76 73 61
75 74 62
77 73 61
76 76 64
77 72 60
76 75 63
77 76 64
77 74 62
76 76 64
77 75 63
76 74 62
76 73 62
76 74 62
76 74 62
77 74 62
76 74 62
75 75 64
77 75 63
77 72 60
77 75 62
77 75 63
76 72 60
76 76 64
76 75 63
76 76 64
77 69 57
76 78 66
76 76 65
77 77 65
75 75 64
75 77 66
76 76 64
75 76 64
75 76 64
77 75 63
77 72 60
77 74 62
77 75 63
75 77 65
76 77 65
77 75 63
76 77 65
74 75 63
72 73 61
65 63 54
65 57 50
75 162 165
80 183 187
80 182 187
80 182 187
80 182 187
80 182 187
80 182 187
80 183 187
80 183 187
79 182 187
80 183 187
80 182 187
80 183 187
80 182 187
80 182 187
80 183 187
80 183 187
80 182 187
80 182 187
80 183 187
80 183 187
79 182 187
80 183 187
80 182 187
80 182 187
81 183 187
80 183 187
80 183 187
80 183 187
79 182 187
80 182 187
80 182 187
80 182 187
80 182 187
80 183 187
80 183 187
80 183 187
80 183 187
80 182 187
80 183 187
80 183 187
80 183 187
80 183 187
80 183 187
80 183 187
80 182 187
80 183 187
80 182 187
80 182 187
80 183 187
80 183 187
80 183 187
80 183 187
80 182 187
80 183 187
79 182 187
80 183 187
80 182 187
80 182 187
80 182 187
79 182 187
80 182 187
80 182 187
80 182 187
80 182 187
80 183 187
80 182 187
79 182 187
80 182 187
80 183 187
80 182 187
80 182 187
80 182 187
80 182 187
80 183 187
80 182 187
80 183 187
80 183 187
81 183 187
80 182 187
80 183 187
80 182 187
80 182 187
80 182 187
81 183 187
80 183 187
80 182 187
80 182 187
62 142 146
29 67 69
22 51 52
24 46 49
161 195 227
151 205 230
84 184 189
81 183 188
81 181 187
78 178 183
81 180 185
82 180 185
80 183 187
80 181 185
75 170 174
77 174 176
80 182 185
80 181 183
78 176 180
78 177 180
77 176 179
79 181 184
77 174 176
77 175 177
81 182 182
80 181 183
76 171 174
77 175 177
85 181 184
86 178 183
82 180 180
84 177 178
86 179 182
85 172 176
87 179 177
96 181 187
92 185 188
87 178 177
91 178 183
87 176 181
86 176 179
92 183 188
86 177 178
89 181 183
85 172 174
88 181 182
86 180 179
83 174 175
86 176 179
85 178 181
78 165 165
82 172 170
81 174 171
83 177 175
86 176 177
87 173 179
83 169 170
87 182 180
81 172 168
83 171 170
82 172 165
88 182 176
76 159 154
81 159 152
83 172 166
81 165 159
77 158 151
79 160 153
78 150 139
74 151 133
88 167 158
85 147 137
95 165 159
81 150 130
79 157 140
82 154 145
75 151 135
78 154 131
63 132 105
66 133 106
68 139 102
63 134 100
65 132 97
60 123 89
64 130 91
66 136 108
67 141 106
71 152 130
73 152 127
74 153 120
71 145 123
83 171 159
82 172 165
83 178 179
79 175 175
96 179 182
154 198 217
127 191 210
82 181 187
80 182 187
80 182 187
80 183 187
80 182 187
80 183 187
80 182 187
80 183 187
80 182 187
80 183 187
80 182 187
80 182 187
80 182 187
80 183 187
80 182 187
80 182 187
80 182 187
80 182 187
80 182 187
80 182 187
76 152 135
72 85 0
74 86 0
76 84 0
76 85 0
86 90 0
79 87 0
86 93 0
90 97 0
97 98 0
95 96 0
95 95 0
98 98 0
87 94 0
85 94 0
94 95 0
87 96 0
89 97 0
86 96 0
88 95 0
95 99 0
86 97 0
87 95 0
94 98 0
92 97 0
93 96 0
83 97 0
90 97 0
95 100 0
93 98 0
88 98 0
88 97 0
92 100 0
97 99 0
97 98 0
97 100 0
99 100 0
95 99 0
89 95 0
87 93 0
90 96 0
88 95 0
91 97 0
87 95 0
97 100 0
86 96 0
99 97 0
89 96 0
87 94 0
93 96 0
94 95 0
90 94 0
94 98 0
92 95 0
89 94 0
92 94 0
88 90 0
93 94 0
87 88 0
89 93 0
95 93 0
85 89 0
90 86 0
86 87 0
93 88 0
87 85 0
82 79 0
92 85 0
82 77 0
84 78 0
79 70 0
69 60 0
69 57 0
72 55 0
66 46 0
70 123 110
80 182 187
80 183 187
80 182 187
80 183 187
81 183 187
80 183 187
79 182 187
80 182 187
80 182 187
80 182 187
80 182 187
80 182 187
80 182 187
80 182 187
80 183 187
80 182 187
80 182 187
80 183 187
80 182 187
75 162 165
53 51 40
65 56 42
62 48 30
56 39 20
50 37 19
47 32 15
47 33 19
43 26 11
46 28 14
45 30 16
49 30 15
52 37 22
52 38 22
60 43 25
60 41 22
61 42 26
64 49 33
66 54 38
65 52 35
70 58 41
69 56 41
72 62 46
71 57 40
71 61 45
74 58 42
72 56 40
73 63 50
75 66 53
75 62 46
76 63 47
73 67 53
73 62 47
76 63 49
76 68 55
77 69 56
76 69 55
76 66 52
77 69 56
79 69 56
75 71 58
75 71 58
78 72 59
76 66 54
74 72 60
77 74 60
75 73 61
76 72 60
77 75 63
76 75 62
76 69 56
77 72 60
75 68 56
75 72 60
76 76 64
78 71 59
76 72 61
75 76 64
77 72 60
75 75 63
77 75 63
77 71 59
76 76 64
76 73 61
76 73 61
76 74 62
75 73 61
77 72 60
76 75 63
77 74 61
79 73 61
76 74 62
76 74 62
77 74 61
77 74 62
75 74 62
78 75 62
76 73 61
77 72 60
77 76 65
77 75 63
77 72 60
77 72 60
77 74 62
77 73 61
77 70 57
75 70 58
76 74 62
77 74 62
77 73 61
78 74 61
76 73 61
77 74 62
77 74 62
76 76 64
65 63 53
64 64 54
64 58 50
60 97 94
80 182 187
80 182 187
80 182 187
80 182 187
80 183 187
80 182 187
80 183 187
80 182 187
80 182 187
80 182 187
80 183 187
80 182 187
80 182 187
80 183 187
80 182 187
80 183 187
80 183 187
80 183 187
80 183 187
80 183 187
80 182 187
80 182 187
80 182 187
80 182 187
80 182 187
80 183 187
80 182 187
79 182 187
80 183 187
80 183 187
80 182 187
80 182 187
80 182 187
80 182 187
80 182 187
80 182 187
80 183 187
80 182 187
80 182 187
80 182 187
80 182 187
80 182 187
80 182 187
80 182 187
80 183 187
80 182 187
80 182 187
80 183 187
80 183 187
80 183 187
80 182 187
80 182 187
79 182 187
80 183 187
80 182 187
80 182 187
80 183 187
80 183 187
80 183 187
80 182 187
80 182 187
80 183 187
80 182 187
80 182 187
79 182 187
80 182 187
80 182 187
80 183 187
80 183 187
80 182 187
81 183 187
81 183 187
80 182 187
80 183 187
80 182 187
80 183 187
80 182 187
80 182 187
80 182 187
80 182 187
80 183 187
80 182 187
80 183 187
80 182 187
80 182 187
80 182 187
80 182 187
80 182 187
79 181 185
45 102 105
24 54 56
20 45 46
52 75 84
171 209 242
132 199 219
80 180 186
79 182 187
87 184 191
81 179 185
84 180 187
79 179 184
77 176 180
80 182 185
76 174 178
78 179 183
79 180 183
82 184 187
79 179 181
76 171 172
80 180 181
80 179 182
76 173 175
81 183 185
79 177 180
80 178 179
80 179 182
80 181 182
81 182 183
84 178 181
82 175 175
85 182 179
80 179 179
84 173 171
85 176 176
89 176 178
88 180 179
96 180 187
91 183 183
84 167 169
77 160 158
85 173 171
87 178 178
88 181 179
85 175 172
86 180 177
75 161 156
82 173 167
86 175 174
82 168 163
87 180 176
81 163 159
81 164 160
84 175 170
80 162 157
81 171 160
83 170 165
83 176 170
81 168 161
89 181 178
85 178 170
76 158 146
83 164 154
80 162 151
81 167 156
85 165 159
86 164 154
90 168 160
88 167 163
90 176 168
80 158 144
78 160 153
85 157 141
77 153 131
85 156 138
77 147 116
71 143 113
73 150 119
70 145 120
66 136 109
72 141 107
74 154 129
64 131 99
61 130 93
64 134 101
67 140 107
73 148 124
75 158 138
72 147 118
76 160 140
80 169 160
82 180 185
80 176 176
89 179 182
145 192 206
141 193 213
86 171 181
80 183 187
80 182 187
80 182 187
79 182 187
80 182 187
80 182 187
80 182 187
80 182 187
79 182 187
80 183 187
81 183 187
80 183 187
80 182 187
79 182 187
80 183 187
81 183 187
80 183 187
80 183 187
80 182 187
80 183 187
80 182 187
74 121 80
65 74 0
75 86 0
75 84 0
77 83 0
86 91 0
86 92 0
86 89 0
87 97 0
81 89 0
88 96 0
89 93 0
87 96 0
91 98 0
86 95 0
86 93 0
86 94 0
83 92 0
89 97 0
84 95 0
83 93 0
91 97 0
92 94 0
85 96 0
101 101 0
94 100 0
93 98 0
86 95 0
92 97 0
92 96 0
99 98 0
95 100 0
90 98 0
93 98 0
84 94 0
89 95 0
93 95 0
91 97 0
92 97 0
81 93 0
86 97 0
87 95 0
90 95 0
85 93 0
92 96 0
92 97 0
93 97 0
89 95 0
91 95 0
86 88 0
93 96 0
87 92 0
87 93 0
91 96 0
88 94 0
90 93 0
93 94 0
85 90 0
81 85 0
87 88 0
88 94 0
88 86 0
90 88 0
93 91 0
85 83 0
81 74 0
82 77 0
80 77 0
77 67 0
82 73 0
72 60 0
70 57 0
59 47 0
67 111 91
80 182 187
80 183 187
80 182 187
80 183 187
80 183 187
80 182 187
80 183 187
80 182 187
80 182 187
80 182 187
80 183 187
80 182 187
80 182 187
80 182 187
80 183 187
80 183 187
80 183 187
80 183 187
80 182 187
80 182 187
79 182 187
65 125 125
58 55 44
59 53 37
59 45 28
54 37 20
53 35 17
47 30 14
47 31 16
45 29 14
47 29 13
47 28 12
52 33 18
51 34 16
56 42 25
55 39 20
60 44 28
61 47 27
67 50 31
64 48 33
70 55 38
66 49 31
68 53 37
69 53 37
68 54 39
73 58 42
72 60 42
73 59 44
73 63 48
77 61 47
76 62 48
73 64 50
75 64 52
75 68 54
77 68 54
76 70 57
76 66 53
78 67 54
76 68 55
76 66 53
77 68 55
78 67 53
76 73 61
78 71 58
76 69 56
76 70 58
78 70 58
78 71 58
77 71 58
75 71 59
77 74 62
76 73 60
76 73 61
78 71 58
77 72 59
76 71 59
76 71 59
76 71 59
74 67 55
77 73 61
76 76 64
74 73 61
76 74 62
76 73 61
74 72 60
75 74 62
74 70 57
74 73 61
77 72 60
76 75 63
75 75 63
76 71 59
77 75 63
76 74 62
75 74 62
78 75 62
76 71 59
75 74 62
77 72 60
76 71 59
77 73 62
75 71 59
75 71 58
77 73 61
77 72 61
76 75 63
77 73 61
75 71 59
77 73 61
76 72 60
77 72 60
75 76 63
76 73 60
76 73 61
72 71 60
60 59 50
60 56 48
57 80 75
80 183 187
80 182 187
80 182 187
80 183 187
80 183 187
80 182 187
80 182 187
80 183 187
80 183 187
80 182 187
80 183 187
80 183 187
80 182 187
80 183 187
80 182 187
80 183 187
80 182 187
80 182 187
80 182 187
80 182 187
80 182 187
80 183 187
81 183 187
80 182 187
80 182 187
80 183 187
80 182 187
80 182 187
80 182 187
80 183 187
80 182 187
80 183 187
80 183 187
80 182 187
80 182 187
80 182 187
80 182 187
80 182 187
80 182 187
80 183 187
80 182 187
80 183 187
80 183 187
80 182 187
80 182 187
80 183 187
79 182 187
79 182 187
80 182 187
80 182 187
80 183 187
80 182 187
80 182 187
80 182 187
80 182 187
80 182 187
80 182 187
80 183 187
80 182 187
80 182 187
80 183 187
80 182 187
80 183 187
80 182 187
80 182 187
80 183 187
80 183 187
80 182 187
79 182 187
80 182 187
80 182 187
80 182 187
80 183 187
80 182 187
80 182 187
80 182 187
80 182 187
80 183 187
80 182 187
80 182 187
80 182 187
79 182 187
80 183 187
80 183 187
80 183 187
80 182 187
80 182 187
80 183 187
80 182 187
81 183 187
78 179 183
47 108 110
22 51 52
24 54 56
71 99 112
175 212 245
114 192 206
85 184 191
83 183 189
82 183 189
80 181 186
81 178 184
80 181 185
79 181 185
75 169 172
78 176 180
75 172 175
77 175 180
78 176 178
79 177 180
76 173 175
81 182 183
80 179 179
79 178 180
77 175 174
81 182 183
81 181 180
77 171 171
81 178 177
79 177 177
79 178 176
86 178 179
85 172 175
88 178 179
84 172 172
81 171 169
82 177 173
90 183 180
93 177 176
92 182 181
82 170 164
94 183 179
93 183 182
88 180 176
87 182 174
81 173 165
87 183 174
88 180 174
85 177 168
92 179 176
82 176 164
86 174 170
90 185 182
89 179 174
90 183 173
88 177 164
86 182 168
89 173 170
89 176 170
92 186 175
88 180 169
91 176 166
93 177 171
87 171 160
87 170 154
82 170 157
86 168 155
78 158 140
81 157 137
92 178 169
82 172 161
76 155 137
78 158 131
79 158 133
69 144 119
73 154 134
72 153 127
70 137 102
67 142 118
60 125 100
74 154 120
74 153 132
66 132 85
71 150 122
72 143 112
71 147 117
66 140 112
74 158 140
74 153 133
73 160 144
80 172 165
79 177 176
83 177 179
129 186 195
142 190 201
94 169 178
80 182 187
80 182 187
80 182 187
80 183 187
80 182 187
80 182 187
80 182 187
80 182 187
80 182 187
79 182 187
80 182 187
80 182 187
81 183 187
80 183 187
80 182 187
80 182 187
80 183 187
80 182 187
80 182 187
80 182 187
80 182 187
80 182 187
81 182 185
69 95 31
75 85 0
69 75 0
75 77 0
79 85 0
77 87 0
79 81 0
79 89 0
83 91 0
84 91 0
86 94 0
89 95 0
95 95 0
84 94 0
82 92 0
85 93 0
88 96 0
80 94 0
90 98 0
89 94 0
88 96 0
85 96 0
93 97 0
86 95 0
90 99 0
81 92 0
89 96 0
85 93 0
87 94 0
81 91 0
84 96 0
89 96 0
90 94 0
86 95 0
89 96 0
83 94 0
84 95 0
90 96 0
91 96 0
89 97 0
89 97 0
87 97 0
82 93 0
88 96 0
83 94 0
93 96 0
87 92 0
85 93 0
84 88 0
87 92 0
86 91 0
90 93 0
97 94 0
85 91 0
91 91 0
81 92 0
90 92 0
90 87 0
84 90 0
82 83 0
82 82 0
82 82 0
82 80 0
86 82 0
83 82 0
74 68 0
82 77 0
71 66 0
73 63 0
58 46 0
59 47 0
64 78 52
80 180 183
80 182 187
80 183 187
80 183 187
80 182 187
80 182 187
80 182 187
80 183 187
80 182 187
80 182 187
80 183 187
81 183 187
80 183 187
81 183 187
80 183 187
80 182 187
80 182 187
80 183 187
80 183 187
80 182 187
80 183 187
80 182 187
80 183 187
60 96 91
56 50 36
61 48 35
59 42 25
58 42 23
48 31 15
46 26 13
45 28 14
48 34 19
45 32 16
50 30 15
50 35 20
61 37 22
54 42 28
56 38 23
63 49 33
65 46 29
67 50 34
68 52 35
66 48 30
71 53 35
68 54 39
69 57 43
71 58 42
74 61 45
74 59 44
72 60 45
73 57 41
73 60 46
72 62 48
74 67 53
76 62 47
74 63 50
75 65 52
76 65 51
76 67 54
75 67 54
76 71 59
75 72 59
75 67 54
74 67 54
75 69 56
76 65 52
76 70 57
77 69 56
76 68 55
77 69 56
75 72 60
75 69 56
76 69 56
72 70 58
76 73 61
75 71 59
76 72 60
76 73 61
75 69 56
75 73 60
76 72 60
75 73 60
77 70 57
75 74 61
76 71 58
76 72 60
76 71 58
76 73 60
75 73 61
75 75 63
76 74 62
77 70 58
77 73 61
74 72 60
77 71 59
76 69 57
76 73 61
76 74 62
77 71 59
77 71 59
77 70 57
77 71 59
77 71 59
76 74 62
78 73 60
76 75 63
77 73 62
77 69 57
76 72 60
76 72 59
76 74 62
76 70 58
77 72 60
76 75 63
72 71 60
62 62 52
61 58 49
53 54 48
79 176 180
80 182 187
80 183 187
81 183 187
80 182 187
80 182 187
79 182 187
80 183 187
80 183 187
80 183 187
80 183 187
80 182 187
80 182 187
80 182 187
80 183 187
80 183 187
80 183 187
80 182 187
80 183 187
80 182 187
80 182 187
80 182 187
80 183 187
80 182 187
80 182 187
80 182 187
80 182 187
80 182 187
80 182 187
80 182 187
80 182 187
80 182 187
80 182 187
80 182 187
80 183 187
80 183 187
80 182 187
80 182 187
80 182 187
80 182 187
80 183 187
80 182 187
80 183 187
80 182 187
81 183 187
80 182 187
80 182 187
80 182 187
80 182 187
80 183 187
80 183 187
80 182 187
80 183 187
80 182 187
81 183 187
80 183 187
80 182 187
80 182 187
80 183 187
81 183 187
80 182 187
80 182 187
80 182 187
80 183 187
80 183 187
80 183 187
80 183 187
80 183 187
80 182 187
80 182 187
80 183 187
80 182 187
80 182 187
80 183 187
80 183 187
80 182 187
80 182 187
80 182 187
80 182 187
80 182 187
80 182 187
80 182 187
80 182 187
80 182 187
80 182 187
80 182 187
80 183 187
80 182 187
80 182 187
80 182 187
80 183 187
80 182 187
78 177 182
40 92 95
19 43 45
10 23 24
99 129 148
173 211 245
112 193 206
79 181 185
81 183 188
80 177 181
80 178 183
79 176 181
81 182 186
78 175 178
76 172 176
80 179 181
79 180 183
80 180 182
78 175 177
79 175 174
80 179 179
81 181 182
80 180 181
80 178 177
79 177 178
81 180 178
78 174 173
80 178 179
80 176 176
78 173 174
83 184 182
87 186 185
82 179 178
80 168 168
80 169 168
90 183 179
81 172 169
85 172 170
91 182 180
96 185 183
89 175 170
95 188 180
88 182 177
94 184 180
93 190 185
92 187 175
85 183 171
94 188 180
95 189 183
89 184 173
93 191 177
89 191 177
89 184 173
88 184 173
91 181 165
89 190 175
94 189 179
91 185 178
90 185 170
90 185 171
94 181 170
103 194 186
83 169 151
89 176 163
91 175 157
85 182 170
82 168 148
88 167 150
85 171 160
78 152 131
78 158 140
77 158 131
70 146 127
75 155 130
70 149 128
71 144 113
66 131 98
69 139 105
67 140 117
67 140 109
71 149 124
67 136 108
70 150 127
69 144 119
72 151 120
71 148 120
75 162 150
77 163 148
78 162 145
77 173 172
81 179 182
119 187 197
149 197 220
100 174 184
79 180 185
80 183 187
80 182 187
80 182 187
80 182 187
80 183 187
80 183 187
80 182 187
81 183 187
80 183 187
80 182 187
80 183 187
81 183 187
80 182 187
80 183 187
81 183 187
80 182 187
79 182 187
80 183 187
80 182 187
80 182 187
80 183 187
80 183 187
80 183 187
78 170 167
78 97 20
76 86 0
78 86 0
74 83 0
80 87 0
85 89 0
82 91 0
80 89 0
81 93 0
82 90 0
83 91 0
83 89 0
82 93 0
87 94 0
95 97 0
86 94 0
86 95 0
87 95 0
82 92 0
90 96 0
85 95 0
81 92 0
90 94 0
87 95 0
82 96 0
80 90 0
83 93 0
84 97 0
86 94 0
84 95 0
92 96 0
80 93 0
91 98 0
84 95 0
81 92 0
86 95 0
90 95 0
86 95 0
85 94 0
84 93 0
87 96 0
82 93 0
87 89 0
90 93 0
82 94 0
82 93 0
89 94 0
81 92 0
85 88 0
86 94 0
86 90 0
80 86 0
88 89 0
81 87 0
85 87 0
81 89 0
93 92 0
88 90 0
86 86 0
84 83 0
78 80 0
83 83 0
78 71 0
84 75 0
79 64 0
74 65 0
72 62 0
71 62 0
67 52 0
62 72 43
78 170 172
79 182 187
80 183 187
80 183 187
80 182 187
80 182 187
80 182 187
80 183 187
80 183 187
80 183 187
80 182 187
80 182 187
80 182 187
80 183 187
80 182 187
80 183 187
79 182 187
80 183 187
80 182 187
80 183 187
80 182 187
80 182 187
80 183 187
80 182 187
79 179 184
57 72 66
55 43 28
55 45 28
54 38 21
57 41 25
49 36 19
48 29 14
53 33 18
51 33 18
48 34 21
55 35 19
50 29 15
54 35 22
55 43 26
64 45 28
62 40 23
63 47 33
64 51 33
68 53 38
69 52 35
66 52 37
66 51 34
72 56 41
71 56 40
69 60 46
72 53 38
74 59 44
75 60 45
75 64 50
73 59 44
75 62 48
72 61 47
74 62 50
75 65 52
74 64 50
71 66 52
75 69 56
78 64 51
76 66 53
73 64 51
76 67 55
77 69 56
77 65 52
75 67 54
76 70 57
75 67 55
75 70 58
77 70 57
74 70 58
76 70 58
76 69 56
75 71 59
79 69 56
77 65 53
75 69 56
74 68 56
77 74 61
77 72 60
75 71 59
75 72 60
75 68 55
78 71 59
75 72 60
77 70 57
76 67 54
77 67 55
77 73 61
77 74 62
77 72 60
76 72 59
76 73 61
75 70 58
78 70 58
75 71 59
76 70 58
76 71 59
74 70 57
77 68 56
78 69 56
76 68 56
78 69 56
78 73 60
74 71 59
76 71 59
76 74 61
76 72 59
76 71 58
77 72 60
77 70 57
74 66 54
70 68 57
63 59 50
52 57 50
75 161 165
80 182 187
80 182 187
80 182 187
80 183 187
80 182 187
79 182 187
80 182 187
80 182 187
80 182 187
80 183 187
80 183 187
80 183 187
80 183 187
80 183 187
80 182 187
80 182 187
80 183 187
80 183 187
80 182 187
79 182 187
80 183 187
80 182 187
80 182 187
80 182 187
80 182 187
80 182 187
80 183 187
80 182 187
80 182 187
81 183 187
80 182 187
80 182 187
80 182 187
80 183 187
80 182 187
80 182 187
80 182 187
80 182 187
80 182 187
80 183 187
80 182 187
80 182 187
80 183 187
80 183 187
80 182 187
80 183 187
80 183 187
80 182 187
80 182 187
80 182 187
80 182 187
80 182 187
80 182 187
80 182 187
80 182 187
80 183 187
79 182 187
80 182 187
80 182 187
80 182 187
80 182 187
80 182 187
80 183 187
80 183 187
80 183 187
80 183 187
80 183 187
80 182 187
80 183 187
80 182 187
80 183 187
80 182 187
80 183 187
80 182 187
80 182 187
80 182 187
80 182 187
81 183 187
80 182 187
80 182 187
80 182 187
80 182 187
80 183 187
80 183 187
80 182 187
80 182 187
80 183 187
80 183 187
80 183 187
80 183 187
80 182 187
80 183 187
80 183 187
71 162 167
38 88 90
19 43 45
18 40 41
121 152 176
166 209 240
101 189 199
82 183 189
80 181 186
80 178 183
81 181 187
84 183 187
84 184 189
80 178 180
81 182 185
79 179 181
72 165 167
79 177 177
79 175 175
80 178 179
81 179 178
77 173 173
80 177 178
81 179 179
78 175 175
78 174 173
82 181 179
77 172 169
80 179 176
78 172 171
81 180 179
76 172 170
82 179 178
80 169 167
81 172 168
77 164 162
80 174 169
91 185 179
92 186 181
82 178 169
84 177 172
91 188 178
92 188 181
93 186 173
98 197 185
91 188 180
95 192 183
90 189 172
91 187 178
88 187 175
98 192 183
96 184 175
88 182 165
90 185 168
97 189 178
90 189 174
91 181 171
94 187 178
95 185 172
85 179 162
82 178 159
80 178 164
92 189 170
87 173 154
78 163 143
84 168 154
77 161 142
74 152 131
70 142 117
76 154 122
71 145 120
73 144 116
74 153 130
72 145 120
74 154 127
67 139 112
62 127 95
69 140 109
63 128 99
66 141 116
70 143 112
76 156 126
72 148 115
74 148 117
74 158 138
76 159 140
79 169 162
82 174 171
80 176 173
120 187 197
150 189 205
110 176 186
80 181 185
80 182 187
80 182 187
80 183 187
80 182 187
80 182 187
80 182 187
80 183 187
80 183 187
80 182 187
80 182 187
80 182 187
80 183 187
80 183 187
80 183 187
80 182 187
80 182 187
80 182 187
80 182 187
80 182 187
80 182 187
80 182 187
80 182 187
80 182 187
80 183 187
80 183 187
79 167 157
68 83 18
67 78 0
70 80 0
83 90 0
76 87 0
76 85 0
81 91 0
78 86 0
89 91 0
84 90 0
86 91 0
76 90 0
83 90 0
79 89 0
85 95 0
82 90 0
83 90 0
81 95 0
80 87 0
78 89 0
81 93 0
83 95 0
85 95 0
85 96 0
87 96 0
84 94 0
78 95 0
82 95 0
82 95 0
83 92 0
85 93 0
85 94 0
95 97 0
84 95 0
86 94 0
81 93 0
85 93 0
84 94 0
80 90 0
84 91 0
82 94 0
87 96 0
86 93 0
83 91 0
77 86 0
80 89 0
83 89 0
88 90 0
86 87 0
81 86 0
83 90 0
79 86 0
82 86 0
86 88 0
79 84 0
86 85 0
83 84 0
78 78 0
90 80 0
81 79 0
79 81 0
75 69 0
77 70 0
74 67 0
76 67 0
63 57 0
60 48 0
55 50 18
76 165 165
80 182 187
80 182 187
80 182 187
80 183 187
80 182 187
80 182 187
81 183 187
80 183 187
80 183 187
80 182 187
79 182 187
80 182 187
81 183 187
80 182 187
80 182 187
79 181 185
80 183 187
80 183 187
80 182 187
80 183 187
80 183 187
80 182 187
80 182 187
80 182 187
80 183 187
75 159 161
58 64 55
58 49 34
57 41 25
55 36 19
50 34 18
49 29 16
53 32 18
46 29 15
53 33 19
52 35 21
60 41 25
57 39 22
55 34 20
57 36 20
63 45 28
58 42 27
61 46 29
60 42 27
69 51 34
70 49 34
68 52 36
71 52 35
68 49 33
74 55 38
70 54 40
73 59 44
71 58 41
74 56 41
74 57 42
76 65 52
76 60 46
71 59 45
73 58 45
75 61 47
73 62 48
73 60 45
75 64 51
76 67 54
76 67 54
77 65 52
77 66 53
74 68 55
78 66 53
76 69 57
75 68 55
72 64 51
73 68 55
75 68 56
75 68 55
76 70 57
78 70 58
74 71 58
74 70 57
77 67 55
76 67 54
76 68 56
77 66 53
75 67 55
76 68 55
75 64 52
76 69 57
74 66 53
79 68 56
77 69 56
75 69 57
76 68 56
76 70 58
77 70 58
75 69 57
74 68 56
76 70 58
75 69 56
78 70 57
76 70 58
75 69 57
75 68 56
78 69 57
74 69 56
74 67 55
75 70 57
74 69 57
75 70 58
76 71 58
76 68 55
77 70 57
76 73 61
77 72 59
74 72 60
68 65 54
57 56 47
47 44 37
68 135 135
80 182 187
80 182 187
80 183 187
80 182 187
80 183 187
80 182 187
80 182 187
80 183 187
80 182 187
80 183 187
80 183 187
80 182 187
80 183 187
80 182 187
80 182 187
80 182 187
80 182 187
80 182 187
80 182 187
80 182 187
80 182 187
80 182 187
80 182 187
80 182 187
80 182 187
80 183 187
81 183 187
80 182 187
81 183 187
80 182 187
80 183 187
80 182 187
80 182 187
80 182 187
80 182 187
80 182 187
80 182 187
80 183 187
80 182 187
80 182 187
80 182 187
80 183 187
80 182 187
80 183 187
80 183 187
80 183 187
80 182 187
80 183 187
80 183 187
80 182 187
80 182 187
80 183 187
80 183 187
80 182 187
80 182 187
80 183 187
80 182 187
80 183 187
80 182 187
80 182 187
80 182 187
80 183 187
80 182 187
80 183 187
80 182 187
80 182 187
80 182 187
80 183 187
80 183 187
80 182 187
80 182 187
80 183 187
80 182 187
80 182 187
80 182 187
81 183 187
79 182 187
80 182 187
80 182 187
80 183 187
80 183 187
80 183 187
80 182 187
80 183 187
80 183 187
80 182 187
80 182 187
80 182 187
80 183 187
80 183 187
80 182 187
80 182 187
80 182 187
80 182 187
80 183 187
71 162 167
37 85 88
22 49 50
28 61 63
123 157 182
165 208 238
100 188 199
82 183 189
80 181 185
80 176 181
79 178 182
79 178 182
82 183 186
79 179 181
76 173 175
81 182 183
81 183 184
78 174 176
83 181 182
81 180 181
80 180 180
79 175 175
81 180 179
82 180 180
76 170 169
83 184 182
80 177 175
76 170 170
82 181 179
79 174 171
77 173 170
81 179 177
79 178 173
76 167 164
89 187 181
84 178 174
87 180 174
88 183 177
89 183 177
88 183 179
86 184 175
92 193 183
88 189 172
86 189 177
84 188 172
83 180 160
81 183 166
86 189 167
90 184 174
89 187 181
88 189 174
87 182 165
82 179 159
81 178 167
84 182 170
77 179 154
76 174 155
84 179 165
84 179 167
78 167 145
76 159 138
84 171 147
81 175 149
73 152 138
82 167 147
81 168 149
76 160 137
76 157 135
76 158 133
74 158 133
69 143 114
75 151 125
77 157 135
66 135 109
67 141 116
63 134 109
72 148 122
65 132 100
70 145 117
74 156 130
73 152 130
72 148 123
79 167 146
77 153 134
79 168 158
76 165 158
73 166 163
115 184 191
149 192 215
111 175 184
75 169 172
80 183 187
79 180 185
80 183 187
79 180 185
80 182 187
80 183 187
79 180 185
80 182 187
80 182 187
80 182 187
80 183 187
80 183 187
80 182 187
79 181 185
80 183 187
80 182 187
79 181 185
80 182 185
79 181 185
80 182 187
79 182 187
81 183 187
80 182 187
80 180 182
79 181 185
80 181 183
80 181 183
76 165 161
66 84 16
77 89 0
71 81 0
76 85 0
73 85 0
73 82 0
76 85 0
69 80 0
84 91 0
77 88 0
85 92 0
80 88 0
81 90 0
79 88 0
76 89 0
76 91 0
78 89 0
82 95 0
81 92 0
82 94 0
83 93 0
76 86 0
83 94 0
79 92 0
79 89 0
76 88 0
81 92 0
80 94 0
83 94 0
83 90 0
80 88 0
82 94 0
79 90 0
84 94 0
76 88 0
80 89 0
80 90 0
85 91 0
82 93 0
78 89 0
87 90 0
80 88 0
87 93 0
81 89 0
81 88 0
83 89 0
81 89 0
79 84 0
80 83 0
90 91 0
73 79 0
81 85 0
84 86 0
79 78 0
77 82 0
77 83 0
77 77 0
82 78 0
79 73 0
67 67 0
74 69 0
73 68 0
67 60 0
66 58 0
59 51 0
59 61 24
76 163 161
80 181 185
80 182 187
80 181 184
80 182 187
81 181 184
80 182 187
79 179 184
80 182 187
80 182 187
80 182 187
80 181 185
80 182 187
79 180 185
80 181 186
79 179 184
80 181 186
80 182 187
80 181 186
80 181 186
80 181 186
80 182 187
80 183 187
80 182 187
80 181 186
80 181 186
79 181 185
80 183 187
77 165 167
57 60 50
56 44 28
62 44 29
60 39 23
47 29 16
45 25 10
47 30 16
48 32 17
52 34 19
50 32 18
53 37 24
57 40 24
56 37 21
58 38 21
60 44 29
58 46 29
64 52 36
63 38 22
68 50 35
66 49 33
67 50 32
69 54 41
66 51 36
67 55 40
73 51 36
70 56 41
72 54 39
73 59 44
73 58 44
70 54 40
74 58 43
75 59 44
75 64 51
73 64 51
76 62 49
73 61 47
74 66 53
72 59 45
76 68 55
74 64 51
74 63 50
72 59 46
76 65 52
76 67 54
75 65 53
76 64 51
74 68 56
75 67 54
74 64 51
77 66 54
78 65 52
77 67 55
77 71 59
74 67 54
77 67 54
75 67 55
72 65 52
76 67 54
78 70 57
76 67 54
76 65 53
77 71 59
76 64 51
75 68 56
75 68 55
74 70 57
77 69 56
75 67 55
75 65 52
76 66 54
74 67 54
75 69 56
77 67 55
76 61 48
76 65 53
77 65 52
77 69 56
76 66 53
77 67 54
75 68 56
77 68 56
75 69 56
73 66 54
77 68 56
75 70 57
75 71 58
68 62 51
63 60 50
56 49 41
69 124 125
80 183 187
80 182 187
80 183 187
80 182 187
80 182 187
80 182 187
80 183 187
80 182 187
80 183 187
80 183 187
80 182 187
80 182 187
80 182 187
80 182 187
80 183 187
80 183 187
80 182 187
80 183 187
80 183 187
80 182 187
80 182 187
80 183 187
80 182 187
80 183 187
80 183 187
81 183 187
80 182 187
80 182 187
80 182 187
80 183 187
80 182 187
80 183 187
80 182 187
80 182 187
80 182 187
80 183 187
80 182 187
80 182 187
80 182 187
80 182 187
80 182 187
80 183 187
80 182 187
79 182 187
80 183 187
80 183 187
80 183 187
81 183 187
80 182 187
81 183 187
80 183 187
80 182 187
80 182 187
80 182 187
80 182 187
80 182 187
80 182 187
80 182 187
80 182 187
80 182 187
80 182 187
80 182 187
80 182 187
80 182 187
80 182 187
80 182 187
80 183 187
80 183 187
80 183 187
80 183 187
80 182 187
80 182 187
80 183 187
80 183 187
80 183 187
80 182 187
80 183 187
81 183 187
81 183 187
80 182 187
80 182 187
80 182 187
80 183 187
80 183 187
80 182 187
80 182 187
80 183 187
80 182 187
80 182 187
80 182 187
80 182 187
80 183 187
79 182 187
80 183 187
80 183 187
80 182 187
80 182 187
64 146 150
31 71 73
24 54 56
18 40 41
105 132 153
158 205 234
96 187 197
81 183 188
81 179 185
82 183 188
82 182 187
81 177 182
82 178 181
82 183 186
80 180 182
82 182 183
79 176 178
82 184 185
78 176 177
78 172 172
80 181 177
84 185 182
81 179 174
78 173 171
80 175 174
84 183 181
83 181 176
79 173 170
78 171 168
86 187 182
78 171 167
83 181 176
79 172 167
83 180 174
78 171 167
82 180 173
77 166 159
89 185 178
84 177 166
87 180 169
85 178 164
87 183 170
90 191 180
87 180 170
91 187 180
86 182 170
85 186 173
87 187 177
89 188 175
88 187 172
89 187 178
82 177 156
90 181 169
85 178 159
91 185 174
81 173 157
78 173 155
79 168 153
78 161 145
78 166 149
74 159 139
74 156 141
73 161 147
76 159 138
77 159 133
75 156 127
73 159 139
69 143 120
71 149 123
67 144 129
68 141 108
77 161 131
72 150 122
78 157 128
69 142 115
65 131 105
74 149 117
74 149 118
76 146 113
80 162 138
77 160 141
82 164 145
79 168 157
78 168 159
80 176 178
112 182 192
149 186 201
97 159 165
82 178 184
80 182 187
79 180 185
80 182 187
80 182 187
79 181 185
80 183 187
80 183 187
79 182 187
80 182 187
80 183 187
79 180 183
79 181 185
78 180 185
80 182 185
80 181 185
80 181 185
80 182 185
80 182 185
80 181 183
81 182 185
79 182 187
80 182 187
78 176 178
79 180 183
80 179 182
80 181 183
80 182 185
80 178 176
80 179 180
76 156 142
72 102 37
74 86 0
68 77 0
76 87 0
68 80 0
74 85 0
82 90 0
75 88 0
74 87 0
71 85 0
71 83 0
78 89 0
81 91 0
84 89 0
81 91 0
79 89 0
79 88 0
76 87 0
77 91 0
79 86 0
82 93 0
78 91 0
75 87 0
82 90 0
80 90 0
80 93 0
84 91 0
86 91 0
76 86 0
77 88 0
81 90 0
80 90 0
76 88 0
82 87 0
78 87 0
76 89 0
87 92 0
79 89 0
77 88 0
81 88 0
78 88 0
81 89 0
76 89 0
84 89 0
81 84 0
79 89 0
81 89 0
82 86 0
80 85 0
74 79 0
80 83 0
77 78 0
78 80 0
76 70 0
74 78 0
79 77 0
75 68 0
75 71 0
67 68 0
73 66 0
73 66 0
69 58 0
66 52 0
55 64 31
79 167 163
80 179 178
79 177 174
80 181 185
80 182 185
80 182 185
80 179 180
80 180 182
80 182 185
80 181 186
80 180 182
80 179 183
81 182 185
80 182 187
79 180 183
80 181 186
80 180 185
80 180 185
80 180 185
79 179 182
80 182 186
80 181 186
80 181 186
79 182 187
79 179 183
79 180 185
80 178 182
80 180 185
80 181 186
80 180 185
72 149 151
49 46 37
48 39 25
50 34 21
52 36 22
57 33 19
47 26 12
46 27 13
50 29 16
47 26 13
51 30 15
61 44 28
54 38 23
55 38 24
56 36 21
63 42 27
63 43 27
57 42 27
63 47 31
63 47 32
67 50 36
65 52 38
68 50 35
71 54 39
70 55 39
71 57 43
74 57 42
70 53 39
72 57 43
66 55 41
71 59 44
70 57 44
73 60 47
73 62 48
73 59 45
72 62 49
73 57 42
77 65 51
77 65 52
74 62 49
75 60 47
72 62 48
75 65 52
76 61 48
76 61 48
75 66 53
75 61 48
74 66 53
78 66 53
74 66 53
75 63 50
73 66 54
73 66 53
74 65 53
73 62 49
77 65 52
75 66 53
74 66 53
74 61 48
76 66 53
77 65 52
75 64 51
76 69 56
77 67 54
73 64 51
74 65 52
74 68 55
74 67 54
75 68 55
76 65 52
76 65 52
76 68 55
74 68 56
78 65 52
73 63 50
77 69 56
75 65 52
77 66 53
75 69 56
76 67 54
77 66 53
76 65 52
75 67 54
76 67 54
77 70 58
70 67 55
61 60 50
56 56 48
61 115 114
80 182 187
79 182 187
80 182 187
80 182 187
80 182 187
80 183 187
80 182 187
80 182 187
80 182 187
80 183 187
80 182 187
80 182 187
80 182 187
80 182 187
80 183 187
80 183 187
80 182 187
80 182 187
80 182 187
80 182 187
80 182 187
80 182 187
80 182 187
80 182 187
80 182 187
80 182 187
80 182 187
80 182 187
80 182 187
80 183 187
80 182 187
80 182 187
80 183 187
80 182 187
80 183 187
80 183 187
80 183 187
80 182 187
80 183 187
80 183 187
80 183 187
80 182 187
80 182 187
81 183 187
80 182 187
80 182 187
80 183 187
80 182 187
80 182 187
80 183 187
80 182 187
80 183 187
80 182 187
80 182 187
80 182 187
80 183 187
81 183 187
80 182 187
80 183 187
80 182 187
80 183 187
80 183 187
80 183 187
80 182 187
80 183 187
80 182 187
80 183 187
79 182 187
80 183 187
80 182 187
80 182 187
81 183 187
80 183 187
79 182 187
80 183 187
80 182 187
80 183 187
80 182 187
80 182 187
80 182 187
80 182 187
80 183 187
80 182 187
80 182 187
80 183 187
80 183 187
80 182 187
80 183 187
80 182 187
80 182 187
80 183 187
80 182 187
80 182 187
80 182 187
80 183 187
80 182 187
80 182 187
80 183 187
80 183 187
63 144 148
42 96 99
24 55 56
12 29 30
98 136 153
175 212 245
108 190 202
86 183 190
80 181 186
83 180 186
81 179 183
79 174 177
82 179 183
83 184 186
77 172 174
79 178 178
80 176 176
83 184 183
81 179 176
77 170 168
77 171 169
83 181 177
76 168 166
84 184 181
80 175 171
80 177 174
79 180 175
76 170 166
80 178 172
81 179 173
80 175 171
82 179 175
83 182 175
75 168 159
82 181 173
80 173 162
74 162 154
79 169 162
84 180 171
79 173 163
79 166 156
85 177 175
82 166 158
83 177 166
80 179 167
88 184 167
81 172 160
86 178 170
82 177 165
82 178 164
82 172 155
85 181 165
75 165 148
75 162 148
81 173 163
72 154 140
77 165 149
66 143 125
73 155 136
66 142 121
75 155 135
70 148 128
78 165 140
74 150 124
73 152 128
73 151 124
71 149 129
68 145 127
68 146 123
71 149 121
71 152 122
65 138 116
68 140 116
70 145 122
59 123 89
70 145 114
75 151 124
74 147 119
69 145 121
73 152 128
76 159 137
79 169 167
80 175 177
119 181 187
149 190 205
111 173 187
75 170 172
78 178 182
79 180 185
77 175 180
79 180 185
80 181 185
78 179 183
77 177 182
80 182 187
79 179 183
80 181 185
79 180 183
79 178 180
80 182 185
80 182 187
80 182 187
81 179 178
79 179 182
80 179 182
78 178 182
80 179 180
80 178 176
78 178 180
79 180 183
80 181 183
80 180 183
80 178 176
78 178 178
79 176 174
79 175 172
79 177 174
77 173 168
78 167 157
71 96 28
65 76 0
69 79 0
66 75 0
72 82 0
75 86 0
73 84 0
73 86 0
68 80 0
74 84 0
79 86 0
73 85 0
74 87 0
71 86 0
75 88 0
74 85 0
82 89 0
72 84 0
73 87 0
80 90 0
77 88 0
78 89 0
73 86 0
77 88 0
83 90 0
78 89 0
78 88 0
79 92 0
79 90 0
77 89 0
82 92 0
79 86 0
82 90 0
79 88 0
82 89 0
76 84 0
83 91 0
75 87 0
75 85 0
77 81 0
80 91 0
83 90 0
76 84 0
73 83 0
77 84 0
75 80 0
76 82 0
81 83 0
73 83 0
76 80 0
75 81 0
73 78 0
73 76 0
77 72 0
74 72 0
71 71 0
70 67 0
71 69 0
67 56 0
59 50 0
54 42 0
60 78 38
76 164 159
80 178 176
81 180 180
79 174 169
81 178 174
79 178 180
81 180 180
78 175 176
81 176 175
80 178 179
80 177 177
80 178 180
80 176 174
79 174 174
80 177 178
80 176 177
80 177 179
79 174 174
79 177 179
80 181 186
80 178 180
79 178 182
80 176 178
80 182 185
80 178 182
80 179 182
79 176 181
80 178 182
80 179 184
80 181 186
80 179 184
80 177 181
74 146 146
50 47 37
59 41 27
52 35 21
52 29 14
50 32 17
50 27 13
47 28 17
47 29 17
47 28 16
49 28 14
53 35 19
56 35 20
55 36 21
60 40 25
60 41 25
60 45 29
62 41 26
68 46 31
65 45 29
64 48 34
65 51 36
67 47 32
66 48 33
69 47 30
69 49 34
70 56 42
72 55 40
74 55 40
70 54 40
70 54 40
70 60 45
75 55 40
74 56 41
72 59 45
71 57 42
72 59 45
75 58 44
76 60 46
75 55 41
74 60 47
75 57 44
72 61 47
73 64 51
74 63 49
74 62 49
74 64 50
76 62 49
75 65 52
74 60 47
76 64 52
77 60 47
77 62 49
76 65 52
73 63 49
76 64 51
73 62 49
77 64 51
74 68 55
75 62 49
77 62 48
76 67 55
76 63 50
77 61 47
76 62 49
79 66 53
76 65 52
77 65 53
74 63 49
76 61 48
75 62 49
77 62 49
74 63 50
72 62 49
73 67 54
73 65 52
76 68 56
76 68 55
76 66 53
75 65 52
73 65 52
76 69 56
69 66 54
67 59 47
59 58 48
51 49 41
68 122 122
80 182 187
80 183 187
80 183 187
80 182 187
80 182 187
80 182 187
80 182 187
80 182 187
80 182 187
80 183 187
80 182 187
80 183 187
80 182 187
80 183 187
80 183 187
80 182 187
80 183 187
80 182 187
80 182 187
79 182 187
80 182 187
80 182 187
80 182 187
80 182 187
80 183 187
80 182 187
80 182 187
80 182 187
80 182 187
80 182 187
80 182 187
80 182 187
80 182 187
81 183 187
80 183 187
80 182 187
79 182 187
80 183 187
80 183 187
79 182 187
80 182 187
80 183 187
80 183 187
80 182 187
80 182 187
80 183 187
80 182 187
80 183 187
80 183 187
80 183 187
80 182 187
80 182 187
80 182 187
80 182 187
80 182 187
80 183 187
80 182 187
80 182 187
80 182 187
80 183 187
81 183 187
79 182 187
80 183 187
79 182 187
80 182 187
80 182 187
80 182 187
80 183 187
81 183 187
80 182 187
79 182 187
80 182 187
80 182 187
80 183 187
80 182 187
80 183 187
80 182 187
80 182 187
80 182 187
80 182 187
80 183 187
80 182 187
80 183 187
80 182 187
80 182 187
80 183 187
79 182 187
80 182 187
80 182 187
80 182 187
81 183 187
80 182 187
80 182 187
80 182 187
80 183 187
80 183 187
80 182 187
80 182 187
80 182 187
80 182 187
80 182 187
71 161 165
40 93 95
28 64 65
18 42 43
97 125 145
178 211 247
132 199 219
82 182 187
82 182 187
81 180 185
84 185 189
80 176 179
78 173 174
81 183 185
82 184 185
78 176 176
78 174 173
79 176 175
79 178 176
79 174 171
82 179 175
73 164 158
76 169 163
79 173 169
74 165 160
84 183 179
83 182 174
82 179 175
72 159 153
83 181 174
81 180 172
83 180 172
75 162 156
76 164 156
78 171 165
80 171 167
73 161 155
84 182 174
77 171 161
72 157 149
74 164 156
73 159 151
85 181 171
79 171 163
78 168 160
78 167 155
77 166 150
79 167 155
76 160 144
77 167 151
82 175 161
75 160 145
80 171 161
72 154 140
73 156 139
71 150 128
78 166 148
74 155 131
76 164 148
67 140 120
70 147 120
70 149 132
77 159 132
73 161 140
77 164 136
72 150 128
74 157 134
72 142 113
75 152 124
74 150 122
74 151 122
73 151 127
77 157 132
69 146 128
74 157 135
68 142 120
71 151 139
75 154 134
78 167 158
81 173 169
83 175 175
130 189 203
144 192 210
98 159 159
75 170 174
78 177 182
79 181 185
77 176 180
80 183 187
80 182 187
81 181 183
78 178 180
80 180 183
80 181 183
79 179 182
80 182 185
78 176 180
80 181 185
79 178 180
78 178 182
78 173 172
80 180 182
79 176 176
80 180 182
80 175 170
80 174 167
80 176 172
79 176 174
76 171 168
80 175 170
78 174 172
80 176 170
79 175 170
79 170 161
80 174 167
76 169 165
79 173 165
81 172 163
76 165 155
69 105 50
65 76 0
67 77 0
70 80 0
58 67 0
70 81 0
69 81 0
67 79 0
73 83 0
71 77 0
73 88 0
70 83 0
67 79 0
71 83 0
79 87 0
74 88 0
73 87 0
68 79 0
75 85 0
76 87 0
70 84 0
80 88 0
78 89 0
70 85 0
73 84 0
75 86 0
69 81 0
74 86 0
76 83 0
80 86 0
74 86 0
74 86 0
75 85 0
75 88 0
77 86 0
72 81 0
79 88 0
74 86 0
74 82 0
75 78 0
73 83 0
72 81 0
76 83 0
76 81 0
74 82 0
71 79 0
73 82 0
73 80 0
72 72 0
77 79 0
76 78 0
69 71 0
71 68 0
73 72 0
66 65 0
65 58 0
64 56 0
56 54 0
51 42 0
60 79 56
78 164 160
80 172 163
80 170 161
80 171 161
81 173 163
81 172 166
79 175 174
78 169 164
80 173 168
80 169 161
79 172 163
81 170 170
80 175 176
78 171 169
79 175 174
79 171 171
81 173 167
80 176 176
79 173 173
78 172 166
79 176 179
79 176 178
80 178 180
81 175 174
79 171 171
81 177 179
80 176 177
79 177 180
80 171 171
80 175 176
80 179 182
80 175 178
80 170 172
80 175 178
72 149 148
54 58 51
47 33 19
53 33 19
47 28 15
48 27 13
50 27 14
46 26 13
49 29 15
50 28 14
57 32 18
51 33 18
57 36 20
59 41 26
61 40 25
62 40 26
60 39 22
59 45 30
64 43 28
65 41 25
69 51 36
62 43 27
66 46 30
68 50 35
73 53 37
64 46 30
71 52 38
71 53 39
68 50 35
71 58 44
71 57 43
72 58 44
73 56 41
70 54 39
75 57 42
70 56 42
73 57 41
74 57 44
69 60 46
70 60 46
72 55 42
73 61 47
73 55 41
76 59 45
73 59 45
73 55 41
73 57 43
73 56 42
77 59 46
75 62 49
74 63 50
75 60 47
75 62 49
76 63 50
76 62 48
73 60 47
72 61 48
77 63 50
76 60 47
74 61 47
78 62 49
75 64 51
73 62 48
74 61 48
75 61 48
74 64 50
74 61 48
72 64 51
77 64 50
72 61 48
74 61 47
70 59 46
75 60 47
77 58 45
74 64 50
74 63 50
74 64 51
75 62 49
73 67 55
72 63 50
70 63 52
65 59 48
59 50 40
52 53 45
67 133 134
80 183 187
80 182 187
80 182 187
80 183 187
80 182 187
80 182 187
80 183 187
80 183 187
80 182 187
80 182 187
80 182 187
80 182 187
80 182 187
80 182 187
80 182 187
80 182 187
80 182 187
81 183 187
80 182 187
80 183 187
80 182 187
80 182 187
80 183 187
79 182 187
80 183 187
80 182 187
80 182 187
80 183 187
80 183 187
80 183 187
80 182 187
80 183 187
80 182 187
80 182 187
80 182 187
80 182 187
80 182 187
80 183 187
80 182 187
80 183 187
80 182 187
80 182 187
80 183 187
80 182 187
79 182 187
80 182 187
80 183 187
80 182 187
80 183 187
80 182 187
80 182 187
80 183 187
80 182 187
80 183 187
80 182 187
80 182 187
80 182 187
80 183 187
80 182 187
80 182 187
80 183 187
80 182 187
80 182 187
80 182 187
81 183 187
80 182 187
80 183 187
80 182 187
80 183 187
80 182 187
80 183 187
80 182 187
80 182 187
80 183 187
80 183 187
80 182 187
80 182 187
80 182 187
80 183 187
80 182 187
80 182 187
80 182 187
80 182 187
80 182 187
80 182 187
80 182 187
80 183 187
80 182 187
80 182 187
80 182 187
80 182 187
80 183 187
80 182 187
80 183 187
80 182 187
80 182 187
80 183 187
80 183 187
81 183 187
80 182 187
79 182 187
80 182 187
80 182 187
73 166 170
36 82 84
23 53 54
16 36 37
59 83 94
159 199 230
139 201 223
80 179 185
82 180 185
78 177 182
85 183 188
82 178 182
84 179 182
79 171 171
82 182 183
82 182 181
81 179 176
81 180 178
76 170 166
79 172 167
77 169 165
77 170 166
81 180 175
77 171 166
78 168 161
77 169 166
82 177 172
76 169 161
81 176 171
83 178 174
83 175 165
72 159 150
78 168 162
83 180 173
78 171 158
77 166 158
82 177 167
77 169 162
79 170 159
84 179 168
78 169 158
78 167 153
86 180 166
82 180 169
74 157 148
76 166 152
78 166 150
76 165 155
74 163 149
72 155 141
77 165 146
68 148 132
72 157 141
70 152 137
75 165 153
78 165 149
70 153 132
77 161 147
69 146 121
71 149 124
75 163 137
73 158 141
67 146 123
70 151 124
68 154 131
74 157 140
75 156 129
66 135 112
74 156 133
73 154 121
69 141 115
69 149 121
73 153 129
73 153 137
76 154 133
76 160 145
78 162 155
79 168 162
82 171 172
147 193 211
142 187 202
88 160 170
73 166 170
80 181 183
80 181 185
79 178 180
80 179 182
80 178 178
78 178 183
81 176 174
79 179 181
79 177 178
78 175 172
80 181 183
80 178 177
80 178 178
80 178 176
78 177 180
80 176 172
79 175 172
79 175 172
80 173 165
79 177 178
79 176 174
77 170 165
81 174 168
80 174 165
79 173 167
78 171 165
79 170 161
79 175 170
78 172 163
78 166 153
79 172 161
78 172 163
79 173 165
77 165 146
76 163 146
78 165 148
66 119 82
62 69 0
62 71 0
65 74 0
64 73 0
67 78 0
66 76 0
63 75 0
68 78 0
72 83 0
71 82 0
71 80 0
69 79 0
70 81 0
70 81 0
69 80 0
73 87 0
76 88 0
76 85 0
74 87 0
73 84 0
69 83 0
71 83 0
72 84 0
73 85 0
69 84 0
70 81 0
72 82 0
71 83 0
76 86 0
73 85 0
73 83 0
73 80 0
73 82 0
71 81 0
71 81 0
74 83 0
73 81 0
77 80 0
75 81 0
72 82 0
72 79 0
71 77 0
70 76 0
72 74 0
71 73 0
71 79 0
71 73 0
70 75 0
73 74 0
70 72 0
65 62 0
71 69 0
62 62 0
61 56 0
63 51 0
57 51 2
66 104 71
77 158 137
78 164 149
75 162 143
78 167 155
79 165 151
77 163 149
75 162 149
77 166 153
79 164 152
79 164 149
79 165 153
79 169 163
79 169 162
79 165 155
78 164 156
79 168 157
79 162 153
81 166 162
80 165 156
82 167 160
79 166 164
80 168 163
80 164 159
81 164 161
81 169 166
80 165 161
80 168 166
79 169 167
80 168 167
80 171 170
80 170 170
79 171 172
79 174 178
80 162 160
81 171 172
80 170 172
79 168 168
46 58 51
42 27 16
45 23 11
48 27 12
52 28 13
51 30 16
44 26 12
50 27 14
47 26 14
47 27 14
50 32 18
56 29 14
55 35 21
53 35 21
54 36 23
64 42 27
61 42 27
59 38 24
60 42 28
67 47 31
67 48 33
73 50 36
67 53 38
62 46 33
68 50 36
68 53 39
69 49 34
69 51 36
71 51 35
69 52 37
71 52 37
68 51 37
71 52 37
74 57 43
74 51 36
71 54 39
76 57 42
75 58 44
70 58 44
71 56 42
71 58 44
76 56 42
71 57 44
74 56 43
74 58 44
73 58 45
75 65 52
73 61 47
72 60 47
76 60 47
70 58 44
75 62 48
74 59 45
72 55 41
77 58 45
75 58 45
73 61 48
73 58 45
72 56 43
72 62 49
76 62 48
73 60 46
71 59 46
72 59 45
73 57 43
75 61 48
75 59 45
75 58 45
71 60 46
73 62 48
72 59 45
75 57 44
73 60 46
71 62 49
73 60 47
71 60 47
73 59 46
68 60 47
66 59 47
58 51 41
52 56 48
69 135 135
80 182 187
80 182 187
80 182 187
80 183 187
80 183 187
80 182 187
81 183 187
80 183 187
80 183 187
80 182 187
80 182 187
80 182 187
80 183 187
80 183 187
80 182 187
80 183 187
80 182 187
80 182 187
80 182 187
80 183 187
80 183 187
80 182 187
80 182 187
80 183 187
80 183 187
80 182 187
80 182 187
80 183 187
80 183 187
80 182 187
80 182 187
80 182 187
80 182 187
79 182 187
80 182 187
80 183 187
79 182 187
80 183 187
80 182 187
80 182 187
80 182 187
80 182 187
80 182 187
80 182 187
80 182 187
80 182 187
80 183 187
80 183 187
81 183 187
80 183 187
80 182 187
80 183 187
80 182 187
80 182 187
80 183 187
80 183 187
80 183 187
80 183 187
80 183 187
80 183 187
80 183 187
80 183 187
80 183 187
80 182 187
80 183 187
80 183 187
80 182 187
80 183 187
80 183 187
81 183 187
80 182 187
80 182 187
80 182 187
80 182 187
80 183 187
79 182 187
80 183 187
80 182 187
80 182 187
80 182 187
80 182 187
80 182 187
80 182 187
80 182 187
80 182 187
80 182 187
79 182 187
80 182 187
80 182 187
80 183 187
80 182 187
80 183 187
80 183 187
81 183 187
80 182 187
80 183 187
80 182 187
80 182 187
80 182 187
80 182 187
80 182 187
80 182 187
80 183 187
80 182 187
80 183 187
76 173 178
42 97 99
34 76 76
21 48 48
45 73 79
147 177 207
163 208 238
92 186 194
80 180 184
84 182 188
80 179 182
85 184 187
82 180 180
83 177 178
83 180 179
80 177 174
79 177 174
80 176 173
77 170 167
82 179 174
76 168 163
75 167 162
83 183 174
80 177 170
79 176 168
81 176 168
82 179 171
83 177 169
80 176 169
79 173 165
81 177 169
79 168 160
77 165 157
82 177 167
75 166 155
72 164 148
82 177 168
79 165 153
71 155 140
81 171 158
78 169 157
83 180 167
78 169 154
79 174 163
78 165 152
76 161 146
79 170 151
73 157 134
74 160 150
76 162 150
73 154 132
72 160 140
74 159 140
75 163 143
72 158 145
75 159 140
74 160 139
78 163 135
71 153 133
77 167 144
79 170 149
73 163 141
75 155 129
74 155 130
71 153 130
72 156 131
71 154 132
73 155 138
74 158 141
71 150 118
70 147 132
73 148 125
70 150 123
79 163 146
75 157 140
82 174 175
99 179 185
152 199 222
123 167 183
78 153 152
79 180 183
78 176 177
77 173 174
81 180 182
77 175 177
80 174 170
79 172 167
79 176 176
80 179 180
79 177 176
79 176 174
77 172 172
78 174 172
75 170 166
79 175 172
78 171 165
79 175 170
79 173 168
80 172 163
80 174 170
76 169 163
81 171 159
77 172 167
79 167 151
78 162 146
77 169 157
76 162 144
76 167 157
78 165 148
75 165 150
75 169 159
78 169 157
73 154 131
74 159 138
78 164 144
74 155 129
76 160 135
75 164 146
73 161 146
69 131 91
60 75 18
60 69 0
60 70 0
58 64 0
63 70 0
59 68 0
66 75 0
64 72 0
63 75 0
70 83 0
69 80 0
66 77 0
66 77 0
70 80 0
68 82 0
67 78 0
68 78 0
72 81 0
72 86 0
68 81 0
64 73 0
73 80 0
72 83 0
73 84 0
70 81 0
70 83 0
71 80 0
72 81 0
69 79 0
70 81 0
66 74 0
72 83 0
72 77 0
73 83 0
69 77 0
72 83 0
70 78 0
68 74 0
71 79 0
70 74 0
69 76 0
72 77 0
68 69 0
64 66 0
68 70 0
66 70 0
71 71 0
63 64 0
65 63 0
60 54 0
62 60 0
54 47 0
55 46 0
53 50 11
68 125 91
75 158 130
73 157 139
75 153 126
74 151 126
77 161 144
74 146 115
76 156 134
77 149 124
76 154 136
77 160 143
76 145 118
80 157 142
76 161 147
78 159 144
77 149 132
79 162 153
78 168 162
79 166 156
80 160 150
80 170 168
78 169 166
79 155 143
80 164 157
80 155 145
79 167 162
81 164 159
80 166 162
81 169 170
79 164 162
80 168 165
80 167 166
80 166 163
80 165 162
81 161 155
81 163 161
80 161 156
82 167 165
79 164 164
77 165 167
57 84 77
43 28 17
38 21 10
43 23 12
47 23 10
46 25 13
47 26 13
44 24 13
44 25 12
47 25 13
51 29 16
52 33 20
54 35 22
55 35 21
52 35 22
57 34 19
62 44 30
61 42 28
58 44 29
61 43 29
67 43 28
59 43 29
68 46 32
67 48 34
63 47 33
62 47 33
66 51 36
70 49 34
69 50 35
72 49 34
69 50 36
72 52 37
71 53 38
73 51 37
69 52 39
72 56 42
74 51 37
75 59 46
79 54 40
69 53 39
69 52 39
66 51 37
77 57 43
73 52 38
70 59 46
71 57 43
72 55 42
70 55 41
72 59 45
74 60 47
73 57 43
74 56 41
73 58 44
73 54 40
76 54 41
72 53 40
74 59 45
70 54 40
73 58 45
73 58 45
75 59 46
72 60 47
74 60 46
71 57 44
78 59 45
77 59 45
73 55 42
70 60 47
75 62 49
72 58 44
73 59 46
72 60 47
72 58 45
75 66 53
71 59 46
70 60 48
60 52 42
66 60 49
53 63 57
70 152 155
80 182 187
80 182 187
80 182 187
80 182 187
80 182 187
80 183 187
80 182 187
80 182 187
80 182 187
80 182 187
79 182 187
80 183 187
80 183 187
80 182 187
80 183 187
80 183 187
80 182 187
80 183 187
80 182 187
79 182 187
80 182 187
80 183 187
80 182 187
80 183 187
80 182 187
80 182 187
80 182 187
80 182 187
80 182 187
80 183 187
80 183 187
80 183 187
80 182 187
80 183 187
80 182 187
80 183 187
80 182 187
80 183 187
79 182 187
80 183 187
80 183 187
80 182 187
80 182 187
80 183 187
80 182 187
80 182 187
80 182 187
80 183 187
80 183 187
80 183 187
79 182 187
80 182 187
80 182 187
80 182 187
80 182 187
80 183 187
80 182 187
80 182 187
80 182 187
80 182 187
80 183 187
80 182 187
80 182 187
80 182 187
80 183 187
80 182 187
80 182 187
80 183 187
80 183 187
80 183 187
80 183 187
80 182 187
80 182 187
80 183 187
80 182 187
80 183 187
80 182 187
80 182 187
80 182 187
80 182 187
80 182 187
80 182 187
80 182 187
81 183 187
80 183 187
80 182 187
80 183 187
79 182 187
80 182 187
81 183 187
80 182 187
80 182 187
80 182 187
80 183 187
80 183 187
80 182 187
80 182 187
80 182 187
80 183 187
80 183 187
80 182 187
80 182 187
80 182 187
80 182 187
80 182 187
80 182 187
80 183 187
78 178 183
53 121 123
28 64 65
25 58 58
20 43 43
119 149 174
163 207 237
115 194 208
81 181 186
78 177 182
82 179 184
81 181 183
80 178 179
81 176 176
80 174 169
80 180 177
77 172 169
78 173 168
76 167 163
76 170 163
74 164 158
77 169 166
82 176 169
82 179 174
81 181 171
77 170 161
80 179 171
76 166 156
80 172 162
80 173 162
80 173 164
80 170 159
74 163 153
83 178 165
79 174 160
80 173 164
80 173 161
75 165 152
79 170 158
77 169 159
76 168 157
80 174 158
76 166 154
78 165 151
84 183 170
75 168 149
77 168 147
81 172 156
77 167 149
74 158 145
78 167 148
74 159 135
76 167 156
77 170 146
70 154 128
77 168 148
77 168 146
74 161 139
77 164 142
75 166 140
74 162 135
73 161 144
72 151 119
67 146 125
68 152 132
73 155 128
70 149 128
78 162 146
76 158 130
77 155 131
78 159 133
75 160 148
83 169 159
85 175 176
117 184 194
143 187 202
102 150 152
70 145 136
79 177 176
78 175 174
78 173 170
81 178 176
79 174 170
79 177 175
79 178 176
76 169 164
80 175 170
77 173 168
77 168 163
79 171 160
79 174 166
77 169 165
78 170 161
78 172 165
78 169 155
79 170 161
75 163 151
79 166 150
78 167 153
77 165 150
77 164 146
75 169 164
76 166 157
76 165 148
77 163 142
73 161 151
76 157 133
73 157 138
71 151 127
74 161 138
73 149 114
75 152 120
73 157 131
68 143 110
73 151 118
73 153 129
68 148 114
69 146 112
63 131 90
67 141 105
60 99 48
55 63 0
58 67 0
62 69 0
64 75 0
63 73 0
65 78 0
68 78 0
64 73 0
64 72 0
65 75 0
63 73 0
67 78 0
63 75 0
67 78 0
65 75 0
67 79 0
65 75 0
69 80 0
65 77 0
64 77 0
69 76 0
67 74 0
66 77 0
71 79 0
65 75 0
70 81 0
70 77 0
65 75 0
63 71 0
68 77 0
64 73 0
68 81 0
66 71 0
65 75 0
64 67 0
66 72 0
66 74 0
65 67 0
62 66 0
66 70 0
63 65 0
68 68 0
65 64 0
65 59 0
59 59 0
58 53 0
60 52 0
56 50 0
54 45 0
49 36 0
59 79 38
67 133 93
75 145 116
71 136 98
74 141 110
74 147 118
74 149 118
73 148 125
73 135 98
74 152 122
76 140 111
78 146 120
75 142 118
75 150 122
78 153 140
76 153 134
75 147 122
74 148 129
79 152 139
77 149 137
78 146 129
77 148 135
80 154 143
80 150 137
79 146 126
78 158 147
79 152 142
80 157 146
80 152 140
78 149 136
78 155 141
80 163 158
81 155 148
80 155 150
81 152 144
82 149 141
80 159 154
81 160 156
81 158 153
82 163 158
80 161 153
80 164 164
80 155 152
63 102 96
35 25 15
37 21 12
40 21 9
46 23 10
39 18 7
46 24 12
42 23 11
47 24 12
45 26 14
48 28 15
48 27 15
54 33 18
54 35 21
57 36 22
54 37 22
64 38 22
54 34 19
64 43 29
62 39 24
65 45 31
57 39 25
64 43 29
69 48 33
65 46 31
65 45 31
69 50 35
71 50 35
69 49 34
71 51 37
71 50 36
72 50 35
69 48 34
66 52 38
71 49 34
74 53 39
71 51 37
71 54 40
73 53 39
72 49 35
70 47 32
70 55 41
71 56 42
71 55 41
73 56 43
75 53 39
70 50 36
72 55 41
70 57 43
69 54 39
69 55 41
73 58 44
71 52 39
70 57 44
69 54 40
74 59 45
73 54 39
72 54 40
71 56 42
68 53 39
72 58 44
73 57 44
70 54 40
71 57 43
73 56 42
73 59 45
70 56 43
70 56 42
70 55 41
68 51 38
74 58 44
69 57 43
67 53 40
65 56 44
58 49 38
54 48 38
56 87 83
80 179 183
80 183 187
80 183 187
80 182 187
80 183 187
80 182 187
80 182 187
80 182 187
80 182 187
80 183 187
80 182 187
80 182 187
80 183 187
80 182 187
80 182 187
80 182 187
80 182 187
80 182 187
80 183 187
80 183 187
80 182 187
80 182 187
80 183 187
80 182 187
80 182 187
80 182 187
80 182 187
80 182 187
80 183 187
80 182 187
80 182 187
80 182 187
80 183 187
80 182 187
80 183 187
80 182 187
80 182 187
80 182 187
80 183 187
80 182 187
79 182 187
80 182 187
80 183 187
79 182 187
80 182 187
80 183 187
80 182 187
79 182 187
80 182 187
80 182 187
80 183 187
80 182 187
80 182 187
80 182 187
81 183 187
80 182 187
80 183 187
80 182 187
80 182 187
80 183 187
80 183 187
79 182 187
80 182 187
80 182 187
80 182 187
80 182 187
80 182 187
80 182 187
80 182 187
80 182 187
80 182 187
80 182 187
80 182 187
80 182 187
80 182 187
80 183 187
80 183 187
80 183 187
80 182 187
80 182 187
80 182 187
80 183 187
80 182 187
80 182 187
80 183 187
79 182 187
80 183 187
80 182 187
80 183 187
80 182 187
80 182 187
80 183 187
80 183 187
80 183 187
80 182 187
80 182 187
80 183 187
80 182 187
80 182 187
80 183 187
80 183 187
80 183 187
80 182 187
80 182 187
80 183 187
80 183 187
80 182 187
80 182 187
80 182 187
80 183 187
80 182 187
65 148 151
44 100 101
26 60 61
19 43 42
56 80 90
154 187 219
139 198 221
92 186 195
81 183 187
82 181 185
81 177 179
78 172 174
83 178 176
81 178 174
76 166 165
82 177 174
79 173 168
74 165 160
78 168 164
80 176 169
83 178 172
75 166 159
80 176 166
82 180 170
82 178 169
80 174 160
80 177 164
81 175 161
82 179 172
80 172 160
86 183 169
78 172 159
73 160 150
83 176 158
87 189 175
79 175 163
82 178 162
82 177 161
83 180 166
81 175 160
82 180 162
80 173 152
85 182 170
81 175 157
81 171 152
79 171 154
80 172 155
78 166 146
79 172 151
84 174 154
79 170 153
85 180 163
76 170 147
76 171 152
75 167 139
74 168 143
79 177 156
82 180 162
72 160 135
80 168 137
70 153 127
76 167 152
74 161 135
63 138 115
76 156 132
72 147 122
71 153 133
75 153 140
75 163 149
76 170 168
98 180 185
145 193 213
134 178 197
101 154 155
76 164 155
77 172 170
77 166 157
78 169 165
81 176 170
78 172 168
79 170 159
76 164 153
79 176 172
73 163 155
78 171 163
74 161 148
76 162 149
76 166 155
77 163 146
76 165 153
77 171 164
77 168 159
76 163 143
76 163 148
77 164 151
78 162 136
75 160 146
79 168 153
77 160 138
71 155 136
71 156 142
68 147 123
73 155 131
70 151 127
74 156 133
71 150 118
69 144 112
70 154 133
66 142 116
71 150 116
70 145 108
70 148 114
68 142 112
67 141 97
68 145 110
61 122 73
62 127 80
66 137 95
62 126 73
60 114 69
50 68 18
52 58 0
57 62 0
56 64 0
57 67 0
60 72 0
63 74 0
63 74 0
57 66 0
65 77 0
62 73 0
64 72 0
64 73 0
68 79 0
62 74 0
67 77 0
61 71 0
64 74 0
63 74 0
66 78 0
64 75 0
64 77 0
62 69 0
62 73 0
66 74 0
70 79 0
62 71 0
69 76 0
61 71 0
63 66 0
62 66 0
59 67 0
63 69 0
61 65 0
62 67 0
64 66 0
66 68 0
64 66 0
63 66 0
62 67 0
63 68 0
59 62 0
57 55 0
60 53 0
53 50 0
54 46 0
50 46 0
49 49 7
59 104 63
61 119 76
68 127 80
64 125 78
65 118 67
66 128 94
65 123 84
67 128 88
67 126 84
67 126 94
72 142 114
71 136 104
74 139 113
73 146 123
72 134 102
73 133 102
74 138 110
77 132 97
75 142 116
77 141 125
77 143 122
76 138 114
74 130 112
77 133 107
81 152 131
78 140 122
80 143 129
76 145 130
81 142 124
78 147 132
79 145 131
75 147 134
79 135 119
79 144 132
79 150 143
77 150 139
79 141 129
79 147 139
80 143 133
82 142 130
82 144 129
81 144 136
76 137 125
79 142 128
82 144 134
67 110 102
43 34 24
38 22 12
44 24 13
41 17 6
39 17 6
43 22 10
45 26 13
43 24 11
49 25 13
51 30 16
39 25 14
53 37 22
53 33 19
55 34 20
60 35 19
57 36 20
59 39 24
58 39 25
60 37 23
61 39 25
61 41 27
60 42 27
62 44 29
65 44 28
61 42 28
61 42 28
63 44 29
68 46 30
68 45 31
69 50 36
66 45 31
66 50 36
66 48 33
66 44 29
64 48 33
70 48 33
72 52 37
65 46 32
70 51 36
73 53 39
72 53 39
74 55 41
68 51 37
73 54 40
73 52 38
73 50 35
72 46 32
67 53 39
71 51 37
71 52 37
73 55 41
72 55 41
72 54 40
70 56 42
71 53 39
70 50 37
68 51 37
68 54 40
72 49 35
71 56 42
74 56 42
73 56 42
68 52 39
70 53 40
73 58 44
69 54 40
70 53 39
68 57 43
67 54 41
67 55 42
64 49 37
63 53 41
55 52 43
64 120 119
80 183 187
80 183 187
80 182 187
80 182 187
80 183 187
80 182 187
80 183 187
80 182 187
80 182 187
80 182 187
80 182 187
80 182 187
80 183 187
80 182 187
80 183 187
80 183 187
80 182 187
80 182 187
80 182 187
80 183 187
80 183 187
80 182 187
80 183 187
80 183 187
80 182 187
80 183 187
80 182 187
80 182 187
79 182 187
80 182 187
80 182 187
80 182 187
80 183 187
80 183 187
80 183 187
80 183 187
80 183 187
80 182 187
80 183 187
80 182 187
80 182 187
80 182 187
80 183 187
79 182 187
80 183 187
80 182 187
80 182 187
80 182 187
80 183 187
80 182 187
80 183 187
80 182 187
80 183 187
80 182 187
80 183 187
80 182 187
80 183 187
80 183 187
80 182 187
80 182 187
81 183 187
80 182 187
80 182 187
80 182 187
80 182 187
80 183 187
80 182 187
80 182 187
80 182 187
80 182 187
80 183 187
80 183 187
80 182 187
80 183 187
80 182 187
80 182 187
80 183 187
80 182 187
80 182 187
80 182 187
80 182 187
79 182 187
80 183 187
80 182 187
80 183 187
80 182 187
80 182 187
80 182 187
80 182 187
80 183 187
80 182 187
80 182 187
80 182 187
80 182 187
80 183 187
80 183 187
80 182 187
80 183 187
80 182 187
80 182 187
80 183 187
80 183 187
79 180 185
79 181 185
79 180 185
78 179 183
79 180 185
79 180 185
79 180 185
80 183 187
79 181 185
78 179 183
79 180 185
74 170 174
48 108 110
30 68 69
27 61 61
27 53 55
102 133 154
165 206 238
121 196 212
85 183 189
82 182 187
83 179 182
81 179 180
87 185 185
81 176 174
81 177 173
83 179 173
82 172 167
83 181 173
78 172 165
79 175 166
80 174 163
83 174 166
84 181 172
82 172 162
81 179 170
81 175 162
78 171 163
78 172 160
85 178 165
81 176 165
79 177 164
77 175 161
78 176 161
82 179 166
77 177 165
86 185 166
82 182 168
81 178 162
87 186 170
79 173 154
82 183 166
85 185 169
80 171 156
81 175 161
81 175 163
84 184 162
76 165 142
80 177 152
82 180 163
74 166 147
81 178 160
78 175 151
79 170 147
76 171 145
80 177 152
79 170 147
79 172 147
81 178 156
79 173 147
77 165 141
77 162 139
74 155 129
83 171 153
80 164 146
69 147 128
82 166 153
79 168 165
82 171 170
124 187 199
151 193 208
110 155 157
69 139 127
79 171 165
80 172 161
78 165 147
80 176 172
80 170 156
76 160 148
78 170 156
76 162 150
74 160 147
78 169 155
78 169 159
77 169 159
74 159 140
77 166 150
72 152 132
76 166 151
73 158 142
77 158 140
77 163 151
75 154 129
75 161 140
77 162 140
73 154 127
71 152 138
74 157 133
72 153 128
72 153 129
69 149 120
74 160 142
71 143 106
74 154 125
66 142 112
68 144 114
68 142 103
72 156 130
67 137 101
67 142 103
67 142 101
67 138 101
65 135 93
60 129 84
58 120 78
57 120 73
60 120 73
56 116 61
58 122 71
54 116 58
49 103 56
49 89 41
48 55 1
49 56 0
49 57 0
55 60 0
52 60 0
56 66 0
54 61 0
58 66 0
56 61 0
60 69 0
57 65 0
60 68 0
59 68 0
63 71 0
61 71 0
58 65 0
64 73 0
60 69 0
61 67 0
63 70 0
62 70 0
61 67 0
62 70 0
61 71 0
64 70 0
60 67 0
62 69 0
64 71 0
63 70 0
60 65 0
59 67 0
61 65 0
56 61 0
58 62 0
56 56 0
58 59 0
54 53 0
54 53 0
58 56 0
48 45 0
52 51 0
47 43 0
50 45 0
45 42 1
47 75 34
56 101 48
51 87 35
57 102 55
63 124 86
62 116 75
58 105 61
64 116 67
66 113 64
63 116 70
63 112 76
65 118 78
65 111 68
70 128 92
65 113 83
68 126 99
72 126 93
69 125 93
73 126 87
69 123 92
75 123 96
73 133 110
70 119 89
75 124 97
75 127 102
74 131 113
73 129 106
73 132 113
75 129 107
72 132 115
74 129 104
77 142 126
78 130 118
75 134 117
73 138 120
79 135 114
78 128 116
73 129 110
75 132 119
80 127 112
77 127 110
75 128 113
76 134 121
78 138 121
78 136 123
80 145 134
79 133 117
81 134 123
82 132 116
45 55 45
34 15 5
35 19 10
40 19 9
41 19 8
42 21 8
42 22 11
47 25 12
49 28 14
46 26 13
48 27 16
48 28 14
49 31 17
47 29 17
58 36 22
57 37 23
56 35 20
52 33 20
55 32 18
57 36 22
61 42 27
60 39 24
57 36 22
63 47 32
63 41 27
63 39 25
67 46 31
68 45 30
64 43 29
67 46 32
62 40 26
66 43 28
65 45 31
67 45 31
67 47 32
70 45 30
64 46 31
65 43 29
67 47 33
67 45 31
71 49 35
68 49 34
71 49 35
70 50 36
67 47 32
71 46 32
69 51 36
67 51 36
72 54 40
71 50 35
70 50 36
66 51 37
70 50 36
69 52 38
72 52 39
70 50 35
66 46 32
69 51 37
72 54 40
72 52 38
67 47 34
65 53 39
70 54 40
70 54 41
66 55 41
69 53 39
68 49 36
66 57 44
60 47 36
53 44 34
54 68 63
75 161 164
80 181 185
80 182 186
80 181 186
80 182 186
80 182 187
80 182 187
80 181 186
80 181 186
80 181 186
80 183 187
80 182 187
80 182 187
80 182 187
80 183 187
81 183 187
80 182 187
80 182 187
80 182 187
80 182 187
80 183 187
80 182 187
80 182 187
80 182 187
80 183 187
80 182 187
80 183 187
80 182 187
80 182 187
81 183 187
80 182 187
80 182 187
80 182 187
80 182 187
80 183 187
80 182 187
80 182 187
80 183 187
80 182 187
80 182 187
80 182 187
80 183 187
80 182 187
80 183 187
80 183 187
81 183 187
80 182 187
80 183 187
80 183 187
80 183 187
80 182 187
80 182 187
80 182 187
80 183 187
80 183 187
80 183 187
80 182 187
80 183 187
80 183 187
80 182 187
80 183 187
80 183 187
80 182 187
80 182 187
80 182 187
80 183 187
81 183 187
80 182 187
80 182 187
80 183 187
80 182 187
80 183 187
80 182 187
80 182 187
80 182 187
80 182 187
80 182 187
80 182 187
80 183 187
80 182 187
80 183 187
80 183 187
80 182 187
80 182 187
80 183 187
80 183 187
80 182 187
80 182 187
80 183 187
80 182 187
80 182 187
80 183 187
80 183 187
80 182 187
80 182 187
80 183 187
80 183 187
80 182 187
79 181 185
80 182 187
79 182 187
80 182 187
80 182 187
79 181 185
79 180 185
80 182 187
80 182 187
77 175 180
80 183 187
78 179 183
78 179 183
77 177 182
78 178 183
78 178 183
78 180 185
77 175 180
78 177 182
63 143 146
40 89 89
31 71 70
25 56 56
42 69 73
130 166 192
151 202 229
110 190 204
80 179 185
77 173 176
78 177 178
82 178 178
75 167 164
87 185 183
77 165 160
84 182 175
85 176 170
74 160 153
81 175 166
81 176 170
82 181 169
80 176 165
81 178 166
83 185 172
80 174 159
84 182 170
85 189 176
83 172 149
79 177 163
84 184 165
85 182 168
82 181 164
85 182 165
85 183 168
83 183 166
85 186 169
82 181 164
82 179 161
83 186 169
83 185 167
86 188 172
88 189 172
83 185 167
83 180 161
77 176 158
84 182 159
80 182 158
76 168 143
80 178 154
76 172 147
79 177 154
82 177 155
78 173 151
79 174 147
79 177 151
82 178 158
81 175 153
81 166 140
82 173 152
77 165 147
76 159 140
77 166 156
77 169 159
82 172 164
130 190 206
146 192 211
134 181 200
68 123 109
71 152 138
76 170 161
78 169 160
76 163 152
81 175 167
81 171 158
74 157 140
80 171 156
75 157 138
79 172 161
75 157 133
79 166 149
77 166 152
74 159 144
75 154 136
80 163 142
76 160 140
72 148 125
75 159 138
65 142 125
71 154 134
74 153 132
74 153 125
70 142 113
68 147 121
71 152 129
72 152 129
71 151 125
69 149 123
71 147 117
65 134 97
67 145 112
63 133 91
68 140 101
62 133 99
64 131 84
66 136 95
63 123 76
61 125 73
56 116 73
62 132 88
54 116 69
55 115 56
54 113 60
52 104 52
51 107 65
54 109 54
53 111 58
52 105 46
50 101 48
46 93 45
46 94 52
38 62 15
43 51 3
45 50 0
52 57 0
49 56 0
50 58 0
51 60 0
52 58 0
55 57 0
57 64 0
55 62 0
53 59 0
57 66 0
51 57 0
55 64 0
58 64 0
56 65 0
60 69 0
54 58 0
56 65 0
55 59 0
59 63 0
52 57 0
56 63 0
57 64 0
58 62 0
54 60 0
62 66 0
57 60 0
54 57 0
53 56 0
52 52 0
57 54 0
56 55 0
50 51 0
53 52 0
46 44 0
50 47 0
47 41 0
40 36 0
41 37 0
40 53 10
48 88 33
43 74 26
46 83 29
54 99 49
53 92 50
49 89 40
53 95 47
55 93 50
56 93 41
60 108 62
60 98 57
60 99 53
60 107 61
63 113 76
64 105 66
65 115 84
62 109 76
64 110 80
63 104 66
70 115 80
68 110 77
72 121 92
69 113 87
66 115 85
67 118 88
71 121 99
71 114 83
70 111 84
68 118 99
74 110 84
74 116 84
69 110 89
72 117 101
72 109 84
69 112 85
72 116 96
74 122 101
75 117 93
68 106 83
73 114 96
74 121 105
73 122 106
71 116 97
76 125 113
76 125 111
73 125 108
78 115 97
76 123 107
76 122 107
77 122 103
74 112 96
64 91 78
40 36 28
33 17 6
28 12 4
33 14 3
40 19 9
37 17 6
43 22 11
36 16 6
40 20 9
44 24 11
44 26 14
46 26 13
47 27 14
50 30 17
52 30 17
56 38 24
51 32 19
51 30 17
62 38 24
55 37 23
59 39 26
61 37 23
60 40 26
66 41 26
62 39 25
59 40 27
62 39 24
62 41 27
65 39 25
63 42 28
64 39 25
63 41 26
66 45 31
64 45 31
63 47 32
61 41 27
66 43 28
67 43 29
66 45 30
68 48 34
69 48 33
70 49 35
66 46 32
67 50 35
69 47 33
67 49 35
67 47 32
67 44 29
64 47 32
68 45 31
68 45 31
64 49 35
70 49 34
67 46 31
70 51 37
71 57 44
68 44 31
63 48 34
68 54 40
65 48 34
64 48 35
65 49 35
61 46 33
61 49 36
62 52 40
55 47 37
45 40 33
65 115 114
78 172 176
79 177 181
80 175 179
79 178 182
79 172 176
80 176 180
80 179 184
80 181 185
80 181 185
80 178 182
80 181 186
79 178 183
80 181 186
80 182 186
80 181 186
80 181 186
80 181 186
80 180 185
80 182 187
80 181 186
80 182 187
80 182 187
80 182 187
80 182 187
80 182 187
80 183 187
80 182 187
80 183 187
80 183 187
80 182 187
80 182 187
80 183 187
80 182 187
80 182 187
80 183 187
80 182 187
80 182 187
80 183 187
80 182 187
80 182 187
80 182 187
81 183 187
80 182 187
80 182 187
80 183 187
80 182 187
80 183 187
80 182 187
80 183 187
80 183 187
80 183 187
80 183 187
80 182 187
81 183 187
80 182 187
80 183 187
80 182 187
80 183 187
80 183 187
80 182 187
81 183 187
80 182 187
80 182 187
80 183 187
80 182 187
80 182 187
80 182 187
80 182 187
80 182 187
80 183 187
80 182 187
80 182 187
80 182 187
80 182 187
80 182 187
80 182 187
80 182 187
80 182 187
80 182 187
80 183 187
80 183 187
80 183 187
80 182 187
80 183 187
79 182 187
80 182 187
80 182 187
80 182 187
80 182 187
80 182 187
80 183 187
80 181 185
80 182 187
80 183 187
80 182 187
80 183 187
80 182 187
80 183 187
80 182 187
79 180 185
78 177 182
78 179 183
79 180 185
76 173 178
78 179 183
80 182 187
80 182 187
78 177 182
80 182 187
80 182 187
78 178 183
77 177 182
79 181 185
78 177 182
78 177 182
79 180 185
76 175 180
77 175 180
81 183 187
77 175 180
58 131 133
32 72 72
22 49 48
20 44 43
72 101 113
140 179 206
157 204 231
114 192 206
83 184 189
82 181 185
84 178 180
84 177 178
81 174 168
85 181 174
81 175 167
80 174 167
83 179 169
86 179 171
85 187 175
83 183 175
79 175 164
87 184 171
83 177 162
88 190 175
86 188 172
82 185 169
84 187 171
86 189 172
80 184 165
84 186 170
82 187 171
86 188 167
82 183 162
86 190 175
85 188 167
83 185 167
84 185 166
83 185 168
83 183 167
83 183 162
85 188 173
84 185 169
82 185 167
76 177 155
79 176 155
78 178 159
77 179 156
76 171 152
76 168 136
82 176 148
81 178 160
83 181 166
81 178 161
77 165 142
76 167 145
77 166 144
79 166 151
77 157 141
77 165 147
81 171 163
117 189 201
148 193 218
143 192 212
77 122 128
62 133 125
77 162 148
75 156 138
76 158 137
80 166 150
79 169 158
71 155 140
77 162 144
68 145 127
78 164 143
77 162 145
76 159 140
77 160 140
71 148 127
72 153 132
71 150 129
75 164 151
72 150 123
71 149 130
65 140 115
71 152 129
68 136 108
76 157 128
69 144 118
69 144 113
69 146 112
70 148 121
71 152 127
72 152 121
68 142 108
65 138 108
72 146 106
64 134 99
64 135 101
60 125 82
71 145 108
61 130 90
60 121 76
60 124 82
61 125 76
57 119 76
58 117 67
59 121 75
54 114 65
56 116 71
51 103 52
50 103 48
46 92 41
47 98 48
45 91 46
43 87 39
39 80 26
38 78 35
35 69 22
34 65 13
28 54 13
33 51 9
34 39 0
40 44 0
40 46 0
42 48 0
40 45 0
44 49 0
46 50 0
50 55 0
51 56 0
51 57 0
49 55 0
49 55 0
53 58 0
50 56 0
51 55 0
50 56 0
51 53 0
49 52 0
54 58 0
53 58 0
53 57 0
57 60 0
52 57 0
46 49 0
47 48 0
46 48 0
49 50 0
46 45 0
46 47 0
47 45 0
45 45 0
39 35 0
43 40 0
41 40 0
41 36 0
29 29 0
34 48 8
34 49 9
34 55 12
37 57 21
45 71 27
44 68 20
44 73 33
42 64 19
49 82 32
48 78 37
51 78 40
49 80 36
53 87 44
49 73 42
56 83 45
56 98 60
53 91 50
57 85 52
56 89 53
63 101 61
61 90 55
61 101 62
60 106 70
59 91 61
65 103 75
58 95 61
57 87 52
66 103 75
65 109 85
65 103 75
63 102 76
69 113 91
69 111 83
66 104 81
68 110 87
71 107 86
66 93 68
63 103 82
66 106 86
68 106 87
68 105 83
71 97 68
72 110 85
75 119 95
68 102 83
70 108 86
71 103 80
66 103 81
69 93 71
69 91 65
69 103 79
71 109 94
72 106 87
65 91 69
74 110 90
69 107 89
52 69 52
30 20 11
29 13 6
32 14 4
35 16 6
34 17 8
34 18 7
31 15 7
40 20 9
45 25 13
44 27 14
47 26 13
45 25 12
52 31 18
48 25 13
50 29 15
57 32 18
47 28 15
54 35 21
58 35 21
54 32 19
58 36 22
56 33 19
53 33 19
61 38 24
60 38 23
58 37 22
57 37 23
63 41 27
65 40 26
59 38 24
56 37 23
64 40 26
66 45 31
63 40 26
62 43 29
62 39 25
64 40 26
63 41 26
66 42 27
63 42 27
61 41 27
64 41 27
65 40 26
66 43 29
59 38 24
64 44 29
68 46 31
65 43 29
61 36 23
64 43 28
65 43 29
61 39 25
66 45 31
66 46 32
59 42 28
63 46 32
65 46 33
66 50 36
65 48 35
61 44 31
53 39 28
59 43 32
54 42 31
55 75 69
73 154 157
81 171 173
80 174 178
81 175 178
80 169 171
81 167 168
81 171 173
80 178 182
80 178 181
80 176 180
80 177 181
80 175 179
80 174 177
80 174 178
80 177 181
79 178 182
80 180 185
80 182 186
80 180 185
80 182 186
80 182 187
80 180 185
80 181 185
80 182 187
79 180 185
80 182 187
80 182 186
80 182 187
80 182 187
80 182 187
80 182 187
80 182 187
80 182 187
80 182 187
80 182 187
80 182 187
80 183 187
80 183 187
80 183 187
80 182 187
80 182 187
80 182 187
80 182 187
80 182 187
80 183 187
80 182 187
80 182 187
80 183 187
80 182 187
80 182 187
80 183 187
80 183 187
80 183 187
80 182 187
80 182 187
80 183 187
80 182 187
80 182 187
80 182 187
80 182 187
80 183 187
80 183 187
80 182 187
80 182 187
80 182 187
80 183 187
80 182 187
80 183 187
80 182 187
80 183 187
80 182 187
80 183 187
80 182 187
80 182 187
80 182 187
80 183 187
80 183 187
80 182 187
80 182 187
80 183 187
80 182 187
80 182 187
79 180 185
80 183 187
80 182 187
80 183 187
80 182 187
80 182 187
80 182 187
80 182 187
79 181 185
80 182 187
80 182 187
79 179 183
79 180 185
80 182 187
79 181 185
77 176 180
78 177 182
80 182 187
80 182 187
75 171 176
79 180 185
79 181 185
80 181 185
80 183 187
78 179 183
78 179 183
80 182 185
79 180 185
78 179 183
78 179 183
78 177 182
79 181 185
78 179 183
77 176 180
79 179 183
80 181 185
79 181 185
79 179 183
76 173 178
80 182 187
78 177 182
69 159 160
52 115 115
32 70 69
28 61 59
23 51 50
51 76 83
135 169 195
159 204 233
108 190 202
83 178 183
83 179 182
77 173 173
80 169 166
83 180 174
85 181 176
82 177 174
81 167 161
80 169 161
85 181 171
87 185 172
89 190 179
87 192 180
85 187 169
85 185 168
85 186 171
86 187 173
87 188 173
85 187 171
87 185 168
85 189 169
81 180 160
90 192 171
82 180 161
84 190 170
82 183 160
83 188 165
84 189 167
82 187 170
81 185 164
75 171 148
80 177 148
82 184 165
74 172 150
75 172 150
78 180 156
73 169 146
80 171 149
76 166 144
83 179 158
77 171 145
81 176 150
81 175 149
78 173 148
75 158 133
73 155 139
76 159 151
84 175 171
114 190 198
148 190 214
144 186 210
87 135 134
57 115 96
71 148 130
72 156 144
73 155 136
72 150 131
73 150 130
69 145 126
78 161 142
73 159 142
72 151 126
71 151 130
67 147 126
72 150 125
71 147 129
74 153 130
71 153 127
73 146 117
76 159 136
76 154 125
69 147 117
76 161 137
67 144 115
67 142 120
67 144 113
68 140 110
71 146 117
74 151 120
67 142 120
70 150 120
69 142 104
63 134 98
68 139 104
59 125 90
66 137 94
64 131 93
61 128 90
58 121 82
58 125 82
60 127 76
57 118 75
58 119 70
58 119 73
50 102 50
55 111 63
51 104 50
48 98 50
53 107 60
49 99 43
47 96 43
48 98 45
40 82 31
40 80 26
39 75 26
37 73 28
31 62 16
30 59 15
28 53 13
23 44 5
17 31 3
19 34 0
19 31 0
22 26 0
30 31 0
40 45 0
31 33 0
34 36 0
39 41 0
39 43 0
36 39 0
41 44 0
39 42 0
44 48 0
44 46 0
41 45 0
41 45 0
42 46 0
43 46 0
41 45 0
47 50 0
41 44 0
41 42 0
41 42 0
39 40 0
43 47 0
43 41 0
39 38 0
37 35 0
38 36 0
30 28 0
36 32 0
28 21 0
31 28 0
20 17 0
17 22 0
16 21 0
19 26 0
25 39 5
23 31 3
28 37 4
32 39 2
32 44 12
36 51 18
37 56 20
36 51 14
40 50 18
40 57 20
45 70 25
46 75 41
48 71 29
47 68 29
56 74 33
50 75 45
54 78 44
55 84 53
54 76 33
55 82 41
62 98 63
57 84 50
54 81 55
57 79 49
57 88 61
56 77 52
58 89 58
63 99 72
59 86 52
63 92 68
57 80 49
63 96 66
65 104 81
62 101 75
65 92 69
63 99 74
65 84 52
63 83 55
65 96 74
65 83 59
66 88 66
66 92 72
64 91 73
62 82 58
59 82 58
61 80 58
59 86 61
64 90 65
68 90 63
60 78 52
64 91 67
64 93 70
61 76 52
62 81 56
62 76 49
64 84 61
61 83 62
36 31 18
17 7 2
24 11 4
32 14 6
26 14 6
31 14 6
37 18 9
33 15 6
40 22 11
38 22 11
43 21 11
38 19 9
44 25 12
47 25 14
53 31 17
53 29 16
53 32 18
52 30 17
53 33 19
54 33 19
52 30 17
51 29 16
58 35 21
55 34 21
53 32 19
62 36 21
56 36 23
61 36 22
57 35 21
59 35 21
57 35 21
63 38 24
59 37 23
59 39 25
62 39 24
59 34 19
63 40 26
61 42 28
64 39 24
67 40 26
60 40 25
67 42 27
62 38 24
63 41 27
63 38 24
59 38 24
65 43 29
62 43 30
59 39 25
63 43 29
65 45 30
69 47 33
67 48 33
64 43 29
61 41 27
64 40 26
63 47 34
59 45 33
57 42 31
41 31 23
47 65 60
71 127 125
80 171 173
81 170 172
80 176 179
80 171 174
82 157 157
81 171 173
81 168 169
81 174 177
79 174 178
80 173 176
81 173 175
80 170 173
80 173 177
80 180 185
79 176 180
80 174 178
80 181 185
80 176 180
80 176 180
80 175 179
80 173 177
81 179 182
79 175 179
80 179 184
80 177 181
80 176 180
80 181 186
80 176 180
80 181 186
81 182 186
80 182 187
79 180 185
80 180 185
80 181 186
80 183 187
80 181 185
80 182 187
80 183 187
80 183 187
80 182 187
80 182 187
80 182 187
80 183 187
80 182 187
80 182 187
80 182 187
80 182 187
80 182 187
80 182 187
80 182 187
80 183 187
80 182 187
80 182 187
80 182 187
80 183 187
80 183 187
80 182 187
80 182 187
80 182 187
80 182 187
80 182 187
80 182 187
80 182 187
80 182 187
80 182 187
80 182 187
80 183 187
80 182 187
81 183 187
80 182 187
80 182 187
80 182 187
80 182 187
80 182 187
80 183 187
80 182 187
80 182 187
80 183 187
80 182 187
80 183 187
80 182 187
80 182 187
80 183 187
80 182 187
80 182 187
79 180 185
80 182 187
77 177 182
80 183 187
79 181 185
79 180 185
77 177 182
80 182 187
78 178 183
79 179 183
79 179 183
80 182 187
77 175 180
80 182 187
79 181 185
79 180 185
78 177 182
80 182 187
79 181 185
79 179 183
77 175 180
77 175 180
77 175 180
79 181 185
78 179 183
79 181 185
79 181 185
80 182 187
79 179 183
78 179 183
78 177 182
76 173 178
80 181 185
78 177 182
80 181 185
76 174 178
79 178 181
81 183 187
77 174 178
81 183 187
79 180 183
72 163 164
47 106 105
31 70 67
26 57 55
19 43 43
71 109 119
119 154 176
165 206 237
117 191 204
93 182 191
83 179 179
80 175 174
79 177 173
84 177 171
78 167 159
74 163 155
82 174 167
85 184 174
84 178 168
84 185 170
89 187 175
90 193 178
89 193 175
84 188 170
86 190 172
85 192 174
86 189 170
83 184 163
84 187 164
84 187 170
82 191 168
81 184 165
80 185 168
79 179 159
80 186 166
80 180 159
86 184 167
77 182 162
76 177 149
80 181 163
77 178 158
77 181 158
83 181 161
78 177 155
82 180 161
80 181 157
75 174 149
81 174 152
83 173 156
84 172 156
75 160 145
78 168 156
90 170 168
128 191 204
150 198 216
133 177 200
78 125 122
62 130 113
69 149 128
75 160 140
73 154 134
75 158 141
69 148 129
65 135 109
72 152 129
72 154 128
71 150 133
73 157 132
72 149 124
73 149 118
67 146 130
68 147 117
72 150 121
74 156 124
68 135 104
71 144 119
71 147 119
70 149 123
74 156 131
72 149 121
70 147 124
70 141 108
70 145 121
70 147 111
72 149 120
66 140 108
69 142 100
65 132 97
65 140 109
63 126 84
69 138 99
63 130 90
62 130 91
65 132 91
64 133 97
57 118 71
57 119 76
60 125 80
57 116 65
54 113 61
52 106 63
53 108 63
54 112 67
51 107 61
47 96 52
46 94 37
40 80 30
41 82 29
38 76 26
32 62 18
31 58 13
35 69 18
30 59 13
26 48 3
30 57 9
22 40 3
20 37 1
16 28 1
12 22 0
10 18 0
8 14 0
7 11 0
7 9 0
9 10 0
16 16 0
21 22 0
24 25 0
28 29 0
28 30 0
28 29 0
28 29 0
29 30 0
32 32 0
29 30 0
30 32 0
33 34 0
32 33 0
33 33 0
32 33 0
34 35 0
29 29 0
31 31 0
30 28 0
29 27 0
27 26 0
28 24 0
20 19 0
14 12 0
11 9 0
7 6 0
6 5 0
6 6 0
9 10 0
10 12 0
13 16 0
17 18 0
19 23 2
24 28 3
25 32 8
27 33 10
28 32 3
33 41 11
35 35 6
34 45 16
38 53 24
40 57 27
42 58 25
43 62 29
41 51 19
42 63 29
48 72 34
47 68 40
50 71 42
50 71 38
55 79 50
50 71 39
54 75 48
57 84 56
53 69 43
53 79 53
58 87 61
53 74 49
61 89 68
57 82 53
53 72 47
61 81 58
58 76 50
55 75 47
57 84 62
56 74 49
56 75 52
56 72 49
59 76 55
61 79 56
57 73 54
56 71 44
59 76 54
58 74 50
56 72 46
56 72 49
59 81 59
55 67 47
58 73 48
53 73 53
61 72 46
60 71 47
59 72 50
65 78 54
57 71 46
55 65 40
53 65 41
53 63 41
52 64 41
48 53 32
29 25 14
18 7 2
25 11 4
26 11 4
26 11 4
28 12 5
38 18 8
33 16 7
38 18 8
43 22 11
38 19 8
45 22 9
43 24 12
45 24 12
42 22 11
50 28 16
46 27 15
48 28 16
52 30 17
50 30 17
57 33 20
51 27 15
49 30 17
55 31 18
55 31 17
49 28 16
58 36 22
54 33 19
54 33 20
57 31 18
58 31 18
55 36 22
58 35 20
57 39 24
57 37 23
60 36 22
57 35 21
55 31 18
56 33 20
56 36 22
60 39 25
57 36 22
57 35 22
61 38 24
61 41 27
60 41 27
59 40 26
56 34 20
59 40 26
58 37 24
52 37 25
56 40 27
59 40 26
53 36 24
52 35 23
51 36 26
49 57 50
70 127 125
80 158 157
81 154 152
80 158 158
81 157 155
82 157 155
81 160 160
80 164 164
82 158 156
82 163 164
81 164 165
81 172 174
80 162 163
80 174 177
81 173 175
81 171 172
81 173 175
81 168 169
81 169 171
81 174 177
80 171 173
80 172 174
80 174 178
80 169 172
80 176 180
80 174 178
80 178 182
80 176 179
80 178 181
80 178 182
80 177 180
80 178 182
80 181 185
79 178 183
80 179 184
80 182 186
80 179 184
80 181 185
80 181 186
80 182 187
80 181 186
80 183 187
80 182 187
80 182 187
80 182 187
80 182 187
80 183 187
80 183 187
80 182 187
80 182 187
80 182 187
80 182 187
80 183 187
81 183 187
80 182 187
80 182 187
80 183 187
80 183 187
79 182 187
80 182 187
80 183 187
80 182 187
80 182 187
80 182 187
80 183 187
79 182 187
80 182 187
80 182 187
80 182 187
80 182 187
80 182 187
80 182 187
80 182 187
80 182 187
80 183 187
80 183 187
80 182 187
80 182 187
80 183 187
80 182 187
80 183 187
79 180 185
80 183 187
80 183 187
80 183 187
80 182 187
79 181 185
80 183 187
80 182 187
78 179 183
78 177 182
80 183 187
79 179 183
79 181 185
78 177 182
78 179 183
78 177 182
78 177 182
79 179 183
79 179 183
78 177 182
79 181 185
79 181 185
79 181 185
79 180 185
79 181 185
79 179 183
77 175 180
79 180 185
78 177 182
78 179 183
79 179 183
79 181 185
79 179 183
81 183 187
79 181 185
80 181 185
78 177 182
78 177 182
78 176 178
77 176 180
78 177 179
80 180 183
79 178 182
80 181 185
77 174 178
78 178 182
78 176 180
77 173 176
80 179 182
80 179 182
71 160 160
41 93 93
28 63 60
25 55 53
25 54 52
30 54 56
97 126 145
156 199 227
146 202 226
118 195 210
89 181 185
80 177 177
83 175 173
83 181 173
80 177 168
83 176 167
83 174 163
89 190 179
85 190 176
89 191 172
85 191 174
85 187 170
84 193 174
82 186 168
81 188 166
87 189 170
87 188 173
85 186 163
79 183 157
88 191 173
78 175 150
78 183 164
78 181 159
85 183 162
77 183 160
81 183 163
75 179 151
84 187 166
76 182 158
79 180 158
78 176 157
77 172 156
85 184 163
85 178 163
82 180 167
76 160 144
77 163 146
88 173 170
113 182 194
138 192 208
146 190 211
114 165 179
69 122 116
60 134 120
69 147 122
73 158 139
68 145 125
80 168 146
71 151 131
73 152 127
71 157 138
70 150 130
70 147 125
72 147 115
70 142 111
72 149 120
67 142 118
72 151 126
67 139 119
72 149 118
65 135 103
72 146 119
68 140 110
66 141 120
65 139 120
67 138 115
68 141 107
66 132 101
69 138 101
67 145 125
64 136 104
65 137 110
68 143 110
59 124 93
60 122 85
61 131 99
67 143 113
66 139 103
64 136 108
59 118 70
60 121 76
54 112 74
59 119 72
62 126 86
59 121 77
56 116 76
52 108 61
52 102 48
51 106 60
47 97 50
51 107 54
47 97 50
43 85 43
44 91 38
40 81 33
42 83 39
41 82 35
37 71 31
34 64 18
29 54 11
29 54 11
25 46 3
27 52 11
19 35 3
17 30 3
19 34 0
12 22 0
8 13 0
7 12 0
5 8 0
3 4 0
2 4 0
1 1 0
1 1 0
2 2 0
5 5 0
7 7 0
8 8 0
12 11 0
15 14 0
16 16 0
13 12 0
14 13 0
16 15 0
14 14 0
17 16 0
17 16 0
18 16 0
12 10 0
12 10 0
10 9 0
9 8 0
4 3 0
2 1 0
0 0 0
1 1 0
2 1 0
2 2 0
4 3 0
5 4 0
7 7 0
9 10 0
11 12 0
11 12 0
18 19 0
21 22 0
20 25 0
26 28 2
29 34 6
26 32 0
33 39 6
35 39 12
32 40 12
36 43 15
37 47 15
42 50 22
43 49 25
44 58 26
41 54 23
42 59 32
50 68 37
41 59 27
50 73 48
49 62 35
52 76 47
51 68 40
52 74 47
50 68 37
48 63 31
49 60 32
52 75 54
53 68 46
52 73 44
53 72 50
53 63 37
56 75 56
59 79 53
53 62 36
50 66 41
57 66 41
56 73 48
49 56 33
53 72 51
50 61 40
49 58 35
57 72 50
52 65 43
49 58 31
52 65 41
54 70 48
53 65 41
48 59 37
53 57 33
52 57 35
48 58 32
46 53 30
51 58 37
46 50 28
46 45 24
46 52 30
49 54 33
39 45 25
41 42 22
37 35 17
25 20 10
20 8 3
20 7 3
20 9 3
24 11 4
30 13 5
40 18 9
35 16 7
34 16 7
40 20 11
45 22 11
37 18 8
40 19 9
35 17 8
45 22 10
45 23 13
48 26 14
45 26 15
47 26 14
46 24 12
46 24 13
47 25 13
51 27 14
54 31 18
48 26 13
56 33 19
54 30 16
53 30 17
58 32 18
55 31 18
53 30 17
52 31 18
53 28 16
50 31 17
52 31 18
51 30 17
53 32 18
58 33 19
58 33 20
51 31 18
54 30 17
52 31 17
57 36 23
52 31 18
54 35 22
54 33 20
51 31 19
51 32 19
53 37 24
48 30 18
48 31 20
43 27 17
50 61 53
61 103 97
79 152 148
79 146 140
79 151 146
78 160 159
81 155 152
77 152 149
84 155 151
81 162 161
81 152 149
82 161 160
82 161 161
81 167 168
80 166 168
80 157 156
82 164 163
81 165 166
81 167 168
80 171 173
80 167 169
81 173 175
80 168 170
81 172 174
80 173 175
80 171 173
81 172 174
80 170 172
80 171 173
80 177 181
80 174 178
80 177 180
80 172 174
80 171 174
80 178 182
80 178 182
80 177 181
80 179 184
80 177 181
79 178 183
80 179 184
80 181 186
79 179 184
80 177 180
79 180 185
80 182 186
80 182 186
80 182 186
80 181 186
79 182 187
80 181 186
80 182 187
80 183 187
80 181 186
80 182 187
80 182 187
80 182 187
80 182 187
80 182 187
80 182 187
80 182 187
80 182 187
80 182 187
80 182 187
80 183 187
80 182 187
80 182 187
81 183 187
80 183 187
80 182 187
80 182 187
80 183 187
80 182 187
80 182 187
80 182 187
80 183 187
80 182 187
80 182 187
80 182 187
80 182 187
80 182 187
79 180 185
80 183 187
80 183 187
77 175 180
80 182 187
80 183 187
80 182 187
79 181 185
79 181 185
80 182 187
80 182 187
80 182 187
79 181 185
79 181 185
80 182 187
79 182 187
80 183 187
78 178 183
76 175 180
75 170 174
79 181 185
78 179 183
80 182 187
80 182 187
76 174 180
80 182 187
77 175 180
78 177 182
78 179 183
79 180 185
77 176 180
79 179 183
79 180 183
80 183 187
77 176 180
79 178 182
79 179 183
74 168 172
81 184 187
76 172 174
79 178 182
77 175 178
76 170 172
80 182 185
76 174 178
75 171 174
78 175 178
78 177 179
79 179 181
80 179 181
76 170 172
78 177 178
80 176 176
76 170 171
77 172 174
78 174 174
61 136 133
46 104 100
34 74 72
23 50 48
21 46 44
51 77 83
112 142 164
160 200 231
146 200 226
119 189 204
99 180 189
82 174 177
87 185 186
84 174 169
77 167 158
84 180 169
89 192 179
85 181 166
87 189 171
84 192 170
81 186 167
78 188 166
83 192 170
83 186 168
75 183 157
79 179 156
81 185 163
75 180 156
84 186 163
85 181 164
79 186 163
79 182 162
78 181 159
82 179 154
74 168 144
81 184 163
80 179 161
85 184 164
83 184 168
81 179 164
83 173 161
99 183 179
130 192 209
141 198 218
136 190 206
121 171 183
82 141 132
62 124 112
67 145 123
72 158 135
74 159 137
77 172 152
72 157 132
74 160 138
73 153 133
71 143 112
73 154 128
73 156 134
72 154 134
72 152 133
70 150 126
76 158 134
71 151 131
66 137 107
75 153 129
68 136 104
73 153 125
66 137 110
68 136 98
71 149 117
66 135 112
74 149 118
66 138 108
66 134 97
69 135 101
63 133 105
67 140 110
63 132 100
61 127 92
66 135 108
71 142 103
68 139 106
57 120 81
60 123 82
60 130 95
61 122 78
64 132 90
51 107 61
55 111 68
58 121 84
59 119 67
52 103 54
61 127 90
48 100 54
48 100 57
50 103 60
51 108 61
49 100 46
42 87 45
48 97 45
42 85 37
42 84 26
39 77 33
38 75 23
38 76 28
31 60 16
29 57 20
31 60 13
25 48 9
20 37 3
23 41 1
17 31 3
14 25 0
13 23 0
9 14 0
10 16 0
6 9 0
5 9 0
3 5 0
2 3 0
1 1 0
0 1 0
0 1 0
0 0 0
0 0 0
0 0 0
0 0 0
0 0 0
0 0 0
0 0 0
0 0 0
0 0 0
0 0 0
0 0 0
0 0 0
0 0 0
0 0 0
0 0 0
0 0 0
0 0 0
0 0 0
1 1 0
2 2 0
4 3 0
4 4 0
5 6 0
8 8 0
10 10 0
9 10 0
11 12 0
15 15 0
16 15 0
21 22 0
20 20 0
24 25 1
26 30 4
29 34 6
32 39 9
32 28 8
34 39 11
36 39 11
38 42 13
35 41 11
41 50 28
41 50 25
50 74 44
46 57 26
48 61 35
48 62 34
42 54 32
47 66 36
43 53 25
48 64 40
50 68 47
50 68 42
52 74 52
53 66 44
53 65 45
49 67 42
54 76 52
55 73 48
55 67 46
50 62 36
54 70 50
52 69 46
57 67 46
50 59 38
56 70 46
51 56 32
47 52 30
48 59 35
53 65 44
47 51 30
52 64 41
50 63 39
53 62 39
46 51 25
51 61 39
47 49 29
47 46 25
43 41 21
40 41 18
41 43 25
38 39 18
47 48 27
38 40 21
38 34 15
38 37 17
35 34 17
36 35 19
33 34 16
34 31 15
30 26 11
21 18 8
13 7 2
14 6 2
14 5 1
28 12 5
26 11 4
24 9 3
34 16 7
29 12 5
33 15 6
42 20 10
33 17 7
39 20 9
36 18 8
40 21 10
42 19 9
47 23 12
37 18 8
44 22 11
44 23 11
47 24 12
44 23 11
50 26 13
46 25 13
46 24 12
46 26 14
46 25 13
50 27 15
47 26 14
53 31 18
48 27 14
51 30 17
54 29 16
52 30 17
54 30 17
51 27 15
51 28 15
48 27 15
53 32 19
48 26 14
54 30 17
46 26 14
50 27 15
42 25 14
52 32 20
49 30 19
40 26 17
40 30 21
48 62 53
69 117 109
74 138 130
78 142 135
76 136 128
78 146 141
78 148 144
77 150 145
79 143 136
82 153 150
81 149 144
81 157 156
78 159 158
81 158 157
81 158 156
79 157 154
79 152 150
82 154 151
81 165 164
82 164 163
80 166 167
81 168 169
80 155 154
80 161 162
82 161 161
81 163 164
80 165 166
81 164 165
80 174 177
81 168 169
80 173 175
82 166 167
81 172 174
81 172 174
80 178 182
80 174 177
79 174 178
79 173 177
80 174 178
81 179 182
80 180 185
80 177 181
80 173 177
80 172 175
80 178 182
80 180 184
80 175 179
80 178 182
80 178 182
79 179 184
80 179 184
80 180 185
80 181 185
79 181 185
80 183 187
80 181 186
79 180 184
80 183 187
80 182 187
80 182 186
79 182 187
80 182 187
80 183 187
80 182 187
80 183 187
80 183 187
80 182 187
80 183 187
80 182 187
79 182 187
80 182 187
80 182 187
80 182 187
79 180 185
80 182 187
79 181 185
80 183 187
80 182 187
79 181 185
80 183 187
78 179 183
80 182 187
80 183 187
80 182 187
78 178 183
80 182 187
76 174 178
78 179 183
78 179 183
79 180 185
77 175 180
80 182 187
78 178 183
80 182 187
77 175 180
78 177 182
79 181 185
79 181 185
77 177 182
80 183 187
79 180 185
77 175 180
77 177 182
77 175 180
79 181 185
80 183 187
77 177 182
80 183 187
77 175 180
79 179 183
78 177 181
81 183 187
80 181 185
79 179 183
75 170 174
79 179 183
78 177 180
79 180 183
79 181 185
80 182 185
79 177 180
80 183 187
76 174 176
76 174 177
81 182 183
77 175 179
76 173 174
80 182 184
79 179 181
78 177 179
78 176 178
79 179 182
77 173 174
78 174 175
77 172 172
80 176 176
78 174 173
78 177 176
82 181 182
79 177 177
75 167 166
66 146 145
57 126 122
41 89 84
30 66 60
29 62 56
25 58 52
48 74 81
92 127 142
138 180 206
159 200 230
146 197 223
130 194 212
102 180 187
90 178 180
78 169 163
81 179 172
87 185 172
85 175 158
85 186 167
87 189 171
82 185 166
84 190 173
84 183 164
81 185 168
84 187 169
81 184 165
81 185 161
78 175 153
79 174 149
81 182 157
77 179 159
84 184 164
83 180 164
79 173 160
94 175 176
107 184 189
125 197 206
146 196 219
171 208 243
135 186 205
106 158 170
72 126 123
54 107 87
57 131 111
76 167 142
77 173 143
77 168 145
81 170 143
75 165 140
70 158 137
73 156 133
67 150 132
75 160 139
77 160 133
71 151 132
70 144 117
72 156 132
71 144 118
70 146 116
65 137 109
73 147 116
65 138 108
66 133 97
66 139 112
62 133 112
71 148 122
65 132 99
68 135 92
68 137 105
67 133 98
68 143 119
68 141 110
64 136 103
71 145 114
65 133 98
64 131 98
67 138 108
69 143 109
61 126 85
66 129 86
68 141 112
69 141 104
64 133 95
67 136 101
63 128 84
56 115 76
56 116 74
57 113 67
59 122 75
60 121 82
56 110 58
51 106 61
53 111 65
47 96 43
52 104 48
50 97 41
49 102 58
49 101 54
42 83 30
46 93 45
38 75 22
39 76 26
38 74 23
34 65 22
31 62 16
31 59 20
33 62 16
29 55 11
23 41 0
22 42 1
21 37 0
19 34 3
13 23 0
12 19 0
13 22 0
9 15 0
7 11 0
6 9 0
4 7 0
3 5 0
2 4 0
2 3 0
1 2 0
1 2 0
1 1 0
0 0 0
0 0 0
0 1 0
0 0 0
0 0 0
0 1 0
0 1 0
0 0 0
1 1 0
1 1 0
1 2 0
2 2 0
2 3 0
3 4 0
4 5 0
4 4 0
7 8 0
8 11 0
10 13 0
14 16 0
15 18 1
13 15 0
16 18 0
18 22 1
22 25 3
21 27 5
24 31 5
29 31 3
25 30 3
29 30 5
35 41 11
32 37 7
37 42 9
36 45 14
35 43 10
40 55 21
40 42 13
43 54 26
42 52 25
39 47 21
41 55 35
44 58 30
45 55 29
49 65 38
44 53 24
47 59 36
49 56 32
44 63 37
52 76 52
46 56 37
50 71 47
50 69 42
50 64 38
51 68 46
49 60 40
49 64 45
49 60 35
51 68 38
51 64 47
50 65 45
50 54 34
53 67 45
52 65 42
49 54 31
46 55 34
46 50 30
43 42 21
45 48 27
44 46 22
43 49 28
46 48 27
44 41 21
44 49 28
42 41 21
37 31 14
36 33 16
33 32 13
39 36 15
35 32 15
32 30 14
38 37 18
28 26 11
23 19 7
24 22 10
23 21 8
24 18 7
20 16 6
22 18 8
15 10 4
11 6 1
10 4 1
13 5 1
19 7 2
18 8 3
17 7 2
24 10 4
24 10 3
29 14 6
28 12 4
32 15 6
34 15 6
34 15 7
36 17 7
38 18 8
38 17 7
36 16 7
37 18 9
37 18 8
43 22 10
39 21 10
36 20 9
43 22 10
47 24 12
40 21 10
42 23 11
40 22 11
42 23 12
47 24 12
43 24 11
46 22 11
44 23 12
41 22 10
48 26 14
40 21 10
40 22 11
41 19 9
44 24 12
45 24 14
38 21 11
46 26 16
40 24 15
51 54 45
59 78 68
71 115 103
75 124 110
73 122 109
73 121 109
75 130 119
77 132 121
77 134 125
74 129 119
79 136 129
77 145 139
79 145 139
77 147 142
77 142 137
76 150 146
80 157 154
82 154 151
77 144 139
80 159 156
81 149 145
81 157 154
82 160 159
80 159 159
79 160 160
81 168 168
82 152 149
82 159 158
82 168 168
81 167 168
78 170 173
81 166 167
81 168 169
80 166 168
81 165 166
81 172 174
80 172 175
81 172 174
80 169 171
82 164 165
80 169 171
80 169 171
81 175 178
80 172 175
80 172 175
80 176 180
80 173 177
79 175 179
80 175 179
80 175 178
80 174 178
79 176 180
80 180 185
79 177 182
80 177 181
80 177 181
80 180 185
79 179 184
80 180 185
80 183 187
80 182 187
80 181 186
80 180 185
80 180 185
80 183 187
80 182 187
80 182 187
80 182 187
80 181 186
80 181 186
80 183 187
80 182 187
80 183 187
79 180 185
79 181 185
78 178 183
79 182 187
79 180 185
80 183 187
80 182 187
80 182 187
78 179 183
79 181 185
79 182 187
78 178 183
79 180 185
80 182 187
79 179 183
77 177 182
78 179 183
79 181 185
80 182 187
79 179 183
80 182 187
80 182 187
77 177 182
79 180 185
79 180 185
78 179 183
77 177 182
78 179 183
77 177 182
78 178 182
80 181 185
80 182 187
78 179 183
79 179 183
78 177 182
78 177 182
80 182 187
78 178 182
77 175 178
77 176 180
80 181 185
80 181 185
78 177 182
79 181 185
77 174 178
76 172 175
78 176 180
79 178 182
79 180 183
76 173 176
78 176 177
79 177 180
79 179 179
79 179 181
75 173 174
80 182 182
78 176 177
79 178 179
75 168 170
78 177 177
81 179 179
78 175 174
79 177 177
78 173 174
77 172 171
78 174 174
77 171 170
80 174 172
80 178 177
81 180 179
79 175 170
82 175 166
80 176 172
79 175 170
68 150 143
60 133 127
46 98 92
34 72 68
34 72 68
22 46 42
30 63 61
43 66 71
72 106 115
115 154 174
143 186 208
157 200 228
149 199 224
136 193 214
127 193 209
126 192 205
112 185 190
121 187 197
105 184 185
104 176 180
96 183 173
103 188 183
103 184 184
96 177 174
112 193 192
113 194 193
126 196 206
129 193 203
131 198 211
143 200 220
164 208 237
147 186 214
116 157 174
100 151 159
86 142 142
65 120 114
52 121 108
55 122 101
68 156 131
77 174 152
77 174 152
78 177 148
76 174 143
75 171 142
79 173 145
77 174 151
75 163 141
77 164 143
73 160 132
73 153 123
74 156 136
72 152 134
69 142 115
69 138 107
69 145 126
71 151 131
72 148 122
67 140 112
66 137 110
72 144 114
71 144 118
68 139 105
66 136 107
70 144 113
70 144 119
64 129 98
67 138 102
68 133 98
71 147 117
69 138 105
72 144 120
68 139 104
67 141 112
65 135 108
67 134 95
66 138 110
65 134 105
60 123 86
62 132 90
63 132 95
64 134 105
65 139 103
61 127 80
62 132 97
58 121 76
57 113 60
57 118 69
53 114 78
53 109 61
53 111 69
58 120 76
57 115 65
49 102 54
51 104 60
49 103 57
49 98 48
45 92 46
43 90 37
44 89 39
39 77 26
36 73 31
41 80 31
35 70 20
33 62 13
36 71 20
29 58 10
29 58 20
25 47 5
25 47 7
23 42 3
21 35 0
18 32 1
14 24 0
14 25 0
11 20 0
11 19 0
7 11 0
8 13 0
7 12 0
8 12 0
7 11 0
5 8 0
4 6 0
4 6 0
5 8 0
4 6 0
4 5 0
4 6 0
5 7 0
4 6 0
7 10 0
5 7 0
7 9 0
7 10 0
7 9 0
8 11 0
11 13 0
11 15 0
14 20 0
13 18 0
17 27 0
16 22 1
23 36 7
21 28 0
22 32 8
23 31 0
23 32 9
31 44 13
27 36 10
35 47 19
32 39 10
36 53 25
36 46 15
36 44 16
41 51 14
44 60 25
41 48 19
45 55 22
42 50 20
40 47 19
45 63 32
45 60 28
47 56 29
47 62 34
44 50 23
49 71 41
53 81 59
50 74 47
45 49 30
49 64 39
51 68 41
47 62 38
46 66 43
49 63 35
48 62 41
49 67 43
54 73 47
45 65 45
50 66 44
56 74 52
56 70 48
50 66 41
53 62 38
43 46 21
45 53 34
49 56 35
45 49 25
46 53 33
46 46 24
48 50 26
43 45 23
46 42 19
41 41 19
44 48 27
42 40 20
42 42 19
42 41 19
39 38 18
32 28 11
31 28 11
37 31 14
28 24 9
27 24 10
28 25 10
24 18 6
21 17 5
21 17 6
19 14 4
18 14 5
14 9 3
9 7 2
12 8 2
7 4 0
5 2 0
4 1 0
7 2 0
10 3 1
13 4 1
14 5 2
15 6 2
18 7 2
18 8 3
20 8 2
25 11 4
24 10 4
25 11 4
24 11 4
27 13 5
30 13 5
33 16 7
30 13 5
34 16 6
25 13 5
32 16 6
39 18 8
27 12 5
34 15 6
35 17 7
32 16 7
35 18 9
34 16 7
34 16 7
30 15 6
36 19 9
36 19 9
35 18 8
36 19 9
33 16 8
32 17 10
31 17 8
39 37 25
48 59 43
64 91 74
61 94 75
69 108 92
69 104 88
72 110 95
68 125 113
68 103 88
69 110 96
71 127 117
72 117 104
75 128 116
75 137 129
72 128 118
73 125 116
76 144 136
77 140 133
77 133 124
77 136 128
79 149 144
78 143 137
79 145 139
78 143 137
78 157 154
81 156 153
80 156 154
79 154 151
80 159 157
80 160 159
80 159 158
82 156 153
80 159 158
82 166 166
81 167 167
82 168 168
82 166 166
81 161 159
81 165 166
81 171 173
81 177 180
82 166 166
80 163 164
80 165 167
81 173 175
80 175 179
80 170 172
81 171 173
80 172 174
80 170 172
80 171 174
80 175 178
80 175 178
80 173 177
80 174 177
80 177 180
80 177 181
79 174 178
80 173 177
80 177 181
80 177 180
80 177 181
80 180 185
80 178 182
80 180 185
80 177 181
80 179 182
81 181 185
80 179 184
79 179 184
80 180 185
80 180 185
80 181 186
80 182 187
80 182 186
80 182 187
80 182 187
80 182 187
79 181 185
79 180 185
79 180 185
79 181 185
80 182 187
77 175 180
79 180 185
79 181 185
80 182 187
80 182 187
79 181 185
80 182 187
79 179 183
76 175 180
79 181 185
76 173 178
77 177 182
78 179 183
79 180 185
79 179 183
78 178 183
78 179 183
80 182 187
80 183 187
78 177 182
79 179 183
77 175 180
80 181 185
80 182 187
79 181 185
79 180 183
80 181 183
77 177 182
79 180 183
78 177 182
81 183 187
81 183 187
78 177 180
78 176 180
80 182 185
79 178 181
77 174 178
78 176 180
79 180 183
76 174 177
82 184 187
78 176 180
80 181 182
78 178 181
79 177 178
75 169 172
76 173 175
79 177 180
77 173 173
79 178 178
77 174 175
81 181 180
78 175 175
79 176 175
83 183 181
82 182 181
82 184 182
77 171 170
76 171 168
83 183 181
78 172 166
72 159 156
74 166 162
77 171 166
79 171 165
77 166 162
81 176 171
82 177 171
77 168 159
84 184 174
74 164 154
69 149 139
51 111 103
49 111 101
42 97 89
23 55 49
33 71 65
31 67 62
26 56 51
52 88 91
62 94 100
78 113 119
95 128 144
103 141 155
95 125 140
124 163 186
129 174 195
110 154 167
120 160 180
116 165 180
106 149 166
119 166 182
110 161 176
92 132 146
94 143 154
65 101 103
58 106 105
49 99 88
35 83 70
52 120 103
64 148 129
71 164 138
75 175 156
79 177 152
75 172 143
76 176 146
75 171 140
77 170 146
79 175 146
83 184 162
79 173 147
79 175 148
81 182 162
80 172 153
77 165 147
77 167 147
74 164 144
70 148 127
70 145 116
69 149 127
75 157 133
69 143 115
65 140 115
67 141 116
71 150 125
64 134 112
70 145 120
66 139 106
71 146 110
73 150 128
64 132 106
63 136 109
62 128 95
70 139 106
64 131 96
67 138 102
64 136 105
62 128 98
72 146 108
65 137 107
68 149 122
65 136 110
68 137 101
63 129 80
60 125 90
67 137 98
57 120 80
66 138 100
63 128 88
61 123 82
62 125 83
52 110 69
55 113 65
57 120 80
61 124 80
60 124 82
55 111 69
51 105 63
55 114 65
55 111 61
57 116 67
53 112 60
53 110 67
49 101 52
44 90 52
48 96 39
39 81 35
45 86 30
39 80 30
42 83 35
40 80 43
37 74 24
37 70 24
36 69 16
28 54 7
25 46 1
27 52 7
28 54 13
24 45 7
25 47 11
20 36 1
23 42 0
20 36 1
19 34 1
17 29 0
16 29 1
15 27 1
15 26 0
15 25 1
13 22 0
12 20 0
14 24 0
11 19 0
12 21 0
13 23 0
15 25 0
15 25 0
14 23 1
12 19 0
13 19 0
16 27 0
16 24 1
19 31 3
21 32 1
20 32 1
21 30 1
27 42 8
23 37 1
23 35 2
25 37 10
30 44 15
30 42 8
34 56 9
30 50 9
32 45 12
37 57 13
40 57 16
36 52 17
37 58 18
40 59 24
41 57 25
45 67 33
43 58 24
42 58 18
43 58 25
50 65 34
45 65 32
49 70 35
49 69 36
51 65 31
47 68 40
47 68 37
49 66 42
54 69 39
47 61 32
46 58 31
51 70 45
48 72 46
51 73 49
56 82 59
57 78 55
46 66 46
55 68 40
56 75 51
52 64 40
54 67 44
52 75 53
52 71 50
51 67 43
51 63 37
48 61 42
58 73 50
52 60 41
47 52 28
48 55 35
51 67 44
50 55 34
47 51 27
52 53 30
42 48 28
42 41 21
40 42 21
37 39 18
39 39 18
34 31 11
35 36 17
37 32 14
31 29 11
29 27 12
26 22 9
28 25 12
25 24 9
23 19 7
23 20 8
21 17 6
19 16 6
16 11 4
10 6 1
9 6 1
8 6 2
4 2 0
3 1 0
1 0 0
1 0 0
1 0 0
4 1 0
3 1 0
7 2 0
11 4 1
10 4 1
12 4 1
15 5 1
13 6 2
19 7 3
21 9 4
19 7 2
15 6 1
19 8 2
22 11 4
21 9 3
18 8 3
20 8 2
26 12 5
21 10 4
19 10 4
27 12 5
30 13 6
25 11 4
24 12 5
25 11 5
28 13 5
24 11 5
22 13 6
30 24 14
36 36 24
46 56 41
56 69 50
57 71 52
55 81 65
60 87 70
54 69 50
66 94 75
62 90 71
62 101 87
69 101 84
70 118 106
62 97 81
71 115 103
71 119 105
71 118 104
70 111 97
75 120 106
79 136 127
74 125 114
71 128 119
73 129 119
75 139 132
77 144 137
77 141 134
75 134 124
80 156 153
78 147 142
81 157 153
80 142 135
81 146 141
81 160 158
77 147 143
80 152 148
81 155 152
80 159 157
83 157 155
81 152 148
79 158 156
80 162 162
81 169 170
80 167 168
82 168 169
80 167 168
82 163 164
82 166 166
82 164 165
82 171 173
81 169 171
81 163 164
82 166 166
80 174 177
80 166 167
81 166 167
81 169 171
80 174 177
80 171 173
80 173 177
80 174 178
80 169 171
80 175 179
80 180 184
80 173 177
80 178 181
80 175 179
79 176 180
79 176 180
80 177 181
80 178 182
80 176 180
80 180 184
80 180 185
80 180 185
79 178 182
80 180 185
80 179 184
80 181 186
80 179 182
80 182 186
79 180 185
80 183 187
79 180 185
80 182 187
78 179 183
77 175 180
79 180 185
80 182 187
80 182 187
79 181 185
79 180 185
78 178 183
79 181 185
77 177 182
80 182 187
79 180 185
78 179 183
80 182 187
77 175 180
78 179 183
79 179 183
79 180 185
79 181 185
78 179 183
77 175 180
74 169 174
79 179 183
79 179 183
78 178 182
79 180 183
77 175 180
79 178 182
76 174 178
79 178 182
79 177 180
77 174 178
79 178 182
78 178 182
78 178 182
79 180 183
79 181 185
80 182 185
78 176 180
76 172 176
79 178 181
77 174 175
78 177 179
73 165 168
80 178 179
80 180 183
79 177 177
79 176 177
77 174 174
80 180 181
77 174 175
78 178 178
81 179 180
79 173 172
76 168 166
78 172 172
78 171 169
77 173 172
80 176 173
79 175 170
75 167 166
78 173 168
78 171 167
82 179 175
79 173 168
79 176 169
80 175 171
78 172 167
75 163 156
77 167 161
80 173 163
88 188 180
77 173 162
81 182 168
84 183 172
77 174 161
84 189 174
88 188 177
80 171 157
77 170 158
66 145 133
62 137 128
54 125 111
59 131 116
44 98 90
45 97 87
45 99 92
32 74 69
45 97 89
30 68 62
44 94 86
35 83 73
35 82 74
42 97 87
46 107 97
51 119 106
53 116 106
62 144 123
62 147 129
63 153 130
71 172 152
72 175 147
74 178 152
76 178 154
76 170 151
68 167 139
83 186 167
79 173 150
79 176 151
76 168 136
75 166 141
81 175 149
74 164 135
74 160 132
77 168 147
70 155 134
73 155 137
70 148 125
68 140 119
70 152 128
69 141 112
72 154 131
71 152 130
74 153 133
69 143 117
68 136 97
70 147 120
68 142 116
75 155 131
76 158 131
72 148 120
71 143 108
67 138 108
69 146 122
71 146 117
71 146 116
70 144 120
69 138 106
68 141 111
67 140 111
71 140 101
64 135 109
62 129 98
69 146 121
68 139 108
68 135 98
62 132 102
65 135 102
59 122 83
65 134 103
64 130 95
64 132 93
60 123 80
58 123 81
58 120 76
60 123 78
57 122 78
58 120 76
58 119 76
62 131 90
55 115 65
60 123 72
51 101 50
53 106 50
52 106 50
51 109 60
56 113 61
50 101 45
54 111 60
49 102 52
51 107 58
46 92 33
48 96 43
45 88 37
47 95 50
45 93 50
38 77 26
40 80 24
41 80 30
35 69 16
37 74 26
31 61 13
30 58 13
32 64 15
29 54 7
33 63 9
26 50 9
29 55 9
27 50 9
29 55 7
28 54 3
25 46 3
22 40 3
23 42 3
25 47 7
28 53 11
26 50 15
25 46 7
24 44 1
23 42 9
26 45 7
27 48 9
26 47 5
30 54 11
26 44 5
29 53 7
32 57 13
29 48 11
32 52 13
32 55 11
35 59 18
35 58 15
39 59 19
40 69 30
38 62 17
40 64 23
45 72 28
45 74 39
46 66 23
45 74 26
46 66 31
44 57 11
45 63 21
47 67 27
49 77 40
53 82 45
49 71 41
47 73 30
51 73 37
49 66 34
55 81 51
52 80 51
55 87 59
53 78 46
52 83 46
53 70 37
58 91 57
51 87 58
50 69 41
50 74 48
56 80 57
54 81 53
52 81 52
54 71 42
54 81 56
54 77 53
57 83 60
52 71 48
56 78 54
54 76 52
58 80 57
61 88 62
57 88 70
56 70 50
54 77 54
53 62 37
63 77 56
49 61 39
54 64 43
50 55 36
48 60 36
51 60 33
49 60 37
42 47 25
42 48 30
43 50 29
45 49 28
37 43 24
41 44 22
42 47 26
37 38 19
36 36 19
36 34 17
33 32 15
32 31 16
27 22 8
29 25 10
20 17 6
27 25 10
22 20 9
17 13 5
16 12 3
13 10 3
8 6 1
9 5 1
5 3 0
3 1 0
2 1 0
1 0 0
0 0 0
0 0 0
0 0 0
0 0 0
1 0 0
2 0 0
3 1 0
4 1 0
4 1 0
9 3 1
6 2 1
8 2 0
7 2 0
10 3 1
11 4 1
9 3 1
14 6 2
16 6 2
11 4 1
11 5 1
11 5 1
13 6 2
20 13 5
22 17 8
24 23 12
31 30 15
32 35 19
38 38 20
43 46 28
46 51 32
50 53 34
52 63 44
49 60 42
51 65 47
58 72 51
57 74 53
67 89 70
56 81 61
58 83 65
67 99 83
65 108 93
68 106 90
63 89 72
71 113 99
70 118 103
70 106 92
69 115 101
74 127 116
72 122 110
75 122 110
75 130 119
78 142 135
75 133 123
76 132 122
75 142 135
76 139 133
76 128 118
79 142 135
78 147 142
80 147 141
80 157 154
78 144 138
80 149 145
78 151 147
77 151 147
80 151 148
81 155 152
79 154 151
80 158 157
80 162 161
82 159 157
81 164 165
82 162 160
82 166 167
80 165 164
82 166 166
80 170 171
81 165 166
81 164 165
81 169 171
82 161 161
81 167 168
81 166 167
80 166 168
79 173 176
81 172 174
80 173 176
80 172 175
81 172 174
81 174 177
79 176 179
80 176 179
80 178 182
79 173 176
78 174 178
80 179 182
80 175 178
79 175 178
80 178 182
80 177 181
80 178 181
80 178 181
80 180 184
80 177 181
80 177 181
79 178 182
80 181 186
80 182 187
80 181 185
79 179 183
78 177 182
79 180 185
79 181 185
78 179 183
78 179 183
79 180 185
79 180 185
79 180 185
80 183 187
76 174 178
79 180 185
76 173 178
78 179 183
80 182 187
80 181 185
79 181 185
79 179 183
79 180 185
80 181 185
78 179 183
80 182 187
79 179 183
80 181 185
79 179 183
79 180 183
80 181 183
77 176 180
79 179 182
81 183 187
80 181 185
81 182 185
80 182 185
79 178 182
79 178 182
82 184 187
78 177 180
79 178 182
78 176 179
80 181 183
81 183 185
80 180 181
79 179 181
82 183 185
81 181 183
77 174 175
78 175 176
78 176 177
78 175 176
81 180 182
81 179 177
75 168 167
80 178 177
80 176 175
81 180 180
79 176 175
81 179 177
80 177 172
77 171 169
77 170 167
82 179 176
76 170 165
78 174 167
83 180 175
82 181 176
81 180 172
83 181 177
80 173 166
82 180 173
82 184 175
83 181 173
74 167 153
79 174 165
77 168 157
79 176 165
81 181 167
85 187 174
86 186 173
87 190 179
88 196 180
86 189 171
88 193 180
85 189 169
83 194 172
82 191 171
81 192 166
82 192 171
86 191 172
81 186 165
82 190 169
80 188 168
81 182 165
78 178 149
73 178 148
85 185 163
84 192 173
81 183 160
80 185 157
82 183 157
79 187 161
84 187 170
82 186 167
76 177 154
82 183 162
84 181 159
78 182 159
76 177 153
76 173 151
76 170 148
78 175 152
80 171 141
82 176 150
77 166 136
84 171 152
80 167 145
72 155 133
72 157 137
68 146 118
71 149 127
71 154 134
73 156 139
65 142 116
72 158 137
68 145 118
70 143 119
67 140 108
68 143 121
67 142 116
72 145 122
74 152 122
71 147 121
76 155 126
71 147 122
63 123 92
70 144 116
70 142 110
68 137 103
66 138 107
65 139 123
66 136 110
67 141 110
63 135 100
64 131 95
64 132 103
63 130 91
67 139 112
69 134 97
62 134 112
62 131 100
66 134 97
67 137 97
64 133 97
63 135 103
64 132 106
61 130 89
63 132 97
62 131 99
61 124 76
64 130 86
65 135 99
64 124 78
61 130 91
56 113 65
49 104 55
57 116 65
61 126 80
55 116 67
57 119 69
53 107 48
53 111 67
50 106 50
52 109 52
51 107 56
58 118 67
49 99 35
51 107 48
49 98 41
47 96 41
44 90 37
47 97 52
42 87 35
45 92 41
43 86 30
36 74 28
43 87 35
38 76 22
39 76 18
37 76 22
37 72 24
38 76 26
34 68 15
38 77 30
32 62 13
39 74 26
36 71 22
37 72 20
32 62 11
32 60 11
36 69 20
33 63 13
38 73 26
38 75 26
38 71 20
32 61 15
37 71 18
40 77 31
34 66 15
36 68 18
38 71 26
42 74 28
40 73 27
46 90 45
42 74 31
41 67 19
51 86 37
48 85 33
46 84 38
45 76 27
46 77 34
46 76 27
53 90 43
47 86 41
46 72 26
50 82 36
56 88 46
50 83 31
53 83 39
51 85 45
59 93 54
58 89 43
57 94 56
52 83 44
60 97 59
52 83 46
59 104 73
53 83 50
54 84 58
57 91 62
63 91 59
57 74 41
58 81 48
61 89 61
59 90 60
58 87 62
58 83 55
61 93 71
58 94 70
58 94 71
64 94 69
60 92 67
59 81 55
58 88 67
58 82 54
52 73 44
57 78 57
55 75 50
55 79 56
54 75 56
61 91 65
56 78 55
55 76 55
54 64 38
55 75 53
50 62 38
49 62 40
54 68 48
51 60 36
49 56 34
53 66 43
43 55 34
52 61 39
47 51 28
53 62 37
37 40 21
42 46 27
40 43 25
44 45 25
40 39 21
31 29 12
37 36 19
33 33 16
26 22 9
26 24 11
26 21 8
23 19 8
23 21 10
13 11 3
13 9 2
11 8 2
9 6 1
8 5 1
7 4 1
3 1 0
3 1 0
1 0 0
1 0 0
1 0 0
1 0 0
0 0 0
0 0 0
0 0 0
0 0 0
1 0 0
1 0 0
1 0 0
1 0 0
2 0 0
3 1 0
4 2 0
5 3 0
7 4 1
9 6 1
13 8 2
15 13 4
17 16 6
19 16 6
27 26 12
32 33 18
33 32 17
38 38 22
35 37 21
46 50 30
43 49 30
45 51 31
47 58 39
51 59 40
56 71 52
53 73 54
55 75 57
51 69 51
59 83 65
60 89 71
61 93 76
68 91 72
65 96 78
64 100 82
76 114 98
70 112 98
70 116 104
73 113 99
71 122 110
77 123 110
77 124 113
75 134 125
72 123 112
75 131 121
76 130 119
77 137 129
78 143 136
80 146 140
77 142 135
81 152 148
77 143 138
76 149 144
80 154 151
79 149 144
80 151 149
78 150 145
80 161 159
78 161 159
80 158 157
79 155 154
79 156 155
80 156 154
78 159 159
79 165 166
79 167 168
82 164 165
81 165 164
82 165 166
81 160 160
81 161 161
82 162 161
80 163 164
81 169 171
81 169 171
80 168 171
81 173 175
81 172 174
80 175 179
81 161 161
80 167 168
80 175 179
80 172 174
80 178 181
79 177 181
80 174 178
80 179 182
79 175 179
79 174 178
80 176 179
79 174 178
80 173 177
80 175 179
80 177 181
80 180 185
80 176 180
80 180 185
80 183 187
78 179 183
78 179 183
79 181 185
79 180 185
80 182 187
77 174 178
78 177 182
78 177 182
79 179 183
79 179 183
78 179 183
76 173 178
80 181 185
80 182 187
79 181 185
79 181 185
78 177 182
77 177 182
78 179 183
78 178 183
79 180 185
77 175 180
75 172 176
80 182 187
81 182 185
78 177 180
77 174 178
77 176 180
78 176 180
82 183 185
80 181 185
77 175 180
78 176 180
76 174 177
80 179 182
77 176 179
79 178 182
73 166 168
81 182 185
79 178 182
77 175 177
78 177 178
79 178 179
81 182 182
79 179 182
78 174 176
78 174 173
80 179 181
80 180 181
81 181 181
79 177 177
79 175 176
77 171 171
83 184 185
77 171 170
81 180 179
81 177 172
78 173 171
75 166 163
79 173 170
79 174 170
84 183 178
82 181 176
82 182 177
76 169 162
78 172 169
84 183 178
84 180 170
83 183 176
83 180 175
81 179 171
82 180 171
79 176 164
79 174 166
77 168 156
78 173 160
84 187 174
82 176 162
83 187 173
84 186 171
87 187 171
86 188 174
84 190 172
87 193 176
89 193 177
83 191 173
89 193 172
86 193 173
84 189 167
85 187 169
78 180 162
86 188 168
86 190 175
85 189 172
85 189 169
85 190 169
80 185 164
83 183 159
83 182 162
86 191 170
83 185 162
78 180 155
78 181 159
83 183 163
83 185 164
78 171 144
82 181 160
76 171 148
80 175 153
80 169 141
71 159 136
81 174 149
75 164 142
74 157 135
72 156 135
69 153 138
76 157 138
78 154 132
77 158 130
74 159 140
72 149 131
71 150 128
73 151 129
76 163 145
76 159 136
68 146 119
74 151 124
73 150 126
71 149 126
73 154 135
72 145 120
72 151 130
68 133 102
71 142 116
74 154 132
71 147 122
70 145 125
71 145 115
70 147 127
70 144 114
70 145 112
69 138 105
70 144 119
73 150 127
73 150 124
66 140 111
66 140 112
69 148 122
68 139 105
69 138 103
74 159 138
61 123 76
68 140 108
60 135 105
60 127 97
67 139 103
61 127 82
62 125 80
62 130 91
63 134 93
63 130 86
63 129 91
59 125 84
62 129 84
63 132 93
59 121 80
63 129 84
60 121 69
56 118 65
59 121 69
60 124 75
58 124 80
56 114 65
55 118 67
56 115 69
57 118 65
51 106 52
54 110 61
54 111 58
50 99 45
53 105 46
49 96 31
50 103 50
47 99 46
49 97 33
46 93 41
48 99 48
44 91 31
45 90 37
44 86 31
49 98 39
46 93 39
44 88 28
46 93 31
41 82 26
43 82 22
44 89 33
44 86 31
39 74 22
43 82 24
44 83 28
46 87 40
44 85 34
43 81 30
39 75 20
45 84 30
43 81 26
46 90 37
43 81 31
49 90 37
47 87 30
46 87 38
51 94 43
48 86 34
48 87 39
53 95 37
52 90 41
48 87 29
56 105 63
57 97 50
50 90 35
57 98 46
53 84 33
55 94 46
59 97 56
54 92 52
57 93 57
57 95 48
59 96 58
55 95 55
62 96 59
58 96 59
60 101 63
55 92 56
57 100 73
54 93 56
61 104 68
57 89 53
64 104 71
61 92 59
62 103 75
63 95 69
62 102 76
61 94 67
62 98 67
58 97 69
61 99 71
59 89 63
66 98 75
56 84 57
62 98 71
62 91 66
60 93 67
64 94 70
64 96 74
58 85 60
59 82 60
61 95 76
57 72 50
59 85 63
60 80 60
62 86 65
57 81 55
58 71 48
61 71 42
58 81 59
56 73 49
56 69 39
57 76 49
54 74 48
53 66 42
51 59 35
51 60 35
49 60 39
53 68 45
45 55 34
46 57 35
45 54 30
48 52 30
44 48 28
41 41 22
38 41 22
41 43 24
43 44 25
38 41 23
34 33 17
29 28 12
30 27 13
25 22 11
23 19 7
21 19 8
20 14 5
17 14 5
15 11 3
11 8 2
12 9 2
9 5 1
8 5 1
7 5 2
6 4 1
5 2 0
5 3 0
4 2 0
4 2 0
4 2 0
3 1 0
5 3 0
6 3 0
6 4 0
6 4 0
10 7 1
11 7 2
11 8 2
14 11 3
17 15 6
18 17 6
22 21 9
26 26 13
33 34 17
31 29 14
37 37 20
34 38 20
40 38 20
43 44 26
47 55 37
43 50 31
48 54 34
51 61 41
53 61 41
55 67 46
55 77 57
54 79 59
61 86 67
57 83 67
61 88 73
66 100 84
72 103 85
67 104 87
69 105 89
64 107 93
67 107 91
67 106 93
73 109 93
73 121 108
73 126 116
73 124 110
72 130 119
77 137 129
75 127 117
79 132 123
80 136 128
78 133 123
75 141 135
76 130 122
80 149 144
80 148 143
81 153 149
81 150 145
79 148 143
79 146 141
79 151 147
77 153 149
79 158 156
79 148 144
81 158 155
79 157 155
82 155 153
80 166 166
80 155 153
82 156 153
81 161 159
81 167 167
82 168 168
81 166 167
82 160 160
80 167 168
81 163 163
80 172 175
81 171 173
82 167 167
81 171 173
80 172 174
81 169 171
81 176 179
80 172 175
80 175 178
80 178 182
80 173 175
81 172 174
81 171 173
80 174 177
80 176 179
80 174 178
80 176 179
80 178 182
80 173 175
80 177 180
80 174 177
79 179 183
80 183 187
78 179 183
80 181 185
79 180 185
80 182 187
77 176 182
79 180 185
80 183 187
78 179 183
79 181 185
79 181 185
79 181 185
77 175 180
77 177 182
79 179 183
80 181 185
77 177 182
78 179 183
77 177 182
80 181 185
80 181 185
77 176 180
78 177 182
81 183 187
79 179 183
80 181 185
78 179 183
79 177 180
79 181 185
80 182 185
77 174 176
79 177 180
79 180 183
77 175 178
77 176 179
80 181 183
77 175 177
80 180 183
77 176 176
81 182 185
80 180 182
80 179 182
75 168 170
81 182 182
78 175 176
78 174 176
78 176 177
78 176 177
81 180 182
78 174 173
75 170 168
78 173 174
83 183 181
79 175 173
81 182 180
75 165 165
79 175 173
78 174 170
78 173 168
82 181 179
76 167 164
84 183 179
78 169 164
82 181 176
79 174 167
85 182 176
82 181 172
84 181 175
76 169 161
82 180 173
73 165 153
81 177 167
85 181 167
81 175 166
81 180 169
79 172 163
80 176 164
79 176 165
82 178 167
82 182 171
83 183 171
85 186 172
87 188 175
87 190 179
86 186 174
83 183 166
82 181 162
84 187 166
86 193 178
84 187 167
82 183 163
84 190 173
84 188 169
83 185 167
84 186 168
82 180 165
87 186 167
86 185 166
85 179 161
86 186 172
83 188 168
83 179 163
75 169 152
81 178 161
76 172 152
79 176 157
83 176 159
78 171 152
76 165 146
73 153 132
70 151 130
76 159 137
73 159 143
73 157 135
75 156 137
68 147 125
74 159 140
76 162 141
69 152 134
71 150 128
72 158 132
68 141 115
70 145 118
77 151 119
73 149 121
73 154 134
72 149 128
70 145 126
72 151 132
68 144 118
73 148 113
70 145 117
72 150 123
72 145 120
68 141 119
70 142 109
71 151 130
77 163 147
70 147 130
72 146 112
75 151 120
75 153 123
70 139 103
65 141 112
71 149 119
74 147 111
71 146 116
73 154 127
72 147 118
69 148 122
68 145 119
73 157 133
68 145 120
66 135 99
64 135 94
64 135 108
66 138 112
70 139 97
67 137 98
66 144 112
65 136 101
70 143 106
67 142 106
62 130 88
62 131 91
63 129 90
67 141 106
59 122 76
62 129 80
60 128 84
57 117 75
57 120 69
61 120 71
61 126 78
58 118 65
61 123 71
61 131 88
59 123 71
54 115 63
59 122 75
61 123 69
59 122 71
54 109 60
53 111 56
56 117 67
49 99 43
54 110 54
54 112 56
51 104 45
52 108 56
53 108 58
51 107 54
51 106 56
50 100 41
50 102 48
43 86 31
55 112 56
50 103 50
50 100 37
46 94 37
51 104 50
49 94 31
55 109 61
50 100 45
56 108 54
53 105 54
52 104 53
56 107 53
51 94 36
52 104 57
55 111 67
53 101 47
53 100 53
56 104 53
56 107 57
62 121 76
54 99 42
57 106 53
57 105 56
55 102 49
55 99 43
60 104 57
57 100 52
55 100 50
57 99 46
55 96 47
62 106 60
58 102 59
58 106 61
58 99 53
67 110 61
63 110 71
57 98 51
61 105 70
60 96 60
63 99 65
68 118 80
65 108 77
63 99 68
64 104 69
64 108 83
63 98 70
63 98 64
65 106 77
62 88 55
68 110 79
64 102 75
66 106 81
66 108 83
67 106 84
67 105 80
64 102 80
67 104 79
66 101 74
67 96 69
62 87 56
66 103 80
64 93 67
63 104 86
67 109 85
61 89 65
63 91 69
62 94 72
62 89 67
66 95 73
65 94 72
60 86 66
53 81 59
61 88 66
63 79 54
60 80 56
58 87 67
53 65 41
55 69 45
55 70 47
56 70 42
57 65 38
56 71 51
55 75 53
49 65 45
54 72 51
54 63 42
48 63 43
47 56 35
47 52 32
42 47 26
41 42 24
40 42 24
37 37 19
38 38 21
37 37 19
33 32 16
34 33 15
26 28 13
29 28 12
25 22 9
25 22 9
20 17 6
23 22 10
20 17 7
15 12 4
16 14 5
14 11 3
16 13 5
13 11 4
13 10 3
17 15 6
14 12 3
15 12 4
14 11 3
14 11 4
17 13 4
17 14 4
17 15 6
19 18 6
23 21 9
24 23 10
22 20 8
32 29 14
36 34 17
36 37 19
33 34 18
38 36 19
36 38 20
42 44 25
44 43 25
41 46 27
48 53 34
52 65 46
50 65 44
60 77 57
57 69 50
58 78 61
57 80 61
63 87 69
56 82 64
55 79 59
63 87 69
68 93 75
70 102 85
72 114 100
63 94 79
68 111 97
70 112 99
69 104 88
73 109 93
76 122 108
75 138 130
74 118 103
74 126 116
73 125 113
76 136 126
75 135 128
75 131 122
77 137 129
77 135 126
77 139 133
79 145 139
77 147 142
77 142 136
78 140 132
80 147 141
82 152 148
81 151 147
81 158 155
81 159 157
80 152 149
81 155 151
79 162 161
79 151 147
77 162 161
80 164 163
82 162 161
82 161 160
81 155 153
83 160 159
80 166 167
81 162 162
82 158 156
82 163 162
81 171 173
82 164 164
80 168 170
82 165 165
79 171 175
81 176 179
81 170 172
80 176 179
80 176 179
81 171 173
80 175 178
81 171 173
80 174 178
80 178 182
80 178 182
80 174 178
79 172 175
80 179 182
80 174 178
80 175 179
80 182 187
80 182 187
78 179 183
76 173 178
78 179 183
79 180 185
78 179 183
79 181 185
79 181 185
80 181 185
80 181 185
79 181 185
78 179 183
79 179 183
79 181 185
79 179 183
78 177 182
79 178 182
78 177 182
79 181 185
78 177 182
79 179 183
80 181 185
77 175 180
79 179 182
78 178 182
79 179 183
80 183 187
79 179 183
78 178 181
78 175 178
77 174 177
77 174 178
80 179 180
81 182 185
79 179 182
80 179 180
79 177 179
78 175 178
77 175 177
81 181 183
78 176 178
79 175 176
79 177 180
77 172 174
81 182 182
79 176 177
82 184 181
76 171 171
78 174 173
81 179 179
81 179 177
76 170 168
82 181 179
79 176 173
83 183 181
80 176 174
80 174 171
77 170 164
77 170 166
76 169 164
78 171 166
78 172 166
83 177 171
78 175 168
76 164 158
74 162 154
81 174 167
79 168 160
78 174 163
80 175 167
78 169 161
81 178 168
72 163 150
80 175 164
72 152 144
83 177 165
80 171 160
82 176 162
80 176 161
79 175 160
83 186 174
81 181 167
84 181 165
81 176 161
79 171 160
84 189 174
85 182 170
82 181 166
81 185 164
82 181 161
80 172 154
83 180 165
82 178 164
78 177 158
82 180 164
82 176 157
76 170 153
82 172 155
79 173 155
81 176 160
77 171 158
76 163 140
81 170 151
77 165 150
79 168 153
80 168 151
68 148 132
71 151 135
73 158 144
72 154 139
73 159 142
72 152 136
74 154 138
72 149 124
72 157 139
75 163 143
70 151 135
74 162 143
77 161 147
71 147 120
76 155 132
78 164 141
72 151 132
74 152 130
74 150 128
73 154 134
74 150 119
75 154 138
75 152 121
71 150 129
73 148 118
72 149 128
75 161 142
75 153 131
71 147 122
72 149 120
75 153 123
71 146 121
73 147 113
76 153 125
76 157 128
75 158 134
74 163 147
76 165 148
69 149 131
69 146 121
72 150 123
71 147 121
71 145 117
67 142 118
73 159 142
67 139 106
69 144 118
69 146 116
69 148 118
73 154 125
65 137 101
65 138 101
71 147 112
66 138 99
70 144 106
66 142 112
68 136 93
65 136 101
66 141 106
65 140 105
69 145 114
62 131 90
63 133 88
63 137 104
60 127 84
65 136 97
64 131 84
59 126 80
61 130 82
65 132 86
59 125 86
58 120 67
59 125 75
62 125 70
60 120 65
63 127 71
57 117 61
58 115 56
60 122 75
57 120 67
53 107 46
57 116 61
55 113 58
55 115 65
57 119 67
54 111 58
57 119 63
59 122 80
59 121 75
57 113 56
56 111 51
57 119 69
51 105 48
57 117 58
51 106 45
56 115 67
59 114 55
55 111 57
59 115 59
58 125 73
57 109 65
56 102 48
58 113 54
58 112 62
57 111 57
55 105 52
60 121 70
58 111 63
59 115 66
59 112 68
58 100 50
59 107 65
62 119 69
63 115 67
56 105 53
61 117 74
61 115 69
65 112 64
65 112 63
60 111 66
67 118 77
68 118 83
66 121 88
66 117 78
67 123 95
67 118 77
65 114 79
67 110 74
70 120 87
67 114 86
65 118 85
69 124 88
65 112 81
73 120 93
70 118 96
65 110 69
69 120 95
71 119 95
73 127 95
67 111 87
69 112 84
65 115 89
69 115 93
66 113 89
69 104 76
71 119 96
68 112 91
70 110 92
68 113 94
67 106 82
64 92 75
64 100 73
66 98 75
71 119 101
66 101 80
65 97 71
63 98 77
64 102 83
64 85 62
63 95 72
67 109 89
66 89 63
62 91 69
59 86 62
63 93 70
57 85 63
62 87 62
61 86 66
68 88 66
60 84 63
61 85 66
60 88 67
58 76 55
54 77 58
56 72 49
57 74 52
52 66 43
56 70 47
52 65 44
53 62 37
48 56 34
48 61 41
45 49 29
47 54 34
43 45 26
45 47 27
44 45 24
44 46 26
41 42 24
38 39 21
32 33 16
36 36 18
33 34 17
33 32 16
35 31 16
27 23 9
28 28 13
30 30 15
27 29 15
24 22 9
28 26 12
24 24 10
26 24 11
28 26 12
27 24 11
25 24 10
27 27 14
27 26 11
30 32 16
31 33 16
33 32 16
40 42 23
39 39 21
40 38 20
44 48 27
41 41 23
43 42 24
44 48 28
47 52 32
46 52 30
50 60 41
53 64 43
54 67 48
55 67 47
50 63 43
62 80 60
60 78 59
55 71 52
63 84 63
61 87 69
66 104 90
65 96 80
68 111 97
65 96 79
67 102 84
68 106 90
67 103 88
62 96 80
66 106 92
75 121 109
75 126 114
72 120 107
73 122 110
73 130 121
75 136 127
75 132 122
74 129 119
78 138 130
78 130 118
77 126 114
78 132 122
77 151 146
77 138 131
79 149 144
79 135 127
79 148 144
80 144 138
77 156 153
77 155 152
80 156 153
79 156 153
79 154 150
80 157 156
79 157 155
80 155 152
79 162 162
81 159 157
81 157 155
80 163 163
82 165 165
81 166 167
81 167 168
80 169 170
81 171 173
81 167 168
82 168 168
81 165 165
81 170 172
81 165 166
81 171 173
80 170 172
81 167 168
82 167 168
79 164 166
80 173 175
81 173 175
80 170 172
80 177 180
80 171 173
80 172 175
80 177 181
81 176 179
80 179 184
80 182 187
78 178 183
79 181 185
76 173 178
80 181 185
77 175 180
80 183 187
78 179 183
79 181 185
80 181 185
79 179 183
79 178 182
79 180 185
79 181 185
79 179 183
78 176 180
80 181 183
79 180 183
75 170 174
80 181 183
80 181 185
78 177 182
80 182 185
80 182 185
76 171 172
78 177 179
81 183 187
77 174 178
81 182 185
79 177 180
82 184 187
78 178 182
81 180 182
80 176 175
80 180 183
77 175 177
78 177 180
79 178 180
81 184 187
76 169 170
79 178 179
80 181 182
77 173 172
81 182 183
81 181 181
76 171 170
80 177 175
74 165 164
78 176 175
84 185 185
80 177 175
77 172 171
78 174 173
78 174 171
82 180 177
80 172 168
80 178 174
80 179 175
80 177 175
84 183 181
77 171 166
80 177 173
82 179 174
80 179 172
82 181 173
78 171 163
74 163 154
77 171 163
84 181 174
81 175 168
82 180 171
79 167 158
76 168 156
74 165 156
81 173 160
80 171 163
74 160 147
86 184 171
83 179 170
79 173 157
80 175 161
78 174 160
79 175 161
84 182 165
82 182 171
77 170 155
80 173 157
82 178 164
81 174 163
82 179 166
76 167 151
77 170 160
82 172 159
68 144 133
78 164 145
80 173 156
82 177 163
76 166 155
79 169 158
76 163 141
78 160 144
78 168 151
76 166 154
74 158 143
67 146 129
80 174 160
76 162 148
69 145 130
71 154 141
73 148 123
74 157 140
72 154 141
78 166 149
71 156 143
71 148 126
74 154 128
71 151 137
71 149 125
76 162 145
74 155 142
80 170 153
75 154 127
74 157 137
73 156 142
75 161 144
78 162 139
70 149 122
72 152 135
72 151 132
74 159 136
75 152 123
68 145 123
73 159 145
70 150 133
77 151 123
74 157 133
75 161 148
77 155 130
76 154 126
77 169 159
73 157 140
68 140 117
74 156 135
69 150 132
72 154 132
74 153 127
72 154 136
71 149 120
74 152 129
73 151 123
72 153 127
72 153 123
67 141 108
67 144 121
73 153 127
68 144 115
67 138 105
71 151 125
67 140 106
67 138 106
74 152 123
69 142 110
66 135 95
66 138 97
69 148 118
69 145 110
73 152 120
63 135 106
69 149 123
64 134 97
66 137 95
65 132 97
66 140 101
69 146 106
60 126 82
64 135 95
65 136 99
65 131 84
65 134 90
68 138 95
62 130 76
65 135 91
64 136 90
62 134 93
57 116 54
64 134 88
63 137 97
64 130 80
63 133 91
67 138 99
58 121 60
58 122 73
60 125 80
62 131 86
63 134 93
63 130 81
63 130 82
62 124 75
60 125 78
62 127 73
60 122 73
59 120 72
64 136 96
57 117 58
61 123 74
60 120 70
61 120 65
62 128 82
61 126 77
60 124 77
63 122 75
66 126 79
65 123 85
69 132 87
63 125 78
64 129 90
65 119 70
65 129 93
65 129 89
66 132 92
63 121 82
63 123 71
63 119 64
65 116 71
67 126 89
62 117 71
67 130 99
65 115 66
66 122 76
68 126 93
66 122 84
70 122 97
73 134 105
68 124 90
65 117 84
71 121 90
70 127 90
71 132 110
70 122 93
74 130 103
68 115 82
71 123 101
71 122 97
67 114 83
71 132 108
72 116 92
67 121 97
74 124 103
72 116 95
70 117 90
70 116 82
71 113 94
70 121 99
61 91 62
70 116 91
69 114 94
70 119 96
71 116 95
67 110 86
69 106 83
68 118 100
67 103 78
66 100 79
69 109 84
66 98 76
66 102 80
71 99 80
66 98 78
70 102 78
68 100 80
72 105 87
68 110 91
65 83 57
67 98 76
69 97 76
70 100 76
61 94 73
61 88 66
66 93 72
61 85 62
67 95 73
62 83 62
60 90 69
60 82 64
65 92 66
60 79 54
61 89 65
60 75 54
55 67 47
59 68 46
55 73 52
53 63 43
53 60 38
56 69 47
50 56 35
50 51 31
51 52 30
45 48 28
41 47 28
44 48 28
46 49 28
44 45 25
45 47 27
39 40 22
41 41 23
43 45 25
38 39 20
43 42 23
39 40 22
37 40 21
44 44 24
38 40 21
40 43 22
39 40 20
33 36 19
42 48 27
41 42 23
41 40 22
40 43 23
38 40 22
43 45 26
50 50 29
46 53 32
47 52 32
51 57 36
41 49 29
48 58 38
55 71 50
53 69 50
58 74 54
56 75 57
57 73 50
57 79 60
57 72 51
60 80 61
59 86 67
67 96 77
66 95 77
67 93 74
66 89 68
66 101 83
69 104 87
65 100 83
68 103 87
71 113 97
69 112 97
71 117 103
74 119 107
69 106 89
77 124 112
76 136 127
74 124 111
73 127 117
75 135 126
77 129 120
77 135 126
76 131 121
80 136 128
75 142 135
79 149 144
78 137 129
79 142 135
78 144 139
80 143 135
79 151 148
76 151 148
77 153 149
79 148 144
78 151 148
78 152 148
80 157 155
77 154 150
80 153 149
82 158 156
80 160 160
83 156 154
82 159 157
80 164 164
78 161 161
83 152 150
81 166 167
81 166 167
81 164 164
80 160 159
82 165 166
81 169 171
81 177 180
80 168 170
81 169 171
81 168 169
80 170 173
81 170 172
79 167 169
80 172 174
81 179 182
81 175 178
80 173 176
80 172 174
80 175 179
80 172 175
79 179 183
79 180 185
79 179 183
78 179 183
79 180 185
79 180 185
78 179 183
80 181 185
78 179 183
81 183 187
79 179 183
79 178 182
77 175 180
80 181 185
78 178 182
78 179 183
78 176 180
79 178 182
78 178 182
80 180 183
80 180 183
78 176 180
78 177 182
79 178 182
77 174 178
79 179 183
77 176 180
81 182 185
78 177 180
79 180 183
78 179 180
78 178 181
77 173 176
79 178 179
79 177 178
80 181 183
79 179 181
74 167 170
79 176 178
81 181 183
79 179 181
77 174 175
75 169 170
78 174 174
78 174 173
82 183 182
80 179 179
79 175 175
81 183 181
76 171 171
75 168 168
82 181 179
83 182 181
77 174 169
82 180 177
81 177 175
80 177 173
81 177 173
82 179 174
79 172 167
79 173 166
73 164 160
85 183 176
81 179 173
79 174 168
80 177 168
79 172 167
81 175 169
81 176 170
81 176 167
81 179 171
77 171 163
77 165 155
79 171 163
82 175 165
75 163 152
78 169 158
77 169 162
82 175 164
81 172 166
79 170 156
73 159 146
84 180 167
79 170 158
83 176 165
80 174 162
81 171 153
82 173 158
80 170 154
75 163 152
79 171 158
77 164 152
76 163 151
70 146 125
78 166 157
77 162 148
78 168 154
77 163 146
79 169 155
76 170 158
73 159 143
77 165 156
78 165 154
72 157 139
79 167 154
77 170 158
75 161 148
73 160 146
79 160 135
75 160 144
75 162 146
75 160 147
68 146 132
72 152 139
72 154 134
72 152 135
74 156 139
74 160 151
75 158 142
77 160 143
73 163 156
75 159 140
72 151 138
75 157 137
69 150 134
78 166 151
74 156 142
76 155 132
77 161 144
78 167 152
76 158 135
74 160 147
73 157 143
70 151 135
76 154 128
78 169 154
70 147 129
76 157 140
73 157 140
78 157 136
73 157 142
70 148 133
74 153 128
73 153 133
72 153 133
74 158 138
76 155 125
69 149 125
77 162 144
71 149 127
72 153 131
73 158 136
73 155 133
71 151 129
72 153 127
71 151 127
76 164 145
71 155 133
72 154 129
75 154 125
68 144 110
73 155 123
71 150 121
69 148 120
66 140 106
65 136 105
70 148 118
68 142 108
65 137 105
69 146 116
65 133 91
69 149 121
68 141 99
69 145 114
68 141 105
68 140 99
68 145 110
67 144 110
69 146 118
68 140 93
69 146 112
67 141 105
69 149 118
62 131 88
68 145 114
66 137 99
66 143 106
66 138 103
60 129 84
65 135 91
68 141 105
66 135 88
63 134 93
64 134 88
63 131 90
64 133 84
60 127 85
60 125 72
61 128 78
65 135 93
64 132 85
64 134 91
65 133 88
64 128 76
68 141 109
65 131 87
71 151 120
65 138 98
66 138 101
65 137 95
62 128 78
62 127 81
64 124 75
67 136 101
69 138 104
67 139 103
72 135 102
69 132 94
69 130 89
68 128 83
65 130 86
70 133 98
72 131 89
65 123 86
69 135 102
69 134 100
72 137 98
72 134 97
69 129 87
68 125 88
75 138 111
66 128 94
73 136 105
69 127 96
70 127 95
73 128 102
73 141 115
74 132 91
73 126 96
72 130 111
66 120 92
73 128 99
72 133 105
71 128 104
73 130 109
70 117 90
73 136 117
76 124 104
74 116 88
73 133 112
68 123 106
70 126 109
73 118 98
69 119 100
77 118 97
73 112 88
67 114 87
69 120 97
71 118 96
76 128 110
69 115 94
70 115 98
69 122 102
68 119 103
72 107 85
69 119 101
72 118 102
69 108 90
71 108 83
69 111 93
68 99 74
70 93 73
71 103 86
69 112 95
64 96 75
67 105 85
70 107 89
66 99 76
64 99 78
67 94 70
64 104 84
63 95 74
65 89 67
68 98 76
67 94 74
63 84 63
65 91 68
69 94 73
60 80 58
64 91 66
66 88 66
61 85 63
62 80 58
59 73 51
58 79 58
56 74 51
58 74 53
58 74 55
53 69 48
48 59 38
54 61 41
52 63 42
57 66 45
51 54 34
54 67 45
51 60 36
45 56 34
53 56 35
49 56 34
51 57 35
49 55 33
43 51 32
50 54 33
45 51 32
46 51 30
42 46 27
49 53 32
46 55 33
52 55 35
52 56 34
51 56 36
55 65 43
53 59 37
52 60 39
57 63 40
54 66 45
57 68 45
63 74 54
58 73 50
57 72 50
57 78 58
63 86 67
58 79 58
62 87 68
65 93 73
65 85 65
65 94 75
63 96 80
65 99 82
62 93 72
70 100 84
71 109 94
67 103 87
73 109 94
68 97 78
72 111 96
73 115 100
71 125 113
68 110 95
73 122 110
70 114 99
73 117 104
74 128 117
75 133 126
74 130 120
75 128 119
76 126 114
76 134 125
76 128 118
80 140 132
79 137 127
81 145 139
78 136 127
80 148 143
78 133 124
77 142 135
77 146 141
78 143 137
77 148 142
82 146 141
81 154 150
81 149 144
82 157 155
80 146 141
77 157 155
80 160 159
82 163 162
78 157 155
81 160 159
80 159 158
81 166 167
82 166 167
80 156 155
83 162 161
81 162 163
81 170 171
80 166 167
81 164 163
81 162 162
81 165 166
81 167 168
81 171 173
81 161 162
80 171 174
80 176 179
79 175 179
81 169 171
80 174 178
80 175 179
80 175 179
78 177 182
78 179 183
78 179 183
79 179 183
78 179 183
76 173 178
78 177 182
79 181 185
79 179 183
79 179 183
78 177 182
78 179 183
81 183 187
77 175 180
79 178 180
79 179 183
77 174 178
79 180 183
78 177 180
81 184 187
78 176 180
80 181 185
78 178 182
80 180 183
79 179 182
81 182 185
78 176 179
80 179 180
81 182 185
77 175 178
78 176 180
81 181 182
76 173 175
80 182 185
81 183 185
76 171 174
78 175 176
79 177 179
80 177 178
81 181 182
77 174 175
79 176 175
78 176 177
77 171 172
78 175 175
81 180 179
81 181 179
80 177 177
80 181 180
83 183 181
79 175 173
79 175 174
82 180 177
83 182 179
79 177 174
77 170 165
81 175 170
84 182 177
79 173 169
84 183 179
81 176 174
80 174 169
81 179 177
84 185 180
78 173 168
80 174 169
77 169 161
81 176 167
78 174 166
77 166 160
77 169 160
78 169 163
74 161 155
81 174 165
77 171 162
77 170 163
82 181 172
77 162 152
75 163 155
78 173 164
80 175 165
80 171 160
81 172 162
75 160 145
81 172 160
80 174 163
81 174 160
75 163 152
75 166 153
77 169 158
81 174 168
82 179 171
75 164 149
80 169 161
75 164 151
75 164 153
74 160 151
80 171 156
81 173 161
76 162 147
79 169 161
73 156 143
74 161 151
77 168 156
79 167 155
72 156 144
78 169 162
70 153 138
70 151 135
76 161 148
78 167 154
74 161 151
73 158 148
79 166 147
76 164 150
78 171 155
77 163 140
74 160 147
71 153 138
73 158 144
78 162 141
72 154 142
73 152 132
76 163 150
72 159 150
75 156 140
75 159 143
75 160 141
77 167 159
75 161 147
78 164 147
71 151 136
77 162 146
73 161 149
74 160 147
75 159 138
75 153 129
74 160 142
73 154 138
77 166 150
72 151 130
75 154 131
74 158 146
71 153 133
79 165 142
76 157 136
77 164 150
75 157 135
74 160 140
72 151 123
71 155 136
71 149 123
76 162 138
73 155 136
68 144 127
72 148 118
72 150 127
73 155 129
74 159 140
73 153 129
72 147 112
73 159 140
70 153 125
70 144 112
71 155 131
75 159 136
69 145 118
67 144 118
69 151 125
75 158 135
71 154 129
71 148 116
68 150 127
67 141 106
71 147 112
73 146 106
69 149 115
67 145 114
67 147 108
72 151 121
67 139 95
69 143 108
69 152 121
73 151 116
67 138 91
67 137 98
68 142 99
67 147 120
71 147 108
68 141 101
69 141 101
67 144 110
68 143 101
64 133 92
67 138 98
70 149 116
69 142 98
68 142 103
67 134 85
70 142 103
68 139 100
68 135 90
66 132 80
68 139 93
71 145 111
66 136 101
69 143 109
70 144 109
68 145 109
65 131 84
65 125 70
70 140 99
68 144 110
65 129 84
69 142 110
72 142 101
72 145 114
72 143 113
68 135 97
67 132 94
70 143 110
70 132 93
68 134 94
73 147 119
70 135 95
73 145 120
69 134 101
71 144 116
69 139 112
69 129 100
72 138 114
73 136 104
74 143 113
72 136 110
75 140 108
71 131 98
72 137 109
73 134 99
71 131 104
76 142 115
75 141 122
71 130 99
71 129 103
76 130 108
74 137 115
75 138 123
74 133 112
76 147 133
76 126 101
74 128 105
75 125 100
71 132 107
74 131 105
71 119 102
74 123 99
75 135 119
74 127 107
74 132 112
76 122 101
73 133 119
74 133 117
74 130 113
73 129 111
73 115 95
75 131 116
74 125 112
70 114 97
72 115 99
75 115 95
69 113 89
72 123 107
75 115 96
74 109 89
72 121 106
68 104 83
75 111 93
72 103 80
65 107 88
74 106 87
70 109 91
69 110 90
65 95 75
70 101 81
73 105 88
69 99 77
70 103 85
69 109 90
69 106 88
66 98 77
66 92 70
65 97 78
65 89 69
66 97 80
63 89 70
60 88 67
60 80 57
67 93 74
58 81 59
61 78 57
59 80 60
59 79 58
64 80 58
65 79 56
55 69 47
59 75 53
61 74 52
54 68 45
56 62 39
53 64 41
61 72 49
57 67 44
54 66 44
56 68 46
55 70 48
60 75 52
55 67 43
59 72 49
57 69 49
55 67 46
62 81 60
58 68 44
55 71 49
58 74 50
59 69 48
59 74 53
58 77 55
60 70 49
61 76 55
62 85 64
61 81 61
63 85 64
63 86 67
63 88 68
66 89 69
65 96 78
64 95 75
71 96 77
61 95 78
72 104 88
66 95 75
68 105 89
64 93 75
71 105 88
66 106 91
69 110 94
70 110 94
72 109 94
69 111 95
71 119 106
72 111 97
73 114 100
74 123 111
72 125 114
70 120 107
72 117 104
74 125 114
79 135 126
73 120 107
76 143 137
75 134 125
76 133 124
81 142 136
73 141 133
76 146 140
79 145 139
80 150 147
76 151 148
79 151 146
79 138 131
79 151 148
78 154 152
80 146 141
80 148 143
80 153 149
81 158 156
82 155 152
82 163 162
79 158 156
81 158 156
82 156 154
80 154 151
82 157 155
82 162 161
81 161 160
81 160 158
82 157 155
82 166 166
81 167 169
82 163 162
80 164 166
81 169 170
81 164 165
80 162 162
81 170 172
81 172 174
79 169 172
81 173 175
80 171 174
80 169 171
81 175 178
78 177 182
80 183 187
77 175 180
79 179 183
79 181 185
79 179 183
78 179 183
77 176 180
78 177 182
80 181 185
79 181 185
73 167 170
78 176 178
79 179 183
77 176 180
78 179 183
78 178 182
82 184 187
79 179 183
81 183 185
79 178 182
79 177 180
81 183 185
80 182 185
79 179 182
78 177 180
81 184 187
74 169 171
81 181 183
79 179 182
79 180 183
79 178 180
80 181 183
80 180 183
78 175 176
78 175 178
80 179 179
82 184 185
80 178 177
80 180 181
80 179 179
77 172 171
81 182 183
79 178 176
80 178 179
76 171 171
80 177 175
78 175 175
79 176 175
81 182 180
82 180 179
79 175 175
80 179 176
81 178 177
82 180 177
82 180 178
80 180 177
79 174 171
79 175 170
82 181 179
78 172 168
79 177 173
79 173 166
79 171 168
85 184 179
80 178 174
80 174 169
80 175 168
86 187 179
82 176 168
75 168 161
83 179 173
77 171 163
82 176 170
74 160 154
86 181 174
79 172 164
77 169 163
83 179 173
74 159 152
84 179 171
77 167 162
78 171 163
73 162 154
79 173 166
81 175 169
76 165 157
77 171 161
81 176 168
82 178 169
76 162 157
74 160 147
81 173 161
73 158 152
77 167 157
74 157 148
79 172 164
75 160 150
78 172 165
74 162 154
81 171 163
74 158 142
69 153 141
77 165 158
76 165 157
79 171 164
82 175 163
76 167 156
69 150 135
76 169 163
75 161 149
80 172 165
75 164 154
72 157 144
79 168 155
83 170 155
80 174 164
73 155 143
75 164 156
80 172 163
76 163 153
80 172 163
76 166 158
74 158 142
74 161 148
75 164 153
70 152 144
73 156 145
78 168 155
77 167 154
75 156 134
77 166 157
77 160 140
76 160 140
75 159 142
73 159 151
73 152 135
74 160 146
74 160 143
77 160 138
75 163 149
75 160 142
78 167 155
75 164 150
76 165 151
72 161 150
72 156 142
78 167 155
72 153 133
74 159 143
73 153 133
76 165 159
74 158 140
73 156 140
77 161 140
73 157 136
78 164 146
74 157 133
75 161 144
71 147 118
76 158 136
72 153 131
72 157 140
70 152 133
71 156 133
74 152 123
73 159 140
75 157 129
71 149 120
72 153 125
74 153 121
73 154 123
72 155 131
69 154 133
71 148 116
73 157 131
70 145 118
70 152 125
72 155 127
73 153 121
72 151 123
74 155 127
71 155 129
72 156 133
72 153 123
68 145 112
68 142 108
70 146 116
69 147 116
70 153 129
68 142 100
69 150 118
72 154 123
68 146 115
66 141 102
70 144 109
66 138 96
70 148 115
73 147 110
70 140 97
71 149 122
71 149 117
72 151 121
70 147 117
72 148 116
73 149 117
66 137 101
75 151 119
69 146 108
70 144 113
69 136 96
69 143 107
67 139 99
71 140 99
72 151 123
70 139 106
70 147 124
73 145 112
70 147 115
70 144 111
69 133 98
73 155 135
71 138 103
70 139 110
72 139 104
72 142 112
71 151 126
75 141 119
71 139 109
74 146 127
77 145 126
76 140 109
77 151 124
74 136 108
76 135 104
71 136 107
75 149 128
73 147 117
78 141 115
74 142 124
75 145 129
76 149 132
75 146 125
73 137 118
78 141 124
77 141 123
75 134 111
76 140 118
75 140 128
72 131 106
75 139 118
76 142 131
75 131 106
80 133 111
76 145 135
72 126 110
73 130 114
75 131 109
76 118 99
73 133 121
73 128 110
78 142 131
74 139 129
76 129 113
76 131 118
74 134 122
76 134 121
74 122 107
74 129 114
70 119 107
74 123 108
74 123 111
75 127 109
71 118 98
74 119 103
76 122 109
75 124 109
72 121 106
76 113 98
73 113 92
73 117 102
71 111 95
70 120 108
71 100 75
74 119 100
75 119 103
74 105 86
71 108 89
69 103 84
66 102 84
75 103 83
70 105 86
70 106 87
71 110 93
66 88 66
70 113 97
71 103 86
64 91 72
72 98 79
65 96 74
68 88 66
68 95 75
62 82 60
64 89 68
66 90 71
64 83 61
63 91 71
62 83 63
62 82 60
68 82 60
67 88 66
65 85 64
58 79 57
59 78 55
62 83 61
57 71 48
68 82 61
65 84 62
65 84 62
61 87 67
63 87 67
60 81 59
63 74 50
62 80 59
60 78 57
60 88 69
67 89 69
63 94 75
70 98 78
67 96 77
56 76 54
65 93 73
68 91 72
70 101 84
66 95 77
65 84 63
67 101 82
68 104 89
66 101 83
68 106 90
69 111 94
73 114 100
72 113 97
73 109 94
75 116 100
71 112 97
70 113 99
73 121 108
73 121 109
73 119 105
72 122 110
77 129 117
76 132 122
72 119 106
76 128 116
74 127 115
76 131 122
74 133 124
75 131 121
76 127 116
80 136 127
76 121 109
77 141 135
75 143 135
79 149 142
79 134 125
80 144 138
79 143 136
77 142 135
79 153 148
78 156 153
77 143 137
80 149 144
79 162 162
81 149 145
83 147 142
82 143 137
81 157 155
80 161 159
81 161 159
82 158 157
82 164 163
81 160 158
82 159 157
79 164 165
79 163 162
82 163 162
81 165 166
80 164 164
81 169 170
82 164 163
81 170 172
80 165 166
82 166 166
81 173 175
81 171 173
80 169 172
80 167 169
81 168 169
80 172 174
78 177 182
80 180 183
79 179 183
75 172 176
79 179 183
78 178 182
76 173 178
81 182 185
79 179 183
79 179 183
79 179 183
78 178 182
79 179 183
78 178 182
79 180 183
79 179 182
79 178 182
81 183 185
78 178 182
78 177 182
79 178 182
77 175 178
81 183 187
81 183 185
79 179 182
80 180 183
80 180 183
76 173 175
78 175 175
80 181 182
79 177 180
77 174 175
76 171 172
79 177 178
80 182 181
79 177 180
79 176 177
82 182 181
79 176 177
78 176 177
79 178 181
79 178 178
79 177 177
81 181 181
80 178 177
79 177 177
82 182 182
83 184 182
80 179 178
82 181 179
80 178 178
82 180 179
76 169 168
76 172 170
79 176 174
88 191 187
81 182 177
77 172 168
79 174 171
79 173 169
79 175 173
80 176 172
81 177 173
77 169 166
83 180 174
81 179 174
78 170 168
77 171 163
78 170 165
83 181 177
83 180 173
80 176 170
79 177 170
82 178 171
78 169 163
74 161 154
80 169 162
81 177 173
78 168 164
76 165 159
80 175 171
79 169 162
81 173 166
75 167 162
78 172 163
74 161 158
72 161 153
80 173 168
79 172 165
82 179 173
75 165 157
84 181 178
76 166 158
74 156 145
80 173 162
76 166 159
80 172 164
82 172 161
77 169 157
80 171 160
77 168 160
79 176 168
79 174 167
75 166 160
78 168 160
82 175 164
75 163 151
76 164 152
76 167 160
74 163 156
76 165 159
75 159 142
79 168 158
77 167 157
73 161 150
80 172 162
76 167 160
80 175 170
80 168 157
75 160 149
77 169 160
77 168 158
75 163 151
77 168 160
74 163 150
77 170 164
77 166 153
77 164 153
74 157 140
77 163 142
77 166 155
74 161 153
76 166 158
78 162 146
73 162 157
78 167 155
75 156 138
74 164 158
77 163 146
72 160 149
80 167 153
73 161 147
74 160 142
74 160 145
78 167 150
76 159 142
73 156 138
73 151 129
74 160 142
76 167 157
73 155 131
73 162 150
76 165 148
75 162 148
73 155 138
76 161 140
73 149 121
75 159 142
72 155 133
73 150 123
71 153 132
74 151 121
73 160 135
70 151 133
72 153 131
70 151 131
71 157 135
71 154 131
75 158 131
70 153 133
73 156 133
74 163 148
72 161 146
75 161 142
73 156 131
70 153 125
74 159 140
73 156 133
72 155 133
69 148 120
74 152 125
72 148 120
71 148 118
76 160 135
71 153 127
74 160 138
73 156 129
76 157 129
74 153 123
71 151 120
71 151 118
71 151 122
72 155 136
73 161 143
70 143 105
74 162 140
73 154 127
73 154 121
72 151 118
73 151 115
72 146 109
71 148 118
69 145 115
67 140 104
71 147 121
76 152 129
73 156 134
71 147 120
74 154 128
73 155 131
69 140 97
77 159 142
73 151 122
77 160 144
75 162 144
74 150 121
75 151 120
72 155 127
74 151 129
73 144 117
73 144 109
72 152 129
75 151 126
72 148 123
73 160 145
77 155 134
74 152 131
75 141 115
75 153 129
79 157 140
73 154 133
73 141 117
78 152 133
75 150 134
77 152 136
75 147 123
74 136 107
78 151 131
75 146 124
70 146 126
75 148 130
76 141 120
79 151 138
75 142 122
77 149 130
76 141 126
78 136 116
79 148 133
78 139 118
77 141 128
79 144 126
77 144 125
76 142 129
78 137 121
80 147 134
77 138 124
79 139 123
77 136 122
78 148 137
79 137 118
76 134 120
79 144 136
79 145 132
74 129 113
78 132 119
75 128 109
76 132 115
77 133 123
77 133 124
76 133 119
76 130 114
76 132 122
77 130 118
72 124 107
77 123 108
71 117 100
77 121 102
74 127 112
76 129 116
74 121 101
73 113 96
74 126 112
75 119 102
75 117 104
70 115 97
75 118 103
71 117 103
77 119 103
73 116 103
74 124 111
73 114 99
75 123 107
72 115 100
76 117 100
70 105 89
73 114 98
70 111 94
74 108 88
73 115 99
74 98 78
69 106 89
72 113 95
72 107 89
67 98 79
71 109 93
68 103 84
68 103 87
69 102 84
72 100 81
68 91 69
70 95 75
68 91 70
69 102 83
68 92 73
68 96 76
67 95 76
66 95 75
64 90 71
69 97 79
64 90 69
71 90 71
65 85 65
64 94 73
69 94 73
66 95 76
67 87 65
66 91 70
72 94 74
67 94 75
67 92 70
67 100 82
71 108 92
68 97 77
70 101 83
68 93 74
74 110 93
70 107 91
73 108 92
69 100 83
66 104 87
71 105 88
74 116 102
68 105 87
74 110 94
72 116 103
69 105 87
73 115 101
77 134 124
77 120 107
78 113 98
75 125 114
72 119 104
76 129 118
74 126 115
74 125 112
78 147 140
80 129 119
78 140 132
79 148 143
76 135 126
75 129 119
75 125 115
77 136 127
79 150 146
80 150 145
81 149 143
80 145 139
77 143 136
75 140 134
80 152 148
80 150 146
76 149 144
82 154 150
78 152 148
80 158 155
80 158 156
83 151 148
82 159 157
83 154 151
80 156 154
79 158 158
82 160 158
80 165 166
81 170 172
81 169 170
82 167 168
81 153 151
82 168 169
82 163 162
80 163 164
80 164 164
80 172 175
80 163 164
81 167 168
82 167 168
80 178 181
81 176 179
82 159 158
81 170 172
80 173 177
79 181 185
78 177 182
80 179 182
79 178 182
79 179 183
79 180 185
77 175 180
80 182 187
78 177 182
80 181 185
77 177 182
79 181 185
77 175 180
81 183 187
78 178 182
77 175 180
81 183 187
79 178 182
81 184 187
81 182 185
79 179 181
80 180 183
79 177 180
81 184 186
78 174 176
80 180 181
80 179 182
81 183 185
76 171 174
81 182 183
79 178 182
80 181 183
77 175 177
78 176 177
81 181 183
79 179 181
80 182 183
80 180 180
79 177 177
83 185 187
81 182 183
80 178 179
79 177 180
79 178 177
78 175 175
86 187 185
80 178 177
76 169 167
80 178 177
78 173 172
79 175 173
80 178 176
76 172 171
79 175 173
79 177 174
79 175 172
78 174 173
79 175 173
82 182 181
78 175 172
80 179 175
78 173 171
81 179 177
82 179 178
81 177 173
84 185 182
79 171 167
80 174 171
82 179 174
81 177 174
79 177 173
77 169 166
80 175 171
80 174 168
81 179 173
81 180 175
80 173 168
80 175 169
79 174 169
78 169 166
80 177 171
79 173 167
77 166 158
79 173 166
75 164 159
79 170 163
80 175 166
80 173 170
73 162 156
78 171 165
80 179 176
79 172 167
78 168 155
80 172 164
77 167 161
82 177 168
77 173 168
81 181 176
81 178 174
78 171 167
77 164 154
83 177 167
81 176 174
74 161 157
70 155 149
75 164 158
81 172 162
78 170 160
78 168 163
77 168 164
77 169 163
74 165 159
78 172 170
79 172 163
73 160 150
74 162 154
76 170 166
75 163 150
77 166 154
79 170 163
81 176 170
77 162 147
77 166 157
77 163 153
76 163 153
77 168 161
76 170 164
76 163 155
73 160 149
77 166 153
78 164 151
78 167 157
71 151 136
74 161 151
76 165 153
74 163 149
78 169 157
77 166 152
76 170 166
79 170 153
77 169 159
76 164 155
75 161 145
78 170 161
76 165 153
77 166 154
75 158 142
76 163 150
77 163 145
78 161 138
73 159 145
80 170 157
76 166 155
76 165 148
77 167 155
75 163 150
75 163 151
77 164 148
74 160 144
77 165 150
78 164 146
76 166 153
75 164 150
77 164 150
72 157 140
75 159 136
75 163 148
75 162 140
74 162 148
74 160 144
73 158 136
73 158 135
72 158 140
74 163 151
75 162 142
71 157 136
75 157 129
74 158 131
76 157 135
73 157 131
74 163 148
73 156 131
73 157 135
78 164 142
76 158 138
74 161 140
75 158 133
71 153 129
72 159 136
73 153 123
76 161 140
73 151 120
72 155 132
75 160 138
74 159 137
73 160 140
72 154 124
73 158 136
75 161 138
71 145 112
73 150 117
76 158 132
72 151 125
70 151 120
76 161 144
73 152 129
76 162 145
74 153 128
74 155 130
76 157 133
71 152 123
73 153 129
76 154 124
73 151 124
73 153 127
76 158 133
76 155 137
75 157 133
75 150 124
78 155 132
76 150 127
76 162 142
74 154 129
79 151 121
77 156 136
77 154 132
79 157 136
77 144 124
75 147 122
72 143 114
75 151 131
75 150 126
76 153 130
79 154 139
78 154 137
77 156 140
74 140 120
76 152 134
76 155 134
76 148 127
77 158 146
79 147 118
79 156 147
78 157 143
79 152 137
78 145 124
77 153 139
78 148 131
80 147 125
80 150 136
75 152 139
80 161 149
80 149 135
78 141 126
78 147 135
80 153 142
74 136 124
79 149 139
79 140 125
78 135 118
79 134 121
76 141 128
76 145 137
78 138 124
76 141 131
81 137 122
78 140 131
80 138 125
76 140 129
82 141 130
76 136 125
78 140 129
78 137 124
80 128 112
80 141 131
77 135 126
76 131 122
81 139 128
76 128 117
78 133 122
77 134 121
75 125 110
73 122 105
75 115 97
76 129 117
78 121 105
76 140 131
75 127 115
73 120 106
75 118 104
77 129 115
72 125 111
73 112 96
77 115 99
77 115 101
72 122 111
71 116 102
76 124 112
73 114 99
73 107 88
75 117 101
71 109 93
74 114 98
73 116 102
77 117 100
73 112 94
74 111 94
70 107 91
76 115 100
74 108 93
72 108 91
70 107 91
71 99 79
70 101 81
73 103 85
74 106 87
71 102 83
74 113 96
74 103 85
74 108 90
73 107 89
69 99 80
69 100 82
72 103 84
71 104 87
73 100 82
73 101 82
72 107 90
72 104 87
68 109 92
73 112 95
69 113 96
65 104 87
78 109 92
74 113 97
74 115 99
70 100 82
75 114 100
73 120 105
74 116 101
72 114 100
74 115 99
75 115 98
74 118 103
73 116 101
73 119 105
77 118 104
77 117 102
76 118 104
77 128 117
75 126 115
76 129 120
76 131 120
73 124 113
78 127 116
77 136 126
76 130 120
80 134 124
81 135 127
78 132 122
78 139 132
80 134 124
78 147 142
78 133 123
77 146 141
78 140 133
80 145 138
80 144 137
81 144 138
82 152 148
78 142 135
80 157 154
81 152 148
80 149 145
81 158 156
80 155 153
79 157 154
80 154 151
79 152 149
79 162 161
82 149 145
82 167 168
82 159 157
81 160 159
81 162 161
82 158 156
81 156 155
81 156 154
82 155 153
82 157 155
81 167 168
80 161 161
82 166 167
82 164 165
82 163 162
79 164 166
81 164 165
80 173 177
81 162 162
81 166 167
79 179 183
80 181 185
80 181 185
79 178 182
78 178 182
79 179 183
79 179 183
79 181 185
80 181 185
79 180 185
80 181 185
78 177 182
80 183 187
79 179 183
79 179 183
77 173 176
79 179 182
78 178 182
80 182 185
80 181 185
81 182 185
80 181 185
79 179 181
80 181 183
79 179 181
78 176 180
80 181 183
80 180 183
81 183 185
78 175 178
79 179 182
78 177 178
81 181 183
75 170 171
81 180 181
80 179 180
80 178 178
78 176 177
77 174 178
82 184 185
80 180 178
83 182 182
78 177 176
82 184 185
81 181 181
82 182 183
79 179 181
81 181 181
79 177 176
84 184 183
81 181 181
81 179 179
80 178 177
81 180 176
80 179 176
80 179 179
82 179 178
78 174 173
80 179 178
75 164 163
80 176 175
79 174 174
81 177 175
79 175 174
81 177 173
78 174 171
83 180 175
80 179 175
78 173 173
78 173 168
76 168 166
81 178 173
79 172 168
78 170 166
79 173 172
80 177 175
78 173 168
78 173 171
80 178 174
79 174 171
80 177 175
76 167 161
77 170 167
79 175 173
81 178 175
78 168 165
78 171 165
84 184 182
77 168 162
77 173 171
78 170 163
80 175 168
76 168 161
80 175 173
79 175 169
75 161 154
81 179 171
82 177 170
79 171 162
80 175 169
81 174 164
79 176 174
76 170 169
77 170 162
81 178 175
76 168 165
76 169 165
75 167 164
81 176 168
79 174 170
74 165 164
76 167 159
75 167 158
81 175 168
78 172 165
81 171 160
74 161 157
76 167 162
79 169 157
74 161 153
77 173 174
76 168 161
76 163 153
79 171 164
71 156 151
78 166 155
79 173 168
75 162 153
79 174 170
81 170 159
77 166 159
78 171 165
78 171 164
75 165 156
77 166 155
78 164 147
76 168 161
75 168 163
76 158 140
79 169 161
76 164 155
77 167 155
78 171 165
74 165 158
75 160 151
77 164 149
76 167 157
75 164 155
76 165 153
76 162 148
77 160 144
79 170 159
74 161 142
75 159 142
74 159 138
76 169 161
76 163 153
74 156 136
75 161 144
77 165 151
77 165 153
74 161 150
76 164 148
76 161 148
76 167 153
75 161 148
76 165 151
72 158 142
75 164 148
78 163 140
71 156 135
75 159 142
75 162 148
71 153 135
75 164 151
75 161 142
76 166 155
74 159 138
74 159 138
75 155 129
78 166 150
73 152 123
74 156 131
77 170 157
72 156 138
74 159 136
69 157 138
74 162 148
72 158 138
76 162 140
74 155 127
75 164 148
74 160 141
75 162 144
74 156 129
73 159 136
71 153 125
73 154 126
73 155 131
73 158 136
75 161 140
77 159 137
77 163 147
76 159 137
73 157 133
77 163 147
75 155 130
74 156 131
77 166 155
74 154 125
74 156 132
76 164 149
76 156 129
74 153 123
77 158 139
77 162 144
75 156 139
74 156 134
76 157 137
77 167 154
75 155 134
77 156 140
74 155 141
79 159 135
75 156 136
76 151 129
75 153 136
80 153 132
76 159 141
75 159 142
77 152 135
77 155 146
75 156 143
78 146 119
74 155 136
76 149 128
76 155 143
78 159 149
79 158 147
75 154 135
78 159 149
79 158 147
77 157 147
76 153 136
78 151 139
79 155 144
77 159 153
77 154 143
79 158 147
80 147 135
79 150 132
79 152 139
81 149 135
78 143 128
79 152 146
79 147 134
79 151 139
78 152 145
76 138 118
79 140 124
80 141 125
78 147 134
79 145 136
80 144 133
82 155 147
81 146 136
76 141 132
79 142 131
79 136 124
79 149 141
78 137 126
79 136 121
80 141 132
77 143 134
79 146 139
79 146 137
76 142 135
78 123 109
79 139 129
81 139 133
81 134 121
79 133 115
78 134 123
77 130 117
77 130 118
77 129 118
79 133 120
76 136 124
76 131 117
76 129 116
79 126 113
76 134 122
75 128 117
80 126 113
79 118 102
77 129 117
79 131 119
79 137 129
75 125 112
76 120 104
76 111 94
76 113 97
78 132 119
76 118 103
74 122 110
71 116 100
76 109 91
77 123 111
74 121 106
76 120 106
75 119 105
72 119 105
75 113 98
77 111 94
71 105 88
74 115 100
73 116 101
74 109 93
74 113 97
70 113 98
75 115 99
74 112 97
75 108 90
72 106 91
70 108 93
72 110 94
75 111 95
78 112 96
70 117 103
74 115 99
78 119 104
73 111 94
72 113 98
75 116 100
76 115 100
75 120 107
74 117 103
75 114 100
75 116 101
79 123 110
69 113 98
77 115 100
75 114 100
72 124 112
70 120 106
72 117 104
73 119 105
74 122 108
79 130 119
77 123 110
78 120 105
75 133 124
77 124 111
81 131 121
79 136 127
78 136 126
80 133 122
78 135 125
78 135 126
78 135 125
77 130 121
78 139 131
81 131 121
80 134 125
80 147 141
77 141 135
76 146 140
76 140 134
81 141 133
80 151 147
81 151 147
83 147 141
79 152 148
79 149 145
79 159 158
77 146 140
80 151 148
79 157 157
77 148 145
81 161 160
80 161 160
82 158 155
78 160 160
81 160 160
83 161 158
81 165 166
81 166 167
81 166 167
82 162 162
81 157 157
80 159 158
81 160 160
82 159 158
80 167 169
80 165 166
80 166 167
81 162 162
82 162 161
81 164 165
81 169 171
77 176 180
79 181 185
76 173 178
79 181 185
79 181 185
76 173 178
78 177 182
79 180 183
78 177 182
80 181 185
78 176 180
74 170 174
77 172 174
79 178 182
75 170 174
77 174 178
76 174 177
79 179 182
79 178 182
80 182 185
79 178 182
81 182 185
80 181 185
79 179 181
77 176 178
76 171 174
78 176 180
80 182 184
80 179 182
80 181 183
77 174 176
81 183 185
79 177 178
79 177 179
78 174 174
81 181 183
78 175 178
82 183 185
78 177 179
77 174 175
79 178 176
80 181 182
78 175 175
81 182 182
81 180 182
81 184 183
81 181 180
83 184 185
79 177 177
83 182 182
85 187 185
84 185 185
79 177 176
85 186 185
79 175 175
82 183 183
82 181 181
80 177 176
78 174 173
81 178 178
81 180 181
81 179 179
79 175 176
78 175 172
82 183 181
79 173 170
83 184 183
81 181 178
83 182 182
80 176 175
83 184 180
84 185 182
80 177 176
84 185 182
82 181 178
81 181 176
80 177 175
82 180 177
83 180 177
82 181 179
78 172 170
76 167 163
80 176 174
78 170 168
83 180 178
85 184 179
80 177 173
78 174 168
81 179 172
78 172 170
80 178 176
81 176 172
81 181 179
79 176 174
78 175 173
78 171 168
78 173 166
81 180 176
81 180 177
77 169 163
80 177 175
78 172 170
79 174 172
78 174 176
78 174 171
76 169 168
78 173 172
78 176 174
78 171 165
79 172 168
77 171 166
77 165 155
81 178 176
78 173 166
77 172 169
79 174 170
78 173 170
79 173 164
75 166 162
80 173 167
77 166 161
76 168 161
77 170 168
81 179 176
78 166 157
77 169 162
78 175 174
74 165 161
77 170 166
75 164 157
78 166 153
79 170 161
77 167 161
79 173 167
75 166 161
78 166 155
73 157 150
80 170 161
76 172 168
78 171 165
76 162 148
77 163 151
78 175 174
75 164 149
78 169 159
77 163 148
75 166 157
78 165 151
76 165 151
76 168 159
78 174 167
78 171 168
73 159 146
74 165 157
78 166 155
74 164 153
79 167 151
78 169 159
75 167 157
79 174 168
74 160 150
72 158 144
77 168 157
75 158 140
75 160 142
76 165 155
76 166 149
77 159 138
75 168 159
75 166 151
74 157 133
75 165 151
73 157 138
77 159 135
76 161 140
76 164 146
76 170 161
73 162 146
74 158 140
75 159 138
75 164 146
75 163 150
76 166 150
74 163 146
74 162 142
75 161 142
77 167 151
74 159 138
77 161 142
74 163 151
77 162 140
76 167 155
75 164 146
76 163 144
77 162 140
76 159 136
76 167 156
72 158 135
73 155 132
78 166 151
76 165 151
77 168 155
77 169 157
80 169 155
76 165 150
77 161 142
74 161 145
74 155 128
74 162 145
78 169 155
78 163 145
76 163 149
79 168 154
77 166 151
76 161 140
75 163 145
77 162 149
77 161 137
77 164 149
78 158 140
77 161 138
79 168 154
75 158 140
76 160 143
77 163 151
76 157 139
77 166 152
77 162 150
78 159 141
76 162 145
76 159 144
74 151 133
79 168 158
77 161 145
79 166 159
79 162 151
76 154 139
78 156 143
77 157 140
77 160 147
81 159 151
80 148 127
78 154 141
78 166 158
80 155 146
79 152 139
80 155 142
78 151 140
79 153 142
76 148 136
83 145 123
78 160 151
80 160 155
77 146 129
78 160 153
81 146 133
82 157 146
79 155 144
79 142 126
81 146 131
78 154 143
81 150 136
81 147 136
78 147 134
80 150 141
80 158 156
79 149 137
79 149 144
79 159 154
81 149 140
82 147 139
80 155 147
77 148 141
79 142 134
79 153 147
79 141 131
78 139 127
79 145 136
81 138 123
78 138 127
83 143 132
77 137 127
81 140 134
78 139 129
76 135 125
79 134 125
77 144 137
77 140 132
79 140 133
76 141 134
78 131 118
80 137 124
76 134 126
77 138 129
78 133 123
79 139 131
76 137 127
75 128 116
77 132 121
76 126 115
79 129 115
77 143 135
76 135 126
75 126 116
74 124 112
77 127 115
78 126 113
73 124 112
81 127 113
79 126 113
78 121 107
78 127 114
78 123 110
80 120 105
74 122 109
74 117 101
73 126 114
78 126 113
76 121 108
77 120 105
76 127 116
74 119 106
76 125 112
76 125 113
76 122 108
75 115 100
74 118 105
73 112 95
77 120 106
78 121 107
78 130 119
76 120 107
79 128 117
77 116 102
79 129 116
78 124 112
77 115 100
79 129 117
76 122 109
80 119 105
75 132 121
82 130 119
80 129 118
78 129 117
75 122 110
75 127 115
78 136 128
77 123 111
79 135 125
81 132 123
77 134 124
77 138 130
76 128 118
78 126 115
76 139 131
79 142 136
76 135 125
77 142 134
75 141 135
77 140 133
80 139 131
80 150 145
78 137 128
80 146 140
80 146 140
78 144 137
78 138 131
79 143 136
79 147 142
77 144 139
79 153 150
81 156 153
77 144 137
83 144 138
81 156 153
82 155 152
81 161 161
79 152 150
80 159 158
81 159 158
82 154 151
81 151 148
80 150 146
83 161 160
81 164 164
82 163 162
81 162 162
83 159 157
80 166 167
81 162 162
81 166 167
83 164 164
82 163 162
80 167 168
80 166 167
82 167 168
81 169 170
81 172 174
81 167 168
81 170 172
78 176 180
79 179 183
79 180 183
81 183 187
75 171 176
80 181 185
80 181 185
81 183 187
77 177 182
81 183 187
78 177 182
80 181 185
79 180 183
78 177 182
76 173 175
78 177 182
80 183 187
75 171 174
78 176 180
79 179 182
77 175 178
80 182 185
79 179 181
79 180 183
77 175 177
80 180 183
81 182 185
80 182 185
80 181 183
81 182 185
79 177 179
79 178 182
79 179 181
80 181 182
79 178 180
81 183 185
78 178 181
80 181 183
78 174 176
80 178 180
82 185 187
80 179 178
80 180 182
80 178 179
81 183 184
82 182 183
81 182 182
82 184 185
80 178 177
79 176 178
81 185 186
78 176 176
81 183 184
78 175 176
82 182 183
83 185 184
80 178 177
81 181 182
81 183 182
82 182 181
81 181 182
81 181 181
80 182 182
78 173 172
83 182 182
81 181 180
76 170 169
79 176 175
83 181 178
77 171 170
76 170 169
80 180 179
79 176 174
81 181 181
80 179 179
81 183 181
80 178 176
79 177 177
80 179 175
80 175 169
81 179 177
79 177 176
81 180 181
79 178 179
77 172 170
81 179 178
82 182 181
82 181 180
79 176 171
83 185 184
79 170 164
80 176 173
78 171 167
80 178 175
78 171 166
81 179 177
78 175 173
76 168 165
79 175 176
77 168 167
76 169 164
81 181 181
82 183 183
80 173 166
83 183 182
81 174 166
80 179 178
76 171 166
79 172 166
81 179 175
80 174 168
76 166 162
79 169 163
74 162 159
77 170 168
75 168 166
75 167 162
79 174 171
79 173 168
80 174 168
78 174 169
80 175 170
77 171 167
78 174 170
76 166 157
78 168 163
80 178 175
77 171 167
74 167 166
73 162 150
75 167 165
78 171 167
79 172 163
79 175 175
80 172 162
78 172 172
78 172 165
77 170 162
79 169 161
80 177 172
75 163 151
77 168 161
76 171 167
78 173 167
77 169 161
76 166 155
78 170 165
77 172 172
78 169 159
78 171 165
78 170 165
79 170 159
75 169 170
77 171 166
73 164 163
77 172 167
77 168 159
75 168 163
76 164 155
75 168 165
75 164 150
76 165 157
76 167 157
75 161 142
73 161 153
77 165 151
77 169 159
77 165 150
74 164 153
76 162 142
76 161 144
77 170 161
77 165 148
77 168 159
74 157 138
75 162 146
76 164 151
78 169 153
75 159 140
77 165 151
76 165 150
76 162 144
74 163 151
78 168 153
78 165 150
76 168 155
79 170 159
77 167 153
79 168 151
75 165 153
76 165 150
75 167 153
75 162 146
76 164 146
75 162 140
74 163 146
80 176 172
76 161 142
76 164 148
75 164 148
77 166 150
77 165 150
78 164 145
78 165 152
72 158 140
74 162 147
76 161 138
76 171 165
75 159 141
76 167 155
78 162 143
78 169 156
78 163 149
78 165 147
77 161 142
76 163 149
78 162 147
79 166 156
79 168 157
75 156 127
75 156 134
76 160 142
77 168 156
78 166 154
77 162 150
78 168 157
77 153 132
77 163 153
79 156 140
78 165 158
78 157 135
77 165 152
78 168 161
79 157 142
80 162 150
79 161 150
79 154 137
77 162 151
79 162 148
78 160 148
78 158 148
80 155 146
79 163 159
80 166 158
80 159 147
80 159 151
77 161 153
79 160 155
80 154 144
80 159 152
81 156 147
76 148 138
79 152 143
81 160 155
79 153 143
81 158 153
80 163 158
77 147 139
79 150 141
82 148 140
80 151 142
80 150 141
79 147 135
78 157 152
78 146 137
79 146 141
81 152 147
76 149 139
77 150 143
80 151 141
79 150 138
82 154 152
80 151 148
79 154 151
80 148 143
78 147 138
81 153 148
78 150 143
81 138 127
77 143 135
78 146 137
80 142 132
79 139 132
77 148 142
79 149 142
81 144 138
76 137 128
78 144 137
79 152 147
80 132 121
80 138 130
78 135 126
79 142 135
80 141 134
81 143 134
74 137 129
77 128 117
77 135 124
79 138 130
80 126 115
76 130 118
79 124 111
78 145 137
81 134 125
79 132 122
79 133 123
80 134 125
75 132 123
76 124 112
76 135 125
77 137 129
75 134 123
80 143 137
78 125 114
78 136 127
80 127 115
80 139 131
77 133 123
76 132 122
80 140 131
78 132 121
79 125 112
78 126 114
76 128 117
77 130 119
77 127 114
75 121 107
77 135 125
76 123 111
75 127 116
79 129 120
78 119 105
78 129 117
76 127 116
76 132 121
79 124 112
75 127 116
77 121 108
78 134 125
78 135 125
75 132 121
79 129 118
77 123 110
78 130 119
76 128 118
77 132 123
78 128 117
79 131 121
79 132 121
80 137 128
77 144 138
78 136 126
80 135 126
79 136 127
80 139 130
80 135 127
80 144 138
78 132 123
78 144 138
80 138 130
81 141 134
81 139 132
80 139 132
77 143 138
79 148 143
81 146 141
82 144 138
80 150 145
78 146 142
80 153 150
81 150 146
79 147 143
80 151 147
79 159 157
79 154 151
80 147 141
82 154 151
79 152 148
81 154 151
79 157 154
82 162 161
81 153 150
82 156 154
81 159 159
81 166 167
82 158 157
82 159 158
82 157 155
79 160 159
79 158 158
81 157 156
80 158 157
82 155 154
81 167 168
81 167 168
80 165 166
81 165 165
82 163 163
82 168 169
81 159 159
78 177 182
79 179 183
79 181 185
77 177 181
80 181 185
78 178 182
79 181 185
78 177 181
79 179 183
80 181 185
80 181 185
79 179 183
79 179 183
80 181 185
79 180 182
79 178 182
78 176 180
80 181 185
77 175 180
80 180 183
80 182 185
78 176 179
79 176 178
77 174 178
79 178 181
80 180 182
80 180 183
80 182 184
80 180 183
79 178 182
80 180 183
80 180 183
80 180 182
80 181 182
80 181 183
76 170 172
78 175 178
81 181 183
80 180 183
78 177 179
76 172 174
82 185 187
80 179 182
80 179 179
78 175 175
80 178 180
79 179 181
80 179 182
76 170 172
80 181 183
78 174 175
79 177 176
78 176 177
83 186 187
79 178 179
80 179 182
79 175 176
80 181 180
77 173 176
79 178 177
81 178 178
81 181 181
80 179 181
79 178 179
81 180 179
78 174 174
81 182 182
81 182 182
79 179 181
77 172 172
78 176 174
77 175 176
78 175 175
78 173 172
81 180 179
80 179 178
79 176 177
82 181 179
82 182 183
79 177 177
79 178 176
82 182 182
79 174 174
76 169 168
78 180 178
81 180 177
83 183 181
82 185 187
76 169 168
78 175 171
78 174 175
82 181 177
81 181 181
79 173 169
81 177 171
80 177 175
81 181 179
81 179 176
81 179 178
79 176 171
76 171 170
79 174 166
79 176 173
75 167 166
73 160 154
75 169 167
78 169 167
78 176 176
76 170 170
79 176 175
79 170 163
78 172 168
76 162 153
80 180 182
78 169 165
77 169 163
80 177 176
75 167 168
79 177 174
79 175 172
79 176 176
79 173 168
77 170 166
79 173 168
78 171 168
80 176 172
80 177 176
75 168 165
77 173 169
78 165 153
78 169 160
77 170 166
77 168 164
79 172 165
77 171 167
76 165 157
76 169 165
78 173 168
78 172 167
75 166 161
75 163 153
74 164 161
80 172 163
80 166 151
77 164 155
75 165 155
79 174 172
80 171 159
77 171 167
75 162 151
75 160 146
76 169 161
78 169 159
78 174 172
79 170 161
78 170 159
76 172 168
75 171 168
79 172 163
77 171 167
78 167 155
74 165 161
76 163 150
77 167 157
76 166 155
76 169 161
77 167 155
76 168 163
75 167 155
76 170 165
78 170 159
76 160 148
77 171 165
77 167 157
76 161 144
78 168 155
77 170 159
74 164 151
76 164 153
79 172 163
78 165 151
77 167 155
78 168 159
73 165 155
79 172 163
79 169 159
77 170 159
78 165 150
75 161 140
78 170 159
78 167 150
78 165 144
77 173 167
79 171 162
78 168 157
77 166 153
76 168 155
78 170 159
77 170 159
79 164 142
75 164 148
78 163 142
75 158 136
79 164 144
78 165 148
76 166 152
76 166 150
79 171 162
76 168 158
77 168 156
77 169 159
77 163 144
78 166 153
78 167 155
77 160 139
77 168 159
76 160 138
78 168 158
76 167 159
79 165 150
76 168 161
78 168 159
76 164 149
79 157 139
77 163 151
75 162 151
78 164 152
79 169 161
79 164 153
79 165 157
78 167 159
78 162 148
78 154 138
78 157 142
79 163 151
79 164 152
79 162 150
79 159 145
77 155 143
79 162 147
77 158 146
78 168 164
80 163 157
78 163 157
79 158 148
76 165 158
79 160 150
79 161 151
78 157 143
79 159 152
80 158 147
78 168 164
81 158 147
80 155 147
80 151 140
79 162 160
80 166 163
79 165 162
79 159 152
82 155 146
78 163 158
81 161 155
80 155 148
80 154 148
81 150 139
78 150 141
82 149 139
82 140 127
80 151 144
80 157 151
81 159 156
81 152 147
79 158 155
82 159 153
79 154 147
79 150 143
80 150 145
82 141 134
81 154 150
80 151 145
80 146 139
80 143 134
77 146 139
80 144 135
79 147 142
79 152 148
81 149 144
81 137 128
80 157 154
83 157 152
76 141 132
81 148 141
81 147 143
80 140 130
82 144 137
78 142 134
79 146 140
80 150 143
82 141 133
82 151 146
79 141 133
81 137 129
80 143 136
76 136 127
82 139 131
80 140 132
77 137 128
76 136 127
79 141 134
78 133 124
79 133 124
79 134 125
78 137 127
80 133 124
78 144 137
77 144 136
80 129 117
77 135 126
79 132 122
78 126 114
80 130 119
79 139 131
77 131 121
79 132 122
76 127 117
78 130 120
79 139 130
80 131 120
77 132 122
77 133 125
81 132 122
75 129 119
77 126 113
81 131 121
77 130 118
78 141 134
79 134 126
77 146 139
80 143 138
78 140 133
77 126 115
78 133 123
79 136 128
78 124 112
77 141 134
79 132 122
77 133 123
76 139 133
80 137 128
79 142 135
80 138 130
81 142 133
76 138 132
75 126 115
80 141 135
77 140 133
80 146 141
78 145 139
79 145 139
77 140 133
76 145 139
79 145 139
82 149 144
78 148 143
80 137 129
79 146 141
81 154 150
80 145 139
79 155 153
82 153 150
80 152 148
77 147 143
81 156 153
80 158 155
80 156 153
81 150 145
81 150 146
79 150 145
80 157 155
81 159 158
81 149 145
81 159 157
82 162 162
83 152 149
79 160 160
80 159 159
81 159 157
80 165 165
81 165 166
82 165 166
81 162 161
81 165 166
81 171 173
80 166 167
81 168 169
81 166 167
80 163 164
79 163 164
81 170 172
80 165 166
77 176 180
77 174 178
78 177 182
79 179 183
79 179 183
79 179 183
79 180 183
80 183 187
78 178 182
81 184 187
81 183 187
76 173 178
79 178 182
78 176 180
80 181 185
78 179 183
79 178 182
80 182 185
80 181 185
79 179 183
78 178 181
77 174 178
77 175 179
79 180 183
80 180 183
75 169 172
76 171 174
80 180 183
79 179 181
79 177 180
76 170 170
80 182 185
78 176 179
79 178 180
80 180 181
80 181 183
81 182 185
81 182 185
80 179 181
78 176 179
79 177 180
80 182 185
79 179 182
77 177 177
80 181 183
79 178 179
82 183 185
82 185 187
79 178 179
79 178 180
79 177 180
81 181 183
82 185 186
82 181 181
80 179 181
81 183 184
78 175 178
81 182 182
81 182 185
77 174 175
80 180 181
80 180 181
81 182 183
79 179 181
81 183 184
79 177 177
78 176 177
80 180 181
80 181 183
81 183 184
78 175 175
81 182 183
80 178 179
81 181 182
81 180 179
82 186 186
81 182 182
79 177 178
81 180 180
81 180 179
81 182 183
78 176 175
82 182 182
81 182 182
78 176 177
79 180 181
78 176 178
78 174 176
77 173 172
81 181 183
78 177 179
78 174 173
77 172 172
79 176 174
81 179 177
80 176 174
79 176 175
81 181 180
79 175 172
79 177 179
81 179 175
78 174 176
78 177 180
76 170 170
76 171 168
78 176 177
80 171 162
79 177 177
78 171 166
79 175 174
79 172 167
79 178 179
78 175 176
78 173 172
81 178 172
77 168 167
80 178 177
78 176 176
77 172 168
79 177 178
80 176 172
79 174 170
79 177 175
77 169 165
80 175 172
80 176 174
79 178 178
78 170 165
76 167 163
78 173 172
78 173 168
76 167 161
77 174 174
78 174 174
78 173 172
77 171 166
78 173 168
76 169 167
75 165 159
77 169 163
78 178 182
74 168 167
77 172 170
77 166 159
75 165 159
77 173 170
77 166 155
78 173 167
76 168 165
79 174 172
78 172 168
77 170 163
75 170 168
79 169 159
76 169 159
75 162 151
78 168 155
80 175 168
78 171 165
74 162 146
77 168 161
80 173 165
78 171 165
75 165 153
78 171 167
73 164 157
79 169 157
76 169 161
76 163 148
77 172 165
79 169 157
76 168 159
80 178 178
78 174 172
79 172 165
77 171 167
78 169 159
78 170 159
77 168 153
79 169 157
78 174 170
77 169 161
75 160 142
80 174 168
79 169 155
75 164 151
78 169 157
76 165 150
77 174 170
79 175 170
78 172 167
77 170 157
76 171 161
77 172 167
78 171 163
77 163 147
76 164 150
78 170 159
79 171 161
78 173 165
79 170 157
76 167 154
80 176 172
75 165 148
80 174 167
79 167 156
77 166 150
77 169 163
78 172 163
78 170 164
78 172 165
80 172 163
78 168 157
77 164 149
76 168 155
79 164 148
79 164 153
78 169 160
79 166 150
78 166 154
78 173 168
79 166 152
76 168 159
77 161 143
78 166 152
75 170 165
79 171 166
78 169 161
79 171 162
78 169 158
77 162 149
79 160 152
77 164 147
78 170 160
78 160 145
80 162 148
77 166 162
78 165 156
81 165 158
80 170 164
80 171 166
80 161 151
78 164 158
79 169 166
79 170 170
77 161 155
80 165 158
79 163 157
81 162 157
79 164 156
82 167 160
80 160 150
80 161 158
79 157 150
80 165 160
80 155 147
80 158 152
80 168 165
80 164 160
77 168 167
80 155 150
82 157 147
79 159 152
81 163 163
79 150 144
81 158 149
83 163 158
81 156 148
81 158 154
81 154 147
80 152 145
80 163 161
79 158 149
80 160 156
82 153 146
79 157 153
80 149 143
83 151 144
81 159 151
79 149 142
83 154 148
80 164 161
79 156 154
82 145 137
82 146 139
82 152 146
81 145 135
82 147 140
77 151 147
81 150 145
80 147 141
78 153 149
81 145 138
81 151 146
80 149 143
79 146 140
81 151 146
78 151 145
80 144 136
76 136 129
81 143 137
81 150 145
80 145 140
79 138 130
81 150 145
79 146 140
80 153 149
80 144 138
78 145 140
81 150 145
79 142 134
79 142 135
75 138 130
79 132 121
76 146 140
82 139 131
78 135 126
81 148 143
77 138 130
78 137 128
77 138 129
81 144 137
78 137 128
78 141 133
80 132 122
78 127 117
78 137 129
77 143 137
78 139 132
79 131 121
78 145 139
77 132 121
79 132 122
79 146 140
78 142 134
76 135 126
81 138 131
80 137 129
79 139 131
79 144 137
80 143 137
80 145 139
76 138 130
78 140 133
81 136 127
77 144 137
78 140 133
79 135 126
78 145 139
77 137 129
81 147 141
78 140 133
79 146 141
78 144 137
79 141 133
81 140 133
80 141 134
78 149 145
80 144 139
78 143 138
81 143 137
81 150 146
84 144 138
79 153 150
80 147 141
82 153 150
80 153 149
81 161 159
79 146 141
79 148 143
80 153 150
80 157 155
81 148 144
81 152 149
80 158 157
79 154 152
81 159 157
82 158 156
81 160 158
79 152 148
80 156 154
81 155 153
80 157 156
81 158 157
81 162 162
82 160 159
81 158 156
82 157 154
81 159 158
82 160 160
80 165 166
80 160 160
81 161 161
80 170 172
81 163 163
81 165 166
81 169 171
81 169 171
80 165 166
81 161 160
79 179 183
78 177 182
79 181 185
80 180 183
78 177 182
80 181 185
79 179 183
78 179 183
80 182 187
78 176 180
79 179 183
79 177 180
78 178 182
80 182 185
80 181 185
78 178 182
78 177 179
81 183 187
78 176 180
76 173 175
78 176 180
75 170 174
77 176 180
80 182 185
77 175 180
81 182 185
79 179 181
78 178 181
80 182 185
79 177 178
80 180 183
80 180 183
82 184 187
79 180 182
80 182 185
80 182 185
78 175 178
79 180 182
78 176 180
81 184 187
80 178 180
80 179 179
79 178 182
78 177 180
81 182 185
79 178 181
80 180 182
81 182 185
79 178 181
80 181 183
82 182 183
82 184 185
81 181 183
81 182 183
79 177 180
79 178 180
81 181 183
77 175 177
80 179 181
80 182 184
80 183 186
83 186 187
81 182 185
79 180 182
80 180 181
79 178 178
78 179 178
79 178 179
79 177 177
79 180 180
82 184 184
80 179 179
82 184 187
81 183 184
78 176 175
79 180 182
79 179 181
81 183 182
78 177 179
82 182 182
76 167 167
80 180 182
80 180 178
81 184 184
79 178 180
79 176 176
81 181 183
82 180 180
79 176 177
79 177 177
78 178 182
78 173 174
81 179 178
79 175 172
81 183 185
80 176 174
78 177 180
80 180 182
79 177 177
80 180 179
80 181 183
79 175 174
77 172 172
80 174 172
79 176 176
80 172 166
81 179 180
78 174 172
74 162 157
81 180 180
79 169 162
77 176 180
80 177 178
78 169 165
80 176 172
78 176 175
77 176 180
79 174 168
76 170 168
76 169 167
79 176 172
77 170 163
80 180 183
79 178 182
78 173 168
77 173 176
80 175 170
80 176 174
76 165 159
74 167 166
80 175 172
79 178 180
78 172 168
78 170 167
79 177 174
76 167 163
78 174 172
81 176 172
78 172 172
80 175 172
76 170 167
78 173 167
76 168 165
79 176 176
79 172 165
78 168 159
77 169 161
80 170 159
78 170 163
80 178 178
77 169 163
76 171 168
79 174 168
77 171 167
78 168 163
79 173 168
78 173 168
79 175 170
79 172 165
79 173 167
80 171 163
75 171 170
80 172 161
76 169 161
76 163 151
75 168 165
79 169 159
78 166 153
78 174 170
77 172 167
80 173 167
78 172 165
76 164 155
78 170 163
79 172 165
77 172 167
79 170 159
78 174 168
78 172 163
79 178 178
78 164 148
78 172 161
77 169 161
79 172 163
77 173 170
76 171 165
79 169 155
79 178 178
79 173 165
79 172 163
79 173 165
77 175 174
78 172 163
80 172 161
78 174 168
80 171 161
79 175 170
78 167 151
79 172 163
79 172 161
78 174 168
80 169 156
77 161 140
79 171 161
81 173 163
78 173 167
76 166 150
76 168 156
79 171 159
80 174 167
78 168 159
78 175 171
79 173 169
79 172 169
80 170 159
78 166 153
78 162 146
79 167 155
77 169 157
79 170 164
78 169 159
80 175 174
80 172 162
78 169 162
78 170 166
78 168 158
80 168 156
77 168 161
79 171 165
80 162 154
79 163 151
80 170 161
78 169 161
79 170 169
80 168 159
78 166 163
79 162 150
79 169 164
80 164 156
80 170 166
79 168 165
79 169 163
81 169 164
79 163 156
80 158 153
78 171 167
81 162 152
81 163 153
80 166 159
80 160 153
80 165 156
80 162 158
80 170 168
80 160 153
79 160 151
79 160 157
80 163 155
80 164 158
81 160 154
79 155 148
79 162 156
81 166 163
80 158 153
80 158 151
82 161 160
82 168 167
81 165 162
80 165 162
80 161 159
80 154 146
80 160 156
81 166 165
80 160 149
80 151 145
79 158 156
80 158 156
82 160 158
82 160 157
82 160 158
81 160 154
81 162 160
81 153 147
82 160 158
80 153 148
80 160 158
82 156 149
81 160 158
79 152 147
83 160 157
81 149 142
80 164 162
80 155 151
81 160 157
80 156 151
80 160 159
80 152 147
79 156 152
80 147 140
78 149 143
77 160 159
82 156 154
76 150 147
80 164 164
82 156 151
82 144 138
81 148 144
81 146 141
80 149 146
79 145 140
81 143 137
82 150 145
81 142 134
80 153 150
80 146 140
81 150 146
78 139 132
79 145 139
80 144 136
77 144 137
75 141 133
79 147 141
76 143 136
76 149 144
82 145 138
81 151 147
77 147 142
78 151 148
79 146 140
81 146 139
79 143 136
80 140 132
78 139 131
81 137 129
78 138 130
79 142 135
81 138 130
78 149 143
79 148 142
79 140 132
79 140 132
80 143 137
77 145 139
81 141 133
80 149 145
83 143 137
79 148 143
78 139 133
80 150 144
80 146 141
77 140 133
78 146 142
79 148 142
79 142 136
80 150 145
80 149 144
83 141 134
81 144 139
78 144 139
80 155 151
77 149 145
80 149 145
81 145 140
81 150 146
80 152 148
82 157 155
80 151 146
80 147 144
79 153 151
80 153 150
81 156 154
80 151 147
77 154 151
79 154 150
82 154 152
81 157 154
79 155 154
80 153 149
82 154 152
80 159 159
79 160 159
81 162 162
79 157 156
81 154 151
82 154 151
82 154 151
81 159 158
79 160 160
81 161 162
82 161 161
80 160 159
81 169 170
82 162 162
81 157 155
83 166 166
81 161 161
81 168 169
81 173 175
80 165 167
81 168 169
80 170 172
78 179 183
80 181 185
80 181 185
79 179 182
79 179 183
78 176 180
77 175 180
78 178 182
79 181 185
78 178 181
79 179 183
79 181 185
81 182 185
77 174 178
78 178 182
76 174 178
79 181 185
78 176 180
79 180 183
78 177 179
80 181 185
79 180 183
78 177 180
79 179 183
78 177 182
79 179 183
82 184 187
80 180 183
80 180 182
78 177 179
77 174 178
79 180 183
80 181 183
78 178 181
80 182 185
80 181 183
80 183 186
75 172 174
80 181 183
79 177 180
80 182 184
79 180 182
78 176 180
79 180 182
79 178 182
80 180 183
79 178 182
78 178 181
79 180 183
81 184 187
80 180 183
80 180 183
81 183 185
82 185 187
81 184 186
80 180 183
81 183 185
81 181 183
79 179 181
80 181 182
80 180 181
81 181 183
79 178 181
80 180 182
81 184 186
79 180 182
81 183 185
79 178 182
81 184 186
80 181 183
81 184 187
81 184 187
80 180 181
78 176 177
81 184 186
82 184 187
80 182 185
80 182 182
79 179 181
81 183 184
82 185 187
81 181 183
81 177 175
79 177 180
80 178 178
79 178 180
81 183 185
82 181 182
80 180 176
79 175 174
80 180 181
81 184 187
81 182 183
82 180 180
81 177 174
79 178 179
78 173 172
77 173 174
78 173 169
79 176 175
79 176 175
78 174 174
78 176 176
76 173 174
76 172 174
80 178 178
78 172 167
80 173 167
78 179 181
77 174 178
78 176 175
78 178 179
77 173 174
80 179 179
78 177 177
79 178 177
78 175 174
77 172 170
78 177 179
75 169 168
78 175 176
78 176 178
80 175 170
80 180 182
80 177 174
79 176 175
77 171 168
79 175 174
78 176 178
79 177 178
79 175 172
77 169 167
78 177 176
79 175 170
80 176 174
80 174 168
76 173 174
78 176 176
78 171 167
77 176 180
80 180 180
79 172 167
78 173 170
79 174 172
79 178 180
75 166 165
80 180 182
78 171 167
77 176 177
76 171 165
75 161 155
77 174 174
78 172 168
79 176 174
78 173 170
81 180 180
79 175 170
78 175 176
78 174 174
79 172 165
79 174 170
79 175 170
77 172 168
79 177 178
79 174 170
78 175 170
79 178 176
78 169 163
77 171 161
79 170 159
80 172 165
77 169 163
76 172 170
78 176 174
76 172 167
79 176 172
78 169 161
78 174 167
81 173 165
79 173 167
78 174 168
78 171 165
78 173 165
76 164 155
81 171 159
77 171 167
81 175 168
78 172 163
77 169 157
80 178 176
77 171 163
78 172 167
80 171 159
78 175 172
80 174 167
79 174 167
79 173 165
80 175 168
79 170 162
79 176 172
78 174 170
79 171 163
79 174 167
78 174 172
78 172 165
78 170 159
79 173 165
79 176 172
80 173 166
80 174 168
79 176 174
77 170 160
79 171 162
80 172 163
78 170 158
78 173 167
81 169 156
81 170 159
78 169 164
79 171 167
78 169 161
79 174 167
78 170 163
79 171 162
79 168 157
79 172 164
79 171 165
80 174 170
79 171 163
80 168 155
79 172 168
79 174 175
79 166 152
80 167 160
81 169 161
80 168 160
79 170 164
78 166 157
77 168 161
77 163 154
79 171 169
79 163 149
78 170 166
79 171 167
81 166 162
80 166 160
79 166 158
79 167 162
81 167 164
79 163 153
79 166 162
79 167 160
77 158 151
79 161 154
79 171 171
81 155 148
81 168 163
80 158 151
80 168 166
81 163 155
81 167 163
80 166 164
80 161 159
81 168 162
79 168 167
80 160 154
80 167 164
80 163 161
82 158 150
81 169 167
82 158 153
80 165 163
80 161 159
80 158 155
82 164 163
79 156 153
82 166 165
80 164 164
79 167 168
80 158 153
81 160 159
80 157 154
78 155 150
80 156 151
81 160 157
79 163 161
81 159 157
82 152 147
82 154 149
80 162 162
80 152 149
81 156 153
82 158 156
80 160 157
81 155 151
81 161 160
80 156 152
81 151 146
81 160 157
82 155 151
81 157 155
79 156 155
81 154 152
80 150 146
82 152 148
81 156 152
79 149 145
81 155 150
81 160 159
79 154 151
81 144 138
80 156 153
80 154 150
79 148 143
80 156 154
80 154 151
79 151 148
80 150 146
78 151 148
79 143 136
82 144 138
81 144 138
79 149 143
78 149 145
80 152 149
80 153 149
79 153 149
78 150 145
80 142 136
81 151 147
76 144 139
79 151 146
81 146 140
78 153 149
81 150 146
77 140 133
81 139 132
79 146 141
76 150 146
79 147 143
80 152 148
80 150 146
80 145 140
77 139 132
79 148 143
82 148 142
75 144 138
82 147 143
81 152 148
80 152 148
79 150 145
80 146 141
79 151 147
81 153 149
78 153 148
80 150 146
80 148 145
82 154 151
81 149 145
79 154 151
79 164 164
78 146 142
80 158 156
81 150 144
82 152 147
81 151 147
82 152 149
79 149 145
78 150 146
80 160 160
82 149 145
81 157 154
80 147 142
81 155 153
82 150 147
81 158 156
81 164 163
80 161 160
80 162 162
81 157 154
81 156 154
82 164 165
81 159 158
83 160 159
79 156 155
81 161 160
82 163 164
82 161 161
81 168 169
80 165 166
81 168 169
81 166 167
80 162 163
82 162 161
81 167 168
82 166 166
82 172 174
82 169 171
81 169 171
80 166 167
80 181 185
79 180 185
78 177 182
79 179 183
78 178 183
79 179 183
78 177 182
77 175 180
77 176 180
80 181 185
81 183 187
80 181 185
79 179 183
81 184 187
78 178 181
81 181 183
78 177 182
79 179 183
79 179 183
77 176 180
80 182 185
77 174 178
79 179 183
78 178 181
79 179 182
80 181 185
80 181 185
80 183 187
77 174 177
78 178 182
81 181 183
78 178 181
79 178 182
78 177 181
80 181 183
79 180 183
79 178 182
79 179 181
77 176 179
80 182 185
79 177 180
77 177 178
79 178 182
81 184 187
81 181 183
80 182 185
77 174 178
79 181 185
81 184 186
80 182 185
80 180 182
80 179 182
79 180 183
81 184 186
75 172 174
82 184 187
80 182 185
80 182 185
81 184 187
78 177 179
80 181 183
80 181 185
81 183 185
79 180 183
78 180 181
81 184 186
79 179 182
81 183 185
79 180 183
82 184 187
80 181 182
81 181 183
81 183 184
80 180 183
79 177 179
78 178 178
80 180 182
81 182 183
79 180 182
79 175 174
80 182 184
79 178 182
76 173 175
79 180 183
78 178 182
80 179 181
78 177 180
78 178 181
78 177 179
80 182 185
80 181 183
78 176 175
78 178 181
79 176 178
80 182 184
79 178 182
78 176 177
78 177 177
80 178 177
79 180 183
81 181 181
78 174 174
78 174 174
79 176 176
79 178 180
79 177 178
80 179 182
78 175 176
81 182 183
80 179 179
79 177 178
80 179 180
80 181 183
79 177 178
77 174 176
81 180 182
79 175 172
77 173 176
79 178 177
80 178 180
78 174 174
79 178 178
75 170 172
79 179 183
77 172 172
78 174 174
78 172 170
78 170 163
80 179 182
78 178 180
77 172 172
77 176 180
79 176 174
77 168 163
77 171 170
78 173 172
79 174 170
79 176 176
76 170 170
81 179 180
80 181 183
79 179 180
79 171 165
78 174 172
79 177 178
78 169 164
79 176 176
78 175 174
79 173 170
78 172 170
77 171 168
80 175 172
79 177 178
76 171 170
79 173 168
78 174 174
78 178 182
78 173 170
78 174 170
79 177 176
78 173 170
78 171 168
77 171 170
78 173 168
78 173 170
77 170 163
77 175 174
78 173 168
77 172 167
80 178 178
77 172 168
77 173 170
79 178 176
77 171 167
80 176 174
78 175 172
77 176 176
79 171 163
79 169 155
79 172 165
77 171 165
78 173 165
79 171 161
78 175 172
79 172 163
80 174 167
79 176 174
79 171 163
78 167 155
79 174 170
79 175 168
77 171 167
80 176 172
80 172 161
79 175 170
79 176 172
78 170 159
78 174 168
79 174 168
81 174 167
78 172 163
79 173 167
81 177 174
80 176 172
79 176 172
78 176 174
78 176 174
79 175 170
78 176 172
79 170 157
78 174 168
80 172 165
79 174 170
79 172 167
80 174 167
78 173 168
81 168 155
78 174 171
77 167 156
80 177 175
81 174 167
80 177 177
79 177 177
79 173 169
78 171 164
80 168 155
80 172 164
79 174 168
79 168 164
79 173 170
79 173 167
80 175 171
79 168 160
80 174 174
81 174 170
78 170 166
79 171 165
79 171 167
77 168 162
80 169 161
79 171 167
80 170 166
80 172 168
79 167 158
79 172 169
80 170 165
80 167 163
80 174 172
79 168 165
78 170 167
80 172 169
80 162 158
80 166 161
81 165 152
79 169 164
79 162 157
80 168 162
80 168 166
80 166 160
80 168 167
80 167 163
81 171 170
81 169 164
81 167 163
81 162 156
79 169 168
81 171 173
80 162 157
81 164 165
81 164 162
80 173 174
80 167 167
80 166 168
81 163 162
81 169 170
80 167 166
81 160 158
81 163 159
80 154 147
82 162 159
80 164 162
82 163 158
80 162 162
78 156 154
81 164 162
79 158 155
80 163 162
80 155 151
81 161 158
81 161 159
81 162 160
81 161 159
80 159 156
82 155 153
81 160 157
81 156 155
79 161 159
79 162 161
82 157 155
82 164 163
80 168 169
81 162 160
80 153 148
80 159 157
81 155 151
80 155 153
80 145 140
80 156 154
81 157 156
80 157 154
80 153 150
79 148 144
82 163 162
80 160 159
78 152 148
78 155 152
80 158 155
80 157 155
81 154 151
80 152 148
78 147 142
79 155 151
82 157 154
81 148 143
79 150 145
78 154 151
79 156 154
82 149 145
81 149 145
82 152 148
81 147 143
80 148 143
79 143 135
80 154 152
81 151 147
81 151 147
78 148 144
80 150 145
80 154 150
80 149 145
81 158 157
81 148 143
80 145 139
80 147 141
81 153 149
79 147 142
81 147 142
77 155 153
76 146 141
82 150 145
79 144 139
79 157 155
80 154 152
82 151 147
80 148 143
81 150 146
81 150 146
78 152 148
82 149 145
78 150 146
79 153 151
79 152 149
82 158 157
80 152 148
80 154 150
80 164 165
81 149 144
80 157 156
82 151 147
81 155 153
79 157 155
81 157 156
80 167 168
80 158 157
80 158 156
80 162 162
82 162 161
82 163 162
81 155 154
81 158 156
81 161 161
81 159 158
81 160 159
82 165 165
79 157 155
79 161 160
80 166 167
81 168 168
80 169 170
80 170 171
82 161 160
81 171 173
81 165 166
81 168 169
82 167 167
82 166 167
80 163 164
81 170 172
81 174 177
80 165 167
76 174 180
79 179 183
79 181 185
77 176 180
79 181 185
81 183 187
78 178 183
80 183 187
80 181 185
77 175 180
78 178 182
80 183 187
79 181 185
81 183 185
80 181 185
79 179 183
78 177 182
80 181 185
78 179 183
81 182 185
78 179 183
79 180 183
79 178 182
80 181 185
81 183 187
78 177 179
80 181 185
78 177 182
79 180 183
78 179 182
79 180 182
79 180 183
78 178 181
79 179 183
80 181 185
80 181 185
78 177 182
78 178 181
78 177 179
78 178 181
80 180 183
78 178 182
77 176 179
79 177 180
81 183 187
78 175 177
74 170 173
80 182 185
79 179 183
79 181 185
79 178 182
79 181 185
80 181 185
80 180 183
80 181 185
81 184 186
76 174 174
80 180 183
79 180 182
79 179 183
81 182 185
78 180 180
77 175 177
78 175 178
79 180 182
81 183 187
79 182 184
80 182 184
79 179 181
81 184 187
80 181 185
80 183 184
80 182 185
78 179 180
79 180 183
77 174 178
79 180 183
81 181 183
79 179 183
80 180 183
79 180 182
81 184 186
78 178 180
78 177 180
80 181 183
79 179 181
79 176 177
80 180 183
80 181 183
76 174 177
78 176 177
80 178 180
78 176 180
80 179 182
79 179 182
80 182 185
77 171 170
80 176 174
78 175 176
79 177 178
80 182 185
78 176 178
77 174 174
77 175 178
80 179 180
81 181 182
77 173 174
81 181 181
80 183 187
74 168 170
80 176 172
78 179 183
79 178 182
80 179 182
79 179 182
79 176 176
77 173 174
80 179 179
78 174 174
78 178 182
77 175 178
78 176 178
80 179 180
80 179 180
78 173 172
79 178 179
78 177 180
79 177 178
79 178 177
80 179 180
78 176 178
79 177 178
77 174 176
79 180 183
77 172 170
76 171 170
77 175 178
78 172 165
80 179 178
78 175 176
80 177 176
79 174 172
79 176 176
76 169 165
78 174 172
77 171 168
80 175 172
80 176 174
79 177 176
78 174 174
81 177 174
77 170 167
80 178 178
79 175 170
79 178 178
79 177 176
78 174 174
80 176 172
78 176 178
78 175 174
79 173 165
78 173 168
79 175 172
79 174 170
78 176 178
80 175 172
79 173 165
80 174 167
77 173 172
79 170 159
78 173 170
78 171 161
79 174 168
76 172 168
78 173 168
77 173 170
80 179 178
80 178 176
79 175 170
78 172 165
77 171 167
77 172 168
79 168 159
79 174 168
80 176 172
78 176 174
79 174 170
80 169 157
80 175 168
79 176 172
79 177 176
77 171 163
78 175 172
78 173 167
80 176 172
78 174 168
81 177 174
78 176 172
80 173 165
78 174 167
78 176 176
80 177 175
78 172 163
78 174 168
81 176 170
78 173 167
81 176 170
79 177 174
80 174 167
80 173 165
79 175 170
79 176 177
80 179 180
82 172 164
80 175 172
80 172 163
78 174 168
79 174 169
79 173 171
79 173 165
80 169 160
80 178 178
79 176 172
78 175 175
80 172 166
79 176 173
77 173 167
78 175 175
80 174 171
77 172 172
79 174 169
80 174 172
79 174 172
79 177 178
81 173 167
80 172 167
82 169 160
80 174 170
80 173 170
79 173 170
80 169 164
78 172 170
79 170 167
81 178 178
79 175 176
80 168 162
81 176 175
80 173 169
77 167 168
79 171 167
80 174 176
78 164 162
81 166 160
80 172 172
78 168 166
79 169 167
80 173 172
79 168 166
81 165 161
79 168 166
81 172 173
82 167 163
80 171 171
81 164 155
80 168 168
80 175 179
80 169 165
81 162 161
80 165 165
80 172 175
80 161 157
81 171 171
80 169 168
83 163 159
80 167 166
81 164 161
80 161 159
82 167 166
80 166 166
80 167 167
80 169 170
81 165 164
81 162 161
80 164 162
82 164 163
82 162 160
80 164 164
80 162 160
81 165 164
78 158 158
82 166 164
80 160 159
82 165 164
80 157 154
80 168 169
80 161 159
82 165 162
82 158 156
81 159 156
82 163 163
80 160 159
80 150 145
81 166 165
81 161 160
79 168 169
80 157 156
81 167 168
79 148 143
81 153 149
79 159 157
81 157 155
81 158 155
80 154 152
81 161 159
80 163 163
78 156 154
82 152 149
80 160 159
78 153 152
80 156 153
81 157 155
80 154 151
78 152 150
80 162 161
81 160 159
80 160 159
80 150 147
78 148 143
78 152 149
80 159 157
80 150 146
80 155 152
81 148 143
80 148 143
79 151 148
81 159 157
81 153 150
81 154 151
80 159 158
81 151 147
82 155 152
78 153 150
79 150 145
81 155 152
82 152 148
81 159 157
80 154 150
80 153 149
80 155 152
79 148 144
80 149 144
81 156 153
80 153 150
80 156 154
81 160 158
79 149 144
80 159 158
81 157 155
81 153 150
78 160 159
79 142 137
80 152 149
81 163 163
81 152 149
81 157 154
81 160 160
81 158 156
79 151 148
80 160 159
81 157 154
80 162 161
81 160 158
82 158 156
81 161 161
78 149 145
80 163 163
80 159 158
80 164 165
81 153 151
82 158 158
81 156 156
81 163 164
81 164 164
80 162 163
82 166 166
80 167 168
80 168 169
81 162 162
81 155 153
81 164 164
81 167 168
80 166 168
80 167 168
81 164 165
81 165 166
81 171 173
81 171 173
80 172 175
81 165 166
82 168 168
78 179 183
77 176 181
78 177 182
79 179 183
79 180 185
78 177 182
79 181 185
80 183 187
80 183 186
79 181 185
80 182 185
79 179 183
79 180 183
80 181 185
79 181 185
79 180 183
78 179 183
80 181 185
80 181 185
80 181 185
79 179 183
80 183 187
79 181 185
81 183 187
79 180 183
80 181 185
78 177 181
79 180 183
80 181 185
78 176 180
80 182 187
79 178 182
79 179 183
79 179 183
78 176 180
80 182 185
80 181 185
78 176 179
79 181 185
81 183 187
80 182 185
79 179 183
81 183 187
79 180 182
81 183 187
80 181 183
80 182 184
76 174 177
80 181 185
81 184 187
79 180 183
81 184 187
80 182 185
78 178 181
81 181 183
81 182 185
78 177 180
79 180 185
81 182 185
78 179 182
78 176 177
79 178 182
78 178 181
80 182 185
79 180 183
78 176 180
80 183 187
80 183 187
80 179 182
80 181 182
81 181 183
80 182 185
80 180 182
80 182 185
78 176 178
78 177 180
80 181 185
82 182 183
76 173 178
80 182 185
80 181 183
78 178 181
77 175 177
77 175 175
80 181 183
80 181 182
80 178 180
78 177 180
78 175 178
77 175 179
81 182 185
79 178 179
78 177 180
81 182 183
80 182 185
81 182 185
79 178 182
79 178 180
77 176 180
80 180 182
79 178 181
78 176 180
78 175 178
80 181 183
78 175 178
79 180 183
78 178 180
78 177 180
81 181 183
78 177 180
76 170 170
80 182 185
76 171 172
76 174 178
80 179 177
78 178 181
78 174 176
76 173 174
76 171 172
79 179 182
78 176 178
79 173 168
79 178 178
80 178 178
76 170 170
78 179 183
80 176 174
79 177 180
79 176 174
79 175 174
75 169 172
81 181 183
77 173 172
80 178 178
79 176 176
78 176 176
80 175 174
79 177 178
79 177 178
79 174 170
79 176 176
77 172 168
79 175 174
78 173 172
80 175 168
80 179 180
78 173 170
77 172 172
79 178 178
79 176 176
80 174 168
78 176 178
77 175 176
78 177 178
80 176 172
79 178 178
79 173 168
80 179 180
78 171 165
78 172 167
78 176 174
79 179 180
79 176 174
78 175 172
78 172 165
81 179 178
77 172 172
80 176 172
79 180 182
79 179 182
78 172 168
80 178 178
80 172 165
79 176 172
80 173 167
79 177 176
79 174 168
77 172 167
78 176 174
79 173 168
80 171 161
78 173 170
80 179 180
81 175 170
78 176 174
78 174 167
80 177 174
77 172 165
80 177 176
80 176 172
77 174 172
79 174 170
81 174 167
79 177 174
80 172 163
80 174 167
80 174 167
80 179 178
80 177 174
79 175 171
80 174 167
79 177 174
79 176 172
80 180 183
80 174 167
80 174 169
80 180 182
79 177 174
79 176 174
79 173 165
79 174 168
80 177 175
79 176 175
80 178 176
77 172 165
81 173 165
78 175 172
79 177 176
79 174 167
78 176 172
78 172 165
80 174 170
80 176 175
79 176 178
82 173 165
81 173 169
78 167 163
80 174 170
78 175 173
80 174 167
80 174 169
80 169 161
81 174 173
80 174 168
79 177 178
78 170 164
79 175 173
80 172 166
78 170 168
80 169 166
80 174 170
79 167 159
79 169 162
79 172 170
80 173 172
80 170 164
81 173 172
80 172 169
81 170 162
79 171 167
80 170 167
80 169 162
80 173 169
80 173 172
80 176 176
79 169 167
80 160 156
80 169 168
81 171 170
80 173 174
82 166 159
80 172 172
81 162 158
81 170 169
82 170 166
81 169 167
79 170 171
79 172 175
79 164 162
83 168 165
80 167 167
80 168 170
81 166 166
81 163 159
80 173 175
81 165 164
81 164 160
82 166 161
80 169 168
80 168 169
79 169 167
80 168 168
80 167 167
79 169 171
80 167 168
82 166 166
81 162 160
81 174 176
80 163 163
80 165 165
80 168 168
81 167 166
81 169 169
83 155 151
80 165 165
81 156 152
81 166 167
80 168 169
78 163 164
81 158 155
81 164 164
81 160 159
80 161 161
80 160 160
82 161 160
80 160 159
81 163 163
79 163 163
81 163 163
80 163 163
82 163 162
79 166 167
79 157 156
81 163 162
81 154 150
81 162 162
80 164 164
80 155 153
81 165 166
80 159 158
81 158 158
80 153 151
79 165 166
80 158 157
79 159 158
81 150 146
79 159 159
81 157 156
78 151 149
81 164 165
80 153 150
79 161 158
82 153 150
81 169 170
79 159 159
79 161 161
80 161 161
80 158 157
80 154 151
77 152 151
83 148 142
80 155 153
79 152 149
79 159 157
81 157 155
80 159 158
81 161 161
81 156 155
81 162 162
82 159 157
81 157 154
80 164 164
79 161 160
80 147 143
78 154 151
80 160 157
80 162 161
81 160 158
82 155 152
81 160 159
79 150 146
81 161 161
81 152 148
80 161 161
81 158 156
82 159 157
82 161 160
80 166 166
81 155 153
80 154 153
80 161 160
81 160 160
82 160 158
81 166 167
80 159 159
79 163 163
82 165 165
81 156 153
81 164 164
82 160 158
82 165 164
81 164 165
79 168 170
81 168 168
81 169 170
82 164 165
80 163 164
81 162 162
82 166 166
81 172 174
81 160 160
82 168 168
82 160 160
80 170 173
82 164 165
82 160 159
80 170 172
81 169 171
80 170 173
80 170 172
77 175 180
79 180 185
80 181 185
76 173 178
80 181 185
80 183 187
77 176 180
79 181 185
79 181 185
79 181 185
80 181 183
79 181 185
80 182 187
79 182 186
80 181 185
78 179 183
80 181 185
80 182 187
80 181 185
79 179 183
79 179 183
80 181 185
79 180 185
80 183 187
79 179 183
78 178 182
80 181 185
76 173 178
79 178 182
78 176 180
81 183 187
81 183 187
79 180 183
79 181 184
80 182 185
79 180 183
81 183 187
77 176 180
77 176 180
81 183 187
80 180 183
79 181 184
81 183 185
80 183 186
81 183 187
79 181 185
80 181 185
80 181 185
80 180 183
80 183 187
78 178 181
80 181 185
80 182 184
80 182 185
79 181 185
80 181 185
80 181 185
78 178 181
79 180 183
79 178 182
79 180 183
81 183 187
77 177 181
76 174 177
79 180 183
78 177 179
80 181 183
81 183 187
81 183 187
81 183 185
78 179 183
79 179 183
79 179 183
80 181 185
77 176 180
79 179 182
80 181 185
80 181 185
80 181 185
81 183 185
78 176 180
78 177 181
78 176 179
76 172 176
78 176 178
78 176 178
79 179 182
78 177 180
79 180 183
78 178 182
79 178 180
80 178 178
79 179 183
81 181 182
80 180 183
77 178 181
78 176 177
80 180 183
80 182 185
81 180 182
79 180 183
76 173 176
79 179 182
79 179 183
79 176 176
81 181 183
80 179 182
78 179 183
77 175 177
79 178 180
80 182 185
76 172 176
79 178 180
77 173 174
78 175 178
79 180 183
79 177 180
77 174 178
79 176 176
79 177 178
80 173 168
81 179 180
78 178 182
78 176 180
80 176 176
78 178 183
78 177 182
78 178 182
79 181 185
79 179 182
80 179 180
81 180 180
79 176 176
81 179 180
79 179 183
79 181 185
78 178 182
77 174 174
79 179 180
80 182 185
78 175 176
77 175 180
80 179 182
80 180 182
80 176 172
79 175 172
79 178 180
77 170 167
79 174 174
78 172 168
78 175 174
78 171 165
79 173 168
80 181 185
79 171 163
78 171 168
79 175 172
78 175 174
76 170 167
80 174 168
80 178 176
78 172 168
79 173 168
78 172 168
81 178 176
80 176 172
79 174 168
77 174 174
79 176 176
80 176 174
79 177 174
79 177 176
78 175 172
81 178 176
79 172 165
79 176 172
80 175 170
78 172 163
79 178 180
79 177 174
81 176 172
82 177 172
81 178 174
80 176 172
80 178 178
80 179 180
79 173 167
77 174 172
80 175 170
79 180 182
79 179 180
80 179 178
79 175 168
80 179 178
78 171 163
79 178 178
79 173 168
81 178 176
78 176 172
79 179 180
80 179 180
81 174 167
79 177 174
79 179 180
79 177 174
81 176 170
79 177 176
80 177 174
80 178 176
80 177 174
80 175 168
79 178 178
80 177 174
81 178 176
81 177 174
78 171 164
80 175 174
79 175 174
79 176 173
79 174 171
79 173 168
79 178 178
80 176 170
81 178 176
81 180 180
79 176 177
80 176 175
80 177 177
80 174 169
79 172 167
79 177 177
80 176 175
79 173 173
80 174 172
78 170 165
79 175 175
79 174 173
80 175 172
79 177 176
80 171 163
80 167 158
81 173 170
79 173 169
79 172 167
80 172 169
80 170 166
78 174 175
80 175 174
79 167 161
80 172 169
81 173 167
78 176 177
80 171 171
80 171 170
79 176 178
80 175 174
79 179 182
80 173 173
79 171 167
79 177 181
80 168 166
80 168 166
81 175 176
81 172 168
79 167 166
80 161 156
79 175 177
81 164 162
79 171 171
80 170 171
80 168 169
79 164 158
80 166 166
80 172 175
80 165 166
81 170 170
81 170 168
81 170 167
80 171 172
80 175 179
80 167 168
80 167 169
81 169 170
81 170 173
81 162 161
81 169 166
80 169 171
80 169 170
80 166 167
80 168 167
80 171 172
80 160 160
80 158 155
80 160 159
81 166 166
80 175 178
81 167 166
82 169 171
80 166 168
81 168 169
82 164 163
80 159 158
79 173 174
82 158 156
81 167 168
81 167 168
80 167 169
81 163 163
80 161 161
80 163 164
80 161 161
80 162 163
80 161 161
83 156 153
80 166 167
80 163 163
81 160 158
79 163 163
83 157 155
81 166 167
82 158 157
80 166 167
79 163 164
81 165 166
80 160 159
81 164 164
81 158 156
80 162 163
79 161 160
80 160 159
81 165 164
80 159 157
79 156 154
80 150 146
80 165 166
81 160 159
83 165 165
80 165 165
81 157 155
82 156 154
79 162 161
80 165 166
79 160 159
81 158 156
79 157 155
80 153 151
80 161 161
82 166 166
81 159 157
79 158 158
80 159 157
79 160 160
81 159 157
80 155 154
79 167 168
81 156 155
82 163 162
80 158 156
80 164 164
80 157 156
80 157 155
80 164 164
82 161 160
80 164 164
79 152 150
80 158 157
81 162 161
79 157 155
81 162 162
82 155 153
82 167 167
80 170 171
80 160 159
81 167 169
79 167 168
80 163 164
80 163 163
81 156 153
81 159 157
81 165 166
80 164 164
82 166 167
80 159 159
81 163 163
80 171 174
79 165 165
80 157 157
82 162 162
80 169 170
82 163 162
81 162 162
81 169 171
81 168 169
79 167 168
81 169 171
81 169 170
80 174 178
81 173 175
80 174 178
81 163 164
79 179 183
79 181 185
80 182 187
78 177 182
80 181 185
80 181 185
79 180 183
80 182 185
81 184 187
77 177 181
79 179 183
80 181 185
78 179 183
79 179 183
79 182 186
80 181 185
79 180 185
78 177 182
79 179 183
79 179 183
78 178 181
77 176 180
80 183 187
79 179 183
80 181 185
78 178 181
81 183 187
79 180 183
80 181 185
78 177 182
80 183 187
81 183 187
79 179 183
78 177 182
75 170 174
79 181 185
80 182 185
77 175 179
81 183 187
78 177 182
79 179 183
78 179 182
79 179 183
79 181 185
78 177 182
78 179 183
81 183 187
79 180 183
78 179 182
81 184 186
79 180 183
80 181 185
79 179 183
80 181 185
78 178 182
80 182 184
80 182 184
77 177 182
80 181 185
80 181 185
78 178 182
78 178 180
80 182 187
78 177 182
77 175 180
81 183 187
79 180 183
81 183 187
80 183 187
76 175 179
80 182 187
80 183 187
78 178 181
80 181 185
81 183 187
80 182 183
79 179 183
79 179 183
81 182 185
78 179 183
79 178 180
80 180 183
79 179 183
79 179 181
80 183 187
78 177 182
79 180 183
80 181 185
78 177 182
80 182 185
80 182 185
80 183 187
79 179 183
79 179 183
81 181 183
80 181 183
79 178 180
79 178 182
81 182 183
79 178 180
78 179 183
79 177 178
81 181 182
80 181 185
77 174 178
78 177 180
78 179 183
78 179 183
80 182 185
80 181 185
79 179 182
77 175 180
78 179 183
78 176 177
79 180 182
78 177 180
78 176 178
79 178 180
77 176 182
79 179 182
79 179 182
78 176 180
80 181 183
79 178 180
79 178 182
80 179 182
78 175 176
78 175 176
78 177 180
77 176 180
79 176 176
78 176 178
80 181 183
80 178 178
79 178 182
78 176 176
79 176 178
79 179 182
79 175 174
77 176 178
79 179 182
77 175 178
79 177 178
80 175 170
81 180 180
81 179 180
77 174 174
78 176 180
80 180 182
78 176 178
78 176 178
78 177 180
79 177 178
78 176 176
80 179 180
80 174 168
79 177 176
78 177 178
80 180 182
79 174 170
78 175 172
79 178 178
80 177 176
80 178 178
80 175 170
79 176 174
79 177 176
78 178 178
78 178 180
80 177 176
77 174 172
79 176 172
81 177 174
79 177 178
78 176 174
79 178 178
81 179 178
78 177 176
81 180 180
79 179 180
80 176 172
80 180 183
80 179 180
80 176 170
79 175 168
78 176 176
79 176 172
80 175 168
79 174 167
79 177 176
80 179 178
79 176 172
80 179 180
79 176 170
79 178 178
80 178 178
80 178 176
80 178 178
80 177 174
81 175 170
81 180 182
79 174 167
80 178 176
80 180 183
78 176 174
81 175 168
80 175 168
80 176 175
80 175 170
79 179 180
79 176 175
80 176 172
80 177 174
81 179 180
79 175 173
80 177 174
80 180 182
80 173 165
80 179 180
79 177 177
81 179 178
80 176 172
80 175 170
80 176 175
80 177 174
80 178 178
80 177 177
80 175 171
79 173 168
80 174 167
79 178 180
77 173 172
80 177 174
80 176 173
79 175 173
79 179 180
81 178 177
80 172 169
79 178 179
80 180 182
80 177 179
79 175 175
80 177 178
80 175 176
81 176 174
80 174 176
79 177 178
79 178 179
78 172 169
79 177 177
80 174 172
80 176 177
79 179 180
80 177 177
80 176 175
80 173 169
79 171 168
80 169 165
79 173 173
81 166 162
81 171 170
81 173 173
80 177 179
80 169 168
79 172 173
79 172 170
80 171 172
80 174 173
80 167 169
79 174 177
79 174 178
80 173 176
80 173 173
81 171 171
80 168 169
79 166 166
79 168 169
80 172 175
81 172 172
79 166 166
80 174 177
80 177 181
79 173 176
80 173 176
81 172 173
80 170 171
81 171 173
81 171 169
82 164 162
80 168 171
80 171 174
82 166 166
80 167 169
82 169 169
79 170 173
81 159 159
81 162 161
81 165 166
80 166 166
80 168 167
81 167 168
80 175 178
81 172 174
81 168 169
81 169 170
81 165 166
81 165 166
80 161 161
80 170 171
81 169 170
80 165 166
80 164 164
80 172 174
81 163 163
78 162 162
80 167 168
80 159 159
80 157 157
80 161 161
80 157 155
82 164 165
81 154 153
79 166 168
80 164 164
81 165 166
81 156 155
81 159 158
80 152 148
80 163 163
82 164 165
81 160 158
81 165 166
81 158 157
81 161 159
81 163 163
80 164 164
80 162 162
81 164 164
80 167 168
80 166 167
79 167 167
79 160 160
80 168 169
77 162 162
80 160 159
79 157 155
81 165 166
80 170 171
80 159 158
81 166 167
80 160 160
81 159 158
81 164 164
80 163 163
81 164 164
80 161 161
79 164 165
81 166 167
79 161 161
80 163 164
81 160 160
80 164 164
80 166 166
80 157 155
80 154 153
79 161 161
82 160 160
79 155 154
80 166 167
81 161 161
80 165 165
81 166 167
82 163 163
80 162 163
81 164 164
80 169 172
81 167 168
81 170 172
82 160 159
80 166 167
79 166 168
82 170 172
83 165 165
80 159 158
81 167 168
81 165 166
80 167 169
81 165 166
81 171 173
82 160 159
80 162 162
81 170 172
80 167 168
80 170 172
81 164 165
80 168 170
80 162 162
81 169 170
82 166 167
81 172 174
79 179 183
78 177 182
79 179 183
78 177 182
80 183 187
79 179 183
80 182 187
79 178 182
79 179 183
79 179 183
81 183 187
79 179 183
79 179 183
80 183 187
79 179 183
80 181 185
78 178 181
80 181 185
81 183 187
78 177 182
80 181 185
78 178 183
80 181 185
79 180 183
79 179 183
78 177 182
79 181 185
81 183 187
78 177 180
80 182 185
79 180 183
78 176 180
79 179 183
78 178 181
79 180 183
80 181 185
80 182 185
78 178 182
79 181 184
79 180 183
77 176 180
80 180 183
80 181 185
80 183 187
80 181 185
79 179 183
78 177 181
81 183 187
80 183 186
79 181 185
79 181 185
78 177 182
79 179 183
79 181 185
78 177 182
81 183 187
80 183 187
78 177 181
79 178 182
80 183 187
80 182 185
81 183 187
78 177 182
79 179 183
78 179 183
79 178 182
79 179 183
80 182 185
81 183 187
80 182 185
80 183 187
78 177 182
78 177 180
78 179 183
79 179 183
77 177 181
81 183 187
77 175 178
78 177 182
79 181 185
79 178 182
76 174 178
79 179 183
78 179 183
78 175 176
80 181 185
78 179 183
80 182 187
79 178 182
80 180 183
80 182 187
78 178 181
80 181 185
79 181 185
79 177 180
81 182 185
78 176 180
78 178 182
77 176 180
77 176 180
78 178 183
79 180 183
78 177 180
80 178 180
80 181 185
80 183 187
79 181 185
78 179 183
77 175 178
76 174 178
78 178 181
79 178 182
80 180 182
77 176 180
78 175 176
80 180 183
79 178 182
80 179 180
78 176 178
79 176 178
77 175 180
77 173 176
79 178 182
78 175 178
80 177 176
80 181 183
78 178 183
80 181 185
79 180 182
78 175 176
80 182 187
80 179 180
78 178 183
79 178 178
79 178 180
78 177 178
80 179 180
79 177 178
79 178 180
80 180 182
80 179 180
79 179 183
78 179 182
79 178 180
78 177 180
79 177 178
77 172 172
80 179 180
78 178 182
78 173 172
80 179 180
79 174 172
78 176 178
77 175 176
79 170 161
80 177 176
78 175 174
81 180 182
79 174 170
79 177 174
79 177 178
80 179 180
80 177 174
78 174 172
76 172 172
80 182 185
79 177 178
80 180 180
79 178 176
79 177 178
79 177 176
80 178 178
78 178 182
80 177 174
78 177 178
79 176 174
80 180 182
82 178 176
79 176 174
80 179 178
78 175 172
80 177 174
79 176 172
79 178 178
78 178 180
80 173 167
80 179 178
80 179 180
80 175 172
80 175 168
80 175 170
82 174 165
80 174 168
80 180 183
81 178 176
78 177 176
79 177 176
79 178 178
79 177 176
79 178 176
80 177 174
79 179 180
79 179 180
81 179 180
81 178 176
80 179 178
80 176 170
80 178 176
79 177 176
82 178 174
79 174 169
80 180 182
78 179 180
80 175 170
79 179 182
79 175 173
80 176 172
80 180 182
79 176 174
80 177 175
80 176 173
81 178 177
80 177 174
80 180 182
79 178 178
79 176 172
80 173 168
80 176 179
80 174 172
79 176 172
80 176 173
81 179 180
81 178 177
80 177 174
79 171 168
81 176 174
80 178 178
81 178 177
80 175 172
81 175 172
80 179 178
80 178 179
79 174 175
80 176 173
79 175 174
79 173 174
79 175 176
80 176 174
80 176 175
79 172 169
80 170 167
80 175 176
80 172 169
79 175 174
80 175 176
80 172 173
80 176 176
80 174 174
80 175 176
80 177 179
79 172 173
80 173 173
80 174 176
79 173 176
80 174 175
78 171 171
79 171 173
80 176 177
81 175 176
80 173 174
80 174 177
80 176 178
81 170 169
81 171 171
80 175 179
80 168 170
79 174 176
79 169 171
81 171 172
82 168 169
79 168 170
80 168 166
81 171 173
80 168 170
81 165 165
80 174 178
80 165 166
81 168 169
81 174 177
81 170 170
81 170 172
80 174 174
80 170 172
81 165 165
81 171 171
81 166 166
81 168 169
80 175 178
80 169 171
81 170 172
81 167 168
81 169 171
81 170 171
82 167 166
81 168 169
80 175 179
81 166 167
80 171 173
80 165 166
79 170 173
82 156 155
81 168 169
81 168 169
82 162 161
80 163 164
80 168 168
79 168 170
80 169 170
80 165 167
80 162 163
81 167 168
79 165 166
82 161 161
79 170 173
80 164 164
81 163 163
81 169 171
79 164 165
81 158 157
80 167 168
78 165 166
80 168 169
79 164 164
79 157 156
81 162 162
80 163 164
80 165 166
80 170 171
80 165 166
80 174 176
81 164 164
80 163 164
81 164 165
81 160 160
80 160 160
80 168 169
80 162 162
81 161 161
81 161 161
79 161 160
80 168 169
82 163 162
80 166 167
81 168 169
79 172 175
80 154 152
81 169 171
79 164 164
81 169 171
82 159 157
81 168 169
80 162 163
80 164 164
81 162 161
81 163 163
80 169 170
79 170 172
78 166 169
80 156 155
80 163 164
81 161 161
80 166 167
77 166 167
79 160 160
81 171 173
81 167 168
80 169 171
79 158 158
81 162 162
81 166 167
81 165 166
79 167 168
81 173 175
80 161 161
79 169 171
81 168 169
80 170 172
81 166 166
80 169 171
80 174 178
81 172 174
80 165 166
81 170 172
81 166 168
81 168 169
81 168 169
81 165 166
80 174 178
81 165 166
80 172 175
80 181 185
79 179 183
79 181 185
78 179 183
79 180 183
78 179 183
79 179 183
78 177 182
79 180 185
79 180 183
79 181 185
78 179 183
80 183 187
79 180 183
77 175 180
79 179 183
79 180 185
80 182 187
80 181 185
81 183 187
80 183 187
78 179 182
78 177 182
78 177 181
79 180 185
78 176 180
79 181 185
79 181 185
80 182 185
80 182 187
78 179 183
77 176 180
77 177 182
81 183 187
79 180 183
77 176 180
80 181 185
79 181 185
81 183 187
79 179 183
80 182 187
80 181 185
79 180 183
80 182 187
79 181 185
79 181 184
78 177 182
80 181 185
77 176 179
80 181 185
79 180 183
79 180 183
80 183 187
79 181 185
80 181 185
78 179 183
79 179 183
81 183 187
80 181 185
81 183 187
81 183 187
78 178 182
77 177 182
80 181 185
78 179 183
80 182 187
80 182 185
79 179 183
76 173 178
80 181 185
80 183 187
78 181 184
80 181 185
77 177 181
78 177 182
79 180 185
79 181 185
78 176 180
79 180 183
78 177 179
77 175 180
78 179 183
80 183 187
79 180 183
80 182 185
79 180 183
79 179 183
79 179 183
79 182 184
80 183 187
77 175 180
79 180 185
81 182 183
79 181 185
79 180 185
79 180 185
79 180 183
80 183 187
77 176 182
79 180 183
78 177 182
80 182 185
80 178 180
78 176 180
77 176 180
78 178 183
80 182 185
79 180 185
79 181 185
78 178 181
79 180 185
78 175 178
77 173 174
78 177 180
77 175 180
77 174 176
77 173 174
80 182 187
75 171 174
77 175 180
78 179 183
80 179 182
78 177 180
80 181 183
80 180 182
79 177 180
78 179 183
77 177 182
78 180 185
81 173 165
78 178 182
78 176 180
80 178 178
79 180 185
79 180 183
79 178 180
79 177 180
80 178 180
80 178 178
81 180 182
78 176 176
77 174 176
80 179 182
79 180 183
77 177 182
77 176 180
80 176 172
78 175 174
78 174 172
80 176 174
81 179 178
79 177 178
80 181 183
79 180 185
80 179 182
81 181 183
80 182 185
78 176 178
79 176 176
80 176 174
81 181 182
79 178 182
79 177 176
79 175 172
78 177 180
78 178 182
78 174 172
79 179 182
80 179 178
80 177 176
80 181 183
80 176 172
81 180 180
79 177 176
80 180 182
78 177 178
80 180 182
79 178 178
80 180 182
80 179 180
80 179 180
80 179 178
79 177 178
80 174 168
80 178 178
79 177 174
80 179 180
78 176 176
80 179 178
80 177 176
80 176 172
81 180 180
80 179 180
80 178 178
80 177 174
80 177 174
79 175 170
80 177 174
80 179 178
78 174 168
80 176 170
81 180 182
78 173 167
80 177 174
80 179 180
80 179 180
80 180 180
80 182 187
80 178 178
79 176 172
80 177 174
79 178 178
80 177 174
81 179 178
80 180 182
80 178 176
80 180 182
80 181 183
81 179 178
79 174 170
81 179 180
80 176 175
80 177 175
81 177 177
79 176 177
80 175 172
80 176 172
80 180 180
79 174 167
80 178 176
81 181 182
80 175 171
79 177 176
79 178 179
81 176 174
80 180 183
79 175 178
80 178 179
80 177 175
80 173 170
81 179 178
81 177 176
80 178 178
80 176 175
79 175 177
79 173 174
79 176 179
80 174 174
81 176 175
79 177 177
79 175 174
80 175 174
78 175 175
80 176 178
79 176 179
80 174 174
80 178 180
80 176 178
79 170 173
81 170 168
79 174 174
79 173 176
79 177 179
80 175 179
79 174 174
80 174 176
80 173 173
79 172 176
79 170 172
79 173 175
80 177 181
80 175 176
81 177 179
80 170 170
81 171 173
81 173 173
80 177 181
80 170 170
80 178 181
81 170 170
80 172 175
80 175 178
80 169 170
79 167 169
81 171 171
80 178 182
80 174 177
81 175 178
80 175 177
80 171 173
80 174 176
80 171 172
80 168 169
81 169 169
81 170 172
81 169 171
80 175 179
81 169 171
79 167 168
80 173 177
80 171 174
80 170 172
79 170 172
81 162 163
81 173 175
80 172 175
80 178 181
81 161 161
81 165 166
80 175 179
80 164 164
80 175 178
80 170 171
81 169 170
80 171 174
80 165 167
79 165 166
80 168 169
79 171 174
81 161 161
80 161 161
80 166 167
80 163 163
80 170 173
81 171 173
80 163 164
81 169 171
80 171 174
81 168 169
78 169 171
81 172 174
80 170 173
81 169 171
81 162 162
81 168 169
80 174 176
81 161 161
81 160 159
81 170 171
80 164 164
83 163 162
80 171 173
79 165 167
80 165 165
79 158 157
79 167 168
81 161 160
80 172 174
81 164 164
81 164 164
81 167 168
81 167 168
80 162 163
79 157 157
81 169 171
81 168 169
81 164 165
80 164 165
80 158 157
80 161 161
82 166 167
80 169 172
81 164 164
80 168 169
81 160 160
81 167 169
80 168 169
79 164 165
82 164 165
81 166 167
80 164 165
80 164 164
80 169 171
79 168 170
82 167 167
80 169 171
79 163 164
80 166 167
81 167 168
80 169 170
81 162 162
81 173 175
79 171 173
80 165 167
80 169 170
81 163 164
81 163 164
80 167 169
79 170 172
81 164 165
80 171 174
79 172 176
80 170 172
82 167 168
78 167 169
80 168 170
79 172 175
81 170 172
81 171 173
80 174 178
79 180 183
79 181 185
79 180 185
77 177 182
81 183 187
79 180 185
80 181 185
80 181 185
77 177 181
80 183 187
78 179 183
80 183 187
78 177 182
79 181 185
78 177 182
79 180 185
80 182 187
79 179 183
80 183 187
78 179 183
79 180 185
80 181 185
81 182 185
80 181 185
79 180 185
79 180 185
79 180 185
78 177 180
79 179 183
80 181 185
80 180 183
78 180 185
78 179 183
79 181 185
79 181 185
79 179 183
76 175 180
79 179 183
78 179 183
77 175 180
77 175 180
79 179 183
79 179 183
78 179 183
80 181 185
78 179 183
78 179 183
79 179 183
79 181 184
79 181 185
78 176 180
81 184 187
80 183 187
80 182 187
79 180 183
77 176 180
76 174 177
78 179 183
80 181 185
79 179 183
79 181 185
79 181 185
79 181 185
80 181 185
80 182 187
78 179 183
80 183 187
80 182 187
77 177 181
78 179 183
79 181 185
80 183 187
79 180 183
80 182 187
80 181 185
80 181 185
80 181 183
76 174 177
78 177 182
79 180 185
79 179 182
81 183 187
79 181 185
80 183 187
80 182 187
80 183 187
78 179 183
80 180 183
79 181 185
79 181 185
79 180 185
77 177 182
79 181 185
78 178 183
81 183 187
80 181 183
79 180 185
79 180 185
79 180 183
79 181 185
78 178 181
79 178 182
79 180 185
79 182 187
81 182 185
80 182 187
80 182 187
79 180 185
79 178 182
78 178 182
79 181 185
80 182 187
76 174 178
80 180 183
79 179 182
79 180 183
80 179 180
79 178 182
79 178 180
78 176 180
80 179 182
79 179 183
79 180 183
80 182 185
80 181 185
80 182 187
78 178 182
79 178 180
80 180 183
80 178 180
79 179 183
76 171 172
79 179 182
80 178 180
78 175 176
78 173 174
80 181 185
80 181 185
79 175 174
80 180 182
80 177 176
79 178 180
80 181 182
80 180 182
80 178 180
79 180 183
80 178 178
79 176 176
80 179 182
81 180 182
76 171 172
79 179 182
80 179 182
80 179 180
79 178 178
80 181 182
79 178 180
79 182 187
79 180 183
80 179 178
78 175 174
79 179 180
79 180 185
77 176 180
80 181 185
79 179 180
77 175 176
78 178 180
80 180 182
80 177 174
80 179 180
80 179 180
80 177 176
81 180 182
80 178 178
78 177 178
79 177 176
79 181 185
81 177 174
81 177 174
80 181 183
79 178 180
79 173 167
79 176 176
80 177 174
79 179 182
80 180 182
81 178 176
79 178 178
80 179 180
81 178 178
79 179 180
80 178 178
80 178 178
80 182 187
79 178 178
80 176 172
80 179 180
80 179 180
80 178 176
80 178 176
81 178 176
80 181 183
80 175 170
79 180 183
81 178 176
81 176 172
81 178 176
81 178 176
80 178 176
80 179 180
80 180 182
80 180 182
80 178 178
81 177 177
79 178 178
81 179 178
80 182 187
80 179 180
81 176 170
79 180 183
80 179 180
79 177 174
80 181 183
81 175 171
79 175 172
80 179 180
79 179 180
79 180 183
80 177 178
80 181 185
81 176 173
79 181 185
81 178 179
79 177 177
80 177 175
80 173 168
80 178 178
79 177 177
81 178 179
80 179 180
80 176 172
80 179 182
80 176 175
79 177 180
80 177 177
80 175 172
78 175 175
81 174 173
79 176 176
79 176 178
80 178 180
81 179 182
80 178 182
80 177 174
80 175 178
80 174 172
80 178 181
80 176 177
80 177 179
80 180 184
80 178 181
80 177 177
80 180 182
80 178 182
81 178 178
80 176 179
80 171 171
81 175 174
81 170 170
80 178 182
79 168 170
79 176 177
80 177 179
80 168 168
81 171 172
81 173 173
80 173 176
80 169 170
80 172 175
79 173 174
79 178 182
80 171 171
80 172 175
80 174 178
81 171 173
81 170 170
81 172 174
79 173 175
80 172 175
80 174 175
80 173 174
81 173 175
80 177 181
78 170 173
80 173 176
80 174 178
81 174 175
81 173 175
81 172 174
81 168 169
80 175 179
81 169 171
80 174 178
80 174 176
80 176 180
81 162 162
80 170 172
79 174 178
81 166 167
81 172 174
81 169 171
81 165 166
80 166 167
82 166 167
80 173 176
82 169 171
81 171 173
80 167 168
78 166 168
81 166 167
81 159 158
80 170 171
80 166 168
82 166 167
81 167 168
80 173 176
82 160 160
80 172 175
79 171 173
81 167 168
80 171 173
81 172 174
80 166 167
80 170 172
78 170 173
81 170 172
79 166 167
81 167 168
81 166 167
81 162 162
80 162 162
80 172 174
80 161 162
83 163 162
80 168 170
81 168 169
80 170 173
80 167 169
81 167 168
80 171 174
80 163 163
80 164 165
81 164 165
81 166 167
80 171 173
81 167 168
81 164 164
81 169 171
80 163 163
81 170 172
82 162 162
80 167 168
81 167 168
79 170 172
80 170 173
80 169 170
80 172 174
81 170 172
79 175 179
80 169 172
81 165 165
81 172 174
80 171 173
81 169 170
80 167 169
81 162 162
81 163 163
82 162 162
81 171 173
80 162 162
80 170 171
82 170 172
80 167 169
80 168 170
80 172 175
80 171 173
79 169 171
81 165 166
81 168 169
79 168 170
79 172 176
81 164 165
80 173 177
82 161 161
81 170 172
80 171 173
81 175 178
81 166 167
79 175 178
77 175 180
78 178 183
79 181 185
80 182 187
80 181 185
78 179 183
80 182 187
80 183 187
79 179 183
79 180 185
78 177 182
78 177 182
78 179 183
79 180 185
80 183 187
79 180 185
80 183 187
76 173 178
78 177 182
79 179 183
77 176 182
81 183 187
79 181 185
79 180 185
80 182 185
80 182 187
78 178 183
78 178 183
80 181 185
77 175 180
77 177 182
79 179 183
79 182 187
78 179 183
80 182 187
77 175 180
78 179 183
80 183 187
79 180 183
79 181 185
80 183 186
79 181 185
80 183 187
79 181 185
79 180 185
80 182 187
79 181 185
80 181 185
80 183 187
80 183 187
78 179 183
79 180 185
79 181 185
80 181 185
77 175 180
77 176 182
80 182 187
78 179 183
80 182 187
80 182 187
80 183 187
78 177 182
81 183 187
79 180 185
79 180 185
79 181 185
78 178 183
79 181 185
80 183 187
78 177 182
79 181 185
78 177 182
78 177 182
79 180 185
80 182 187
79 179 183
79 181 185
79 179 183
77 177 182
79 181 185
77 176 180
78 179 183
77 176 180
76 173 178
79 180 185
81 184 187
80 181 185
79 181 185
78 179 183
78 179 183
76 173 178
80 182 185
79 180 185
79 180 185
78 178 183
80 183 187
80 182 185
79 179 182
80 182 185
79 179 183
79 180 183
80 178 180
79 181 185
78 178 183
78 176 180
79 181 185
78 179 183
79 180 183
79 181 185
79 182 187
79 180 185
80 178 180
79 179 183
80 182 187
79 179 183
80 182 187
80 181 185
79 179 183
80 183 187
79 180 185
80 182 187
78 176 178
78 177 180
79 180 183
79 179 183
78 179 183
80 181 183
79 178 180
80 182 187
80 181 183
79 179 182
80 180 183
80 180 182
79 178 182
77 176 180
79 178 180
80 182 185
80 182 185
79 179 182
80 179 180
79 179 182
80 181 183
79 179 182
80 180 182
78 178 183
80 182 187
80 180 182
80 181 185
80 179 182
80 178 178
79 179 180
80 181 183
80 180 182
79 179 182
78 177 182
78 174 172
77 174 174
79 178 180
78 178 182
80 178 178
79 179 183
79 180 183
78 176 176
81 180 180
80 178 178
78 175 174
79 178 180
79 179 183
80 180 182
80 180 182
80 178 176
80 176 174
78 178 178
79 179 182
79 176 174
80 178 180
80 178 176
79 176 174
80 180 182
80 179 180
80 178 178
79 179 182
80 180 180
80 180 182
79 180 182
78 178 178
81 180 180
79 177 176
80 177 174
79 177 176
80 178 178
80 181 183
81 177 174
79 180 182
79 180 182
79 176 172
80 179 180
79 176 172
80 176 172
80 179 180
80 179 180
80 181 183
80 180 182
81 181 183
79 177 174
79 179 180
79 178 176
79 176 172
79 180 182
80 182 187
80 180 182
80 180 182
79 179 182
80 179 178
81 179 180
79 179 182
80 177 174
79 178 178
80 179 180
81 180 182
81 180 180
79 178 178
80 179 180
81 179 180
79 178 178
80 178 176
81 179 180
79 177 174
81 176 170
80 175 169
79 178 179
80 178 178
78 178 180
79 178 180
81 180 180
80 178 178
80 180 182
79 178 181
80 177 179
80 178 180
80 179 180
80 176 173
79 178 182
81 179 178
82 177 175
80 178 181
79 175 177
80 176 174
79 176 179
80 177 177
81 176 177
80 174 172
80 178 178
79 178 180
80 177 177
80 174 172
80 178 178
80 180 182
80 175 176
79 177 177
81 179 178
79 179 183
80 175 176
80 180 184
80 175 175
80 179 182
80 177 181
80 174 177
79 176 179
79 174 177
80 176 178
80 173 177
81 174 174
80 172 174
79 177 181
80 170 172
80 176 177
79 172 173
79 177 181
81 175 177
79 174 178
80 175 179
80 175 176
80 174 176
80 176 179
79 170 172
81 175 176
80 174 178
79 167 170
80 175 178
79 171 173
80 171 174
79 173 176
80 171 174
81 170 172
80 175 179
80 176 180
80 173 177
80 175 178
79 164 164
81 166 168
81 168 169
81 168 169
80 168 170
79 169 172
80 172 175
80 171 174
80 171 174
80 170 172
81 170 172
81 172 174
79 171 174
81 170 172
80 170 172
80 174 177
80 169 171
81 173 175
80 165 167
80 172 174
80 173 177
80 173 177
81 169 170
81 169 171
80 174 176
80 166 168
81 166 167
80 172 174
81 165 166
81 168 169
81 173 175
81 169 170
80 167 169
80 168 169
81 169 171
81 170 172
80 173 176
79 169 170
82 164 163
80 173 176
81 168 169
79 172 175
79 164 165
80 165 167
79 169 171
80 173 177
80 171 173
81 166 167
81 166 167
81 167 168
80 165 166
81 162 162
81 169 171
81 168 169
80 165 166
80 170 171
80 165 166
79 174 178
81 170 171
79 173 177
82 164 163
79 169 171
80 162 162
81 174 176
79 172 174
81 161 162
81 167 168
80 164 164
81 171 173
82 168 169
81 165 166
81 171 173
80 171 173
81 172 174
81 171 173
81 167 168
80 172 175
81 166 167
81 171 173
80 171 173
81 172 174
81 165 166
80 171 173
81 172 174
81 169 170
81 169 171
81 166 167
81 169 171
81 170 172
81 169 171
81 171 174
82 171 173
81 169 171
81 176 179
80 167 169
80 176 179
81 168 169
81 173 175
80 173 175
81 167 168
81 172 174
79 181 185
80 182 187
79 179 183
79 180 185
78 179 183
78 177 182
79 179 183
79 181 185
79 181 185
80 181 185
80 183 187
80 182 187
79 179 183
78 178 183
78 179 183
78 179 183
80 183 187
78 177 182
79 181 185
76 173 177
81 183 187
78 179 183
80 181 185
79 181 185
80 183 187
80 181 185
80 181 185
80 182 187
79 181 185
79 180 185
79 181 185
78 177 182
79 181 185
80 182 187
80 181 185
79 181 185
79 181 185
80 183 187
79 181 185
79 181 185
80 182 187
81 183 187
79 179 183
79 182 187
79 179 183
78 177 182
78 179 183
80 182 187
80 182 187
79 179 183
78 177 182
79 181 185
80 183 187
80 181 185
79 181 185
78 177 182
79 180 185
80 181 185
79 180 185
78 179 183
80 183 187
78 178 183
78 179 183
80 181 185
79 181 185
79 180 185
80 181 185
79 179 183
79 180 185
78 179 183
80 182 187
78 179 183
80 182 187
79 180 185
79 181 185
79 180 185
79 182 187
79 180 183
79 181 185
80 182 187
78 178 183
80 182 187
80 183 187
77 177 182
78 177 182
81 183 187
79 180 185
79 180 185
78 180 185
78 179 183
80 182 187
79 181 185
78 178 183
80 182 187
75 170 174
80 182 187
80 182 187
81 182 185
77 175 180
79 180 185
80 182 187
77 175 180
78 178 183
80 182 187
80 182 185
78 179 183
79 179 182
77 176 182
80 182 187
78 178 182
78 178 183
78 179 183
80 183 187
80 179 182
80 181 185
79 180 185
78 176 180
81 182 185
79 176 176
80 179 182
79 177 178
78 176 180
80 182 187
80 181 183
79 176 178
80 180 183
78 179 183
80 181 185
77 176 182
80 179 182
80 181 185
79 181 183
78 178 182
79 180 183
78 177 180
78 175 176
80 181 183
79 179 182
80 177 178
79 180 183
81 181 183
78 177 180
80 180 182
80 181 183
80 181 183
79 177 180
79 180 185
80 181 183
80 182 187
79 176 176
79 177 178
80 181 183
80 181 183
80 179 180
79 175 174
79 178 180
81 178 176
80 181 182
80 182 185
80 182 187
79 179 182
80 181 183
81 179 178
80 181 183
80 177 176
80 179 182
80 179 180
81 181 183
80 180 182
80 178 176
80 181 185
80 179 180
81 179 180
80 178 176
80 180 182
80 181 183
81 178 176
80 181 183
78 178 180
80 179 180
80 179 180
81 180 180
79 172 165
79 178 180
80 179 178
81 180 180
79 179 180
80 180 182
79 180 182
80 179 180
80 182 187
79 174 168
80 179 180
81 176 170
80 181 185
80 181 183
80 178 176
80 181 183
80 179 178
79 175 170
80 180 182
81 180 180
80 178 176
80 178 178
80 178 178
79 181 185
80 182 185
79 178 178
80 182 185
81 180 182
80 178 178
80 179 180
80 179 180
80 181 183
81 180 180
81 180 180
80 181 183
80 181 183
81 180 182
80 181 183
81 179 180
81 178 177
80 179 178
80 181 183
81 177 174
80 179 180
80 180 182
81 177 175
80 178 178
80 181 186
81 180 180
80 181 183
80 176 174
79 178 178
80 181 183
80 180 182
80 181 183
81 177 175
80 180 182
80 178 179
80 176 178
79 177 180
81 180 180
81 180 182
80 177 177
80 178 180
80 178 180
80 179 181
80 178 179
80 179 184
79 175 179
79 181 185
80 175 174
81 177 177
80 177 179
80 179 181
79 177 181
80 175 178
80 180 184
80 178 179
78 176 180
80 181 186
80 175 178
80 181 185
80 179 182
79 177 180
80 180 185
80 176 177
80 176 180
80 180 185
80 177 181
80 175 178
79 175 179
79 173 176
80 178 182
80 176 179
79 177 182
80 176 179
80 173 174
80 175 179
80 175 176
80 172 174
80 180 183
80 170 170
80 175 179
80 175 177
81 178 181
80 176 178
80 175 179
80 175 178
79 175 179
80 177 181
80 168 168
80 179 184
80 173 175
80 175 179
81 176 179
79 167 169
80 176 180
79 173 177
79 172 175
81 172 174
80 171 174
80 172 175
80 169 172
80 177 181
81 172 174
80 172 174
79 170 173
80 174 178
80 177 181
80 173 175
80 173 177
81 170 173
81 173 175
80 172 175
79 170 173
81 173 175
81 176 179
80 174 178
81 170 172
81 169 171
81 168 169
80 169 171
79 165 166
81 172 174
80 169 171
80 172 175
81 164 164
80 171 174
79 172 175
81 165 166
78 169 172
79 173 175
81 164 166
80 168 170
80 172 174
80 173 176
79 165 167
82 167 168
80 175 179
81 173 175
80 171 173
80 166 167
81 172 174
80 167 169
82 165 166
81 169 170
80 169 170
79 169 171
80 166 168
81 168 169
81 166 167
79 169 171
80 170 172
80 165 166
80 171 174
80 169 170
81 170 172
81 169 171
81 168 169
78 171 173
81 174 177
81 170 172
80 170 173
80 169 172
80 168 169
81 165 166
79 168 170
82 167 168
81 169 171
81 169 171
80 162 163
80 168 170
81 171 173
80 174 178
81 168 169
81 173 175
80 170 172
78 169 171
81 167 168
80 166 168
80 167 168
79 170 172
81 173 175
81 170 172
80 170 173
80 168 171
80 165 166
80 172 175
81 175 178
80 178 182
80 173 177
80 172 175
81 173 175
79 173 176
80 175 179
80 163 165
80 171 173
80 171 173
78 179 183
80 182 185
79 180 185
79 180 185
78 177 182
80 183 187
78 178 183
78 179 183
78 179 183
78 179 183
80 181 185
79 182 187
78 179 183
79 180 185
80 182 187
79 180 185
80 183 187
79 181 185
80 183 187
79 179 183
79 182 187
78 179 183
80 183 187
77 177 181
79 181 185
79 179 183
78 179 183
78 179 183
79 181 185
79 179 183
80 181 185
79 179 183
81 183 187
80 182 187
79 180 185
78 177 182
79 180 185
79 180 185
80 181 185
77 177 181
79 182 187
80 180 183
79 181 185
80 181 185
80 181 185
80 182 187
80 182 187
79 181 185
80 181 185
79 182 187
80 182 185
77 175 180
80 182 187
77 177 182
79 179 183
78 179 183
78 177 182
80 183 187
78 179 183
79 179 183
77 177 181
78 179 183
80 183 187
78 179 183
80 182 187
78 178 183
77 176 182
79 182 187
77 175 180
80 182 187
80 182 187
79 180 185
79 179 183
79 181 185
79 181 185
79 180 185
80 183 187
80 183 187
80 183 187
80 181 185
80 182 187
81 183 187
79 181 185
79 180 185
78 179 183
80 183 187
79 180 185
78 179 183
78 178 183
80 182 187
79 182 187
80 182 187
79 180 185
78 176 180
79 182 187
78 179 183
79 179 183
79 179 183
77 177 182
79 181 185
80 183 187
79 178 182
80 182 187
80 182 187
80 182 187
78 178 183
78 178 182
79 180 185
79 180 185
79 179 183
78 176 180
79 182 187
79 180 183
79 180 185
78 177 182
80 180 183
80 182 187
80 182 187
79 178 182
79 179 182
79 180 185
80 182 187
78 176 180
80 182 187
78 179 183
79 180 185
77 176 180
80 181 183
79 180 185
78 178 182
80 182 187
79 177 180
80 181 185
80 179 182
80 179 180
79 180 183
80 179 180
80 182 185
80 178 180
80 181 183
79 179 182
79 181 185
80 180 183
81 181 183
79 180 183
79 178 182
80 179 180
79 181 185
79 178 178
80 180 182
79 181 185
79 181 185
80 181 185
80 180 182
81 180 180
80 180 183
79 181 185
80 181 183
80 181 183
79 176 174
80 180 182
80 181 183
79 181 185
81 179 178
79 177 176
78 176 178
80 181 183
80 179 180
80 177 174
81 181 182
80 182 187
79 178 178
80 179 182
80 179 178
79 180 185
81 181 183
80 179 180
81 180 182
79 181 185
81 180 182
79 175 170
81 179 178
80 180 183
81 180 182
79 180 183
80 179 180
80 178 176
80 178 178
79 180 182
80 181 185
80 180 182
81 180 180
80 179 180
80 181 183
80 180 182
81 181 183
80 180 182
80 179 180
80 180 182
80 179 178
80 182 185
80 178 178
80 181 185
79 178 178
80 182 185
81 178 178
79 179 180
80 180 182
79 178 178
81 179 180
81 180 180
80 180 182
80 180 182
80 179 178
80 181 183
80 180 182
81 177 177
80 179 180
80 179 180
81 180 182
80 181 183
81 179 178
80 179 178
81 180 182
79 181 183
81 179 180
80 181 184
80 180 184
80 180 182
81 180 182
80 179 180
79 180 183
80 180 182
79 179 182
80 178 180
81 178 178
80 181 185
79 178 178
81 174 173
80 178 180
80 181 186
80 181 183
80 181 186
80 178 178
80 181 185
79 178 181
80 179 180
80 181 185
80 181 183
80 179 180
80 178 180
81 176 175
80 177 179
79 176 175
79 173 175
80 179 181
79 180 185
81 177 178
79 180 184
80 180 183
80 175 177
80 177 181
80 179 182
80 181 184
80 179 181
80 175 177
79 173 174
79 177 180
80 179 184
80 177 179
79 174 176
80 177 180
80 176 178
79 175 177
80 177 181
80 178 182
80 173 175
80 177 181
80 178 182
81 175 178
79 176 179
80 175 178
80 180 183
80 174 177
80 178 182
79 177 181
80 175 178
80 175 177
79 173 176
78 170 173
79 175 179
80 178 182
80 172 175
79 175 179
80 175 179
80 169 170
80 176 180
80 176 180
80 175 179
79 173 177
80 173 177
80 176 180
80 173 177
79 173 176
80 177 181
81 173 175
80 172 175
80 171 174
80 174 176
81 172 174
80 173 177
80 173 176
80 175 179
79 172 176
79 169 172
80 179 182
80 169 172
79 173 177
81 169 171
80 172 175
80 167 169
81 173 175
81 168 169
80 173 176
80 169 171
80 173 176
81 174 177
81 167 169
81 176 179
81 168 169
81 170 172
79 171 175
81 167 168
81 170 172
80 174 176
80 170 172
80 173 175
81 165 166
80 167 169
79 175 179
80 172 174
81 170 172
80 164 165
80 172 174
81 170 172
80 172 175
81 169 171
80 174 178
80 176 179
80 173 176
80 167 169
80 172 175
81 169 170
80 171 173
80 167 169
82 165 166
81 166 167
80 166 167
79 171 174
81 168 169
81 170 172
81 166 167
81 175 179
81 167 168
80 172 174
81 168 169
79 173 176
80 172 175
81 166 167
79 168 170
80 168 170
80 170 172
80 165 166
79 171 174
80 173 176
80 172 174
81 173 175
81 166 167
81 169 170
80 168 170
79 168 170
81 169 171
80 173 176
80 170 173
81 176 180
79 171 174
80 172 174
79 168 170
79 168 170
80 176 179
79 175 179
80 170 173
81 173 175
79 171 174
81 166 167
80 175 179
80 170 172
80 171 174
81 169 171
79 176 180
80 183 187
77 177 182
80 183 187
78 179 183
79 180 185
79 181 185
79 180 185
79 180 185
80 181 185
79 181 185
80 182 187
78 179 183
79 180 185
78 179 183
79 180 183
79 182 187
80 182 187
78 177 182
80 182 187
79 181 185
80 181 185
79 181 185
78 179 183
80 183 187
79 182 187
79 180 185
78 179 183
80 182 187
81 182 185
79 180 185
79 181 185
80 183 187
79 181 185
76 175 179
78 177 182
80 181 185
79 180 185
80 182 187
79 180 185
80 182 187
80 181 185
80 182 187
80 182 187
78 178 183
80 181 185
79 180 185
79 182 187
79 179 183
80 182 187
79 179 183
80 182 187
79 181 185
77 175 180
80 183 187
79 180 185
80 182 187
79 180 185
79 180 185
79 180 185
79 180 185
80 182 187
79 179 183
79 179 183
78 178 183
79 181 185
79 179 183
79 180 185
76 173 178
78 179 183
79 180 185
78 179 183
80 181 185
80 183 187
78 179 183
80 183 187
80 182 187
79 181 185
79 181 185
79 180 185
79 180 185
79 182 187
80 181 185
79 181 185
79 180 185
79 181 185
79 181 185
79 181 185
78 178 183
79 180 185
76 175 180
78 179 183
79 181 185
79 179 183
79 179 183
77 177 182
79 180 185
79 181 185
79 180 185
80 182 187
79 181 185
79 180 185
80 181 185
80 182 187
78 178 182
79 181 185
80 182 187
79 180 183
80 183 187
79 180 183
76 173 178
80 182 187
79 179 183
77 178 183
78 177 180
78 179 183
79 180 185
79 180 183
79 176 178
79 180 183
79 180 185
81 181 183
79 181 185
80 182 185
79 182 187
77 176 180
80 181 185
80 182 185
79 180 185
79 180 185
79 181 185
78 177 180
78 179 183
80 180 183
78 178 183
79 179 182
80 182 185
79 180 183
77 177 182
80 176 174
79 179 182
80 180 183
81 179 180
78 177 180
79 181 185
80 182 187
80 182 187
80 182 185
80 179 182
80 180 183
79 175 176
78 176 178
79 179 182
80 177 176
79 180 183
79 179 182
80 181 185
79 178 180
79 178 180
80 182 187
80 180 182
79 177 178
80 181 183
79 177 178
79 180 182
79 179 182
79 179 182
79 179 182
80 181 185
79 179 182
81 181 182
80 179 180
80 180 182
79 180 183
80 179 182
80 179 180
80 181 183
80 177 174
80 180 182
80 179 180
80 180 182
80 179 180
80 179 178
79 180 182
80 181 183
80 182 185
80 180 182
80 181 183
80 181 183
80 178 178
80 182 187
80 181 185
80 180 182
81 178 176
80 179 178
81 182 185
80 180 182
80 181 183
80 180 182
80 181 185
81 176 172
80 182 185
80 181 185
80 179 180
80 180 182
80 181 183
80 181 185
80 179 180
80 181 183
80 179 180
80 180 182
81 181 182
79 180 183
80 179 180
80 178 176
79 180 182
80 179 180
80 182 185
79 180 182
80 180 182
80 178 176
79 178 178
79 179 180
80 177 177
80 178 178
81 180 182
81 176 172
79 179 180
80 182 185
80 181 185
80 178 178
79 177 174
80 182 185
80 180 184
81 178 176
79 179 182
80 181 183
80 178 177
80 180 182
80 181 183
79 177 180
80 180 183
80 180 183
80 181 184
80 178 180
81 178 178
81 179 180
80 179 180
80 177 177
80 179 178
80 179 182
81 178 177
80 177 180
80 179 181
80 176 178
81 180 182
80 179 180
80 179 182
80 175 175
79 178 183
80 179 184
79 174 175
80 179 181
79 179 182
79 177 180
80 179 183
80 178 182
80 178 182
80 179 184
81 179 181
81 179 180
80 178 182
80 177 181
80 180 185
80 175 176
80 177 179
80 180 184
80 177 180
79 174 177
80 175 178
81 177 178
79 177 182
80 174 177
80 178 182
80 179 183
80 179 182
80 173 175
79 177 182
79 176 179
79 179 184
80 179 182
80 176 180
79 173 176
79 172 173
80 177 181
80 174 178
80 173 177
80 174 177
80 176 180
80 173 177
80 175 179
80 174 177
80 174 176
80 172 175
80 178 182
79 174 178
80 171 174
80 176 180
80 168 171
80 175 179
81 174 177
80 175 179
81 171 173
80 179 184
80 171 174
81 177 180
81 172 174
80 178 182
80 170 172
80 171 174
81 174 177
78 172 175
79 171 174
80 179 184
80 177 181
79 168 171
81 166 167
80 169 172
80 175 179
81 172 174
81 171 173
80 174 176
80 179 184
80 177 181
81 174 177
80 173 177
80 160 161
79 172 175
81 160 161
81 169 171
80 172 174
81 170 172
81 170 172
79 169 171
81 166 167
81 175 178
80 173 177
79 170 173
81 172 174
81 172 174
82 170 172
80 172 175
79 169 172
81 168 169
80 175 179
80 169 170
80 176 179
81 171 173
80 171 174
81 168 169
80 168 170
79 168 171
80 168 170
80 181 185
79 170 173
80 170 172
81 165 166
81 170 172
80 172 175
80 168 170
82 170 172
79 177 181
80 174 176
80 168 170
81 167 168
80 176 180
81 170 172
81 173 175
81 174 177
80 177 181
81 172 174
80 174 178
81 167 169
81 170 172
80 173 175
80 167 169
79 174 177
79 174 178
79 165 166
80 174 178
81 168 169
80 169 171
81 176 179
79 170 172
80 173 177
80 174 177
81 174 177
80 175 179
80 168 170
80 175 179
80 172 175
78 177 182
80 182 187
78 178 183
80 182 187
79 180 185
78 178 183
80 182 187
79 182 187
80 183 187
80 182 187
80 183 187
79 179 183
77 177 182
78 179 183
80 182 187
78 179 183
76 173 178
80 182 187
79 181 185
80 183 187
79 181 185
78 179 183
80 183 187
78 177 182
80 182 187
78 177 182
80 181 185
79 181 185
80 182 187
79 180 185
80 182 187
77 177 182
77 175 180
81 183 187
79 181 185
77 177 181
79 180 185
80 183 187
80 182 187
78 179 183
80 182 187
79 181 185
79 181 185
80 183 187
79 180 185
78 177 182
79 180 185
80 182 187
79 179 183
79 181 185
78 178 183
79 181 185
78 177 182
79 180 185
80 182 187
80 182 187
79 179 183
79 180 185
79 180 185
79 179 183
79 179 183
80 183 187
79 181 185
78 179 183
79 181 185
79 180 185
79 180 185
79 182 187
80 182 187
79 181 185
79 181 185
78 179 183
78 177 182
79 179 183
78 179 183
78 178 183
76 175 179
79 180 185
79 180 185
78 177 182
78 179 183
79 181 185
81 183 187
79 180 185
78 178 183
79 181 185
80 183 187
81 183 187
80 183 187
78 179 183
80 182 187
77 177 182
79 181 185
79 182 187
79 181 185
79 180 185
80 182 187
78 177 182
80 182 187
80 182 187
78 179 183
80 182 187
77 175 180
79 180 185
79 180 185
80 182 187
79 181 185
78 177 182
79 180 185
79 180 185
80 183 187
80 182 187
79 180 185
80 182 187
80 182 187
79 180 185
79 181 185
79 181 185
79 180 183
80 182 187
78 177 182
79 179 182
79 179 182
78 179 183
80 182 187
80 181 183
80 182 185
79 180 185
79 180 185
80 181 185
80 181 185
79 178 180
80 182 187
79 180 183
79 177 180
79 179 183
80 181 185
79 177 180
79 177 180
80 182 187
80 181 183
79 179 183
78 178 183
80 181 183
80 182 185
79 180 185
80 179 180
80 179 182
79 179 182
79 179 183
80 182 187
80 182 187
79 177 178
80 178 178
80 182 185
79 179 182
80 181 185
80 180 182
80 180 182
80 180 180
80 179 180
80 181 185
80 182 185
80 180 182
79 179 182
80 178 178
79 179 180
80 180 182
80 180 182
80 182 185
81 180 182
80 181 183
81 181 183
80 181 183
81 181 182
80 181 183
81 179 180
80 181 183
80 182 187
80 180 182
80 181 185
79 179 182
80 180 182
79 178 178
81 179 180
79 178 178
80 181 183
80 182 187
80 182 187
80 181 185
80 181 183
80 180 182
80 178 178
80 180 182
80 182 187
80 180 182
80 178 178
80 182 185
80 181 183
80 181 183
80 182 185
80 182 187
80 179 180
80 177 174
81 179 178
81 182 185
79 180 183
80 181 185
80 181 185
80 180 182
80 181 185
81 181 183
80 181 183
79 179 182
80 180 182
80 179 180
81 182 185
80 180 182
79 179 182
80 179 178
80 181 183
80 181 185
80 180 182
80 181 183
80 181 183
80 178 178
81 179 178
81 180 180
80 181 185
80 181 186
81 179 180
80 179 180
80 180 182
80 181 183
79 180 182
80 181 183
80 181 183
79 179 182
81 180 182
80 180 182
80 182 187
80 182 187
79 180 184
79 181 186
80 179 180
80 180 185
80 180 182
80 180 183
81 181 183
80 179 183
80 181 186
79 178 180
80 181 186
80 180 184
79 178 178
80 178 181
80 178 178
80 181 186
80 180 182
80 176 175
80 180 183
79 180 184
80 177 178
80 182 185
80 181 183
80 179 181
80 179 182
79 179 182
80 178 180
80 180 185
79 179 183
80 179 184
80 179 182
80 175 178
80 177 181
80 182 187
80 178 182
80 181 184
79 175 179
80 176 179
80 176 179
80 174 175
80 179 182
80 179 184
79 174 178
80 174 177
80 178 182
80 177 181
80 176 180
80 172 175
79 176 181
77 168 171
80 175 179
80 178 182
80 179 182
80 177 181
80 176 180
79 176 181
80 176 180
79 173 176
79 176 179
79 172 175
80 175 179
80 169 172
80 177 181
80 179 184
80 174 176
80 178 181
80 176 180
80 177 181
80 173 177
79 180 185
80 179 184
80 174 177
80 179 184
80 175 178
81 175 178
80 176 179
81 169 171
80 174 178
80 178 182
80 172 175
80 171 174
81 174 177
80 172 175
80 169 171
79 168 171
80 176 179
81 173 175
79 172 175
80 173 177
80 173 177
80 175 179
80 175 179
79 169 172
80 173 177
80 170 172
80 175 179
80 171 174
79 175 179
80 172 175
80 168 171
80 178 182
80 176 180
80 170 173
80 170 172
79 173 176
80 171 174
80 175 178
81 173 175
81 176 179
79 167 169
79 173 177
80 174 178
81 170 172
80 173 177
81 171 173
82 165 166
81 173 175
80 166 168
80 166 168
80 173 175
79 175 179
80 164 165
80 170 172
81 166 167
80 170 172
80 173 176
81 172 174
81 172 174
80 171 174
81 171 173
81 176 179
80 172 174
80 176 180
80 175 178
80 176 180
79 174 178
80 174 177
80 170 172
81 170 172
79 173 176
79 166 169
80 174 178
80 172 174
80 174 178
80 168 170
80 173 177
80 174 177
81 178 181
80 174 178
79 170 173
79 176 180
79 177 182
80 176 180
80 176 180
81 175 178
80 175 179
80 173 177
80 176 180
80 183 187
78 179 183
77 175 180
79 179 183
78 179 183
78 178 183
79 179 183
80 181 185
77 176 182
78 177 182
76 175 180
80 181 185
79 180 185
79 180 185
79 181 185
79 180 185
78 177 182
80 181 185
80 182 187
79 180 185
77 176 182
79 181 185
77 177 182
78 179 183
78 180 185
78 179 183
80 182 187
79 181 185
79 181 185
79 179 183
80 182 187
79 180 185
79 181 185
79 180 185
79 181 185
77 177 182
80 182 187
78 179 183
80 182 187
80 181 185
81 183 187
78 179 183
80 181 185
79 180 185
79 180 185
79 181 185
79 180 185
79 179 183
79 181 185
78 179 183
79 182 187
79 180 185
79 179 183
79 180 185
80 182 187
78 179 183
80 181 185
79 180 185
80 182 187
77 177 182
79 180 185
78 177 182
79 180 185
78 178 183
78 178 183
80 182 187
78 179 183
80 182 187
79 181 185
79 179 183
79 180 185
81 183 187
78 179 183
79 179 183
79 181 185
80 182 187
80 182 187
78 180 185
78 178 183
79 181 185
78 178 183
79 181 185
80 182 187
79 181 185
78 178 183
80 181 185
78 177 182
80 182 187
79 180 185
78 179 183
78 179 183
78 179 183
79 180 185
79 181 185
78 178 183
79 180 185
79 179 183
79 181 185
78 177 182
77 176 182
79 180 185
76 175 180
80 182 187
79 180 185
78 179 183
78 179 183
79 180 185
78 178 183
79 180 183
80 183 187
79 181 185
78 178 182
79 180 185
80 182 185
80 180 182
80 182 187
80 183 187
79 178 182
80 182 185
79 181 185
79 180 185
79 180 185
80 182 185
80 182 187
80 183 187
80 180 183
80 181 183
78 177 180
79 180 185
78 177 182
80 182 185
80 182 185
80 181 185
79 180 185
80 183 187
79 180 183
80 180 183
78 178 183
80 182 185
79 180 183
79 180 185
80 183 187
80 182 187
80 182 187
79 182 187
79 180 183
78 178 182
80 181 183
80 182 185
80 182 187
80 181 183
79 180 183
80 179 180
78 177 180
80 181 183
81 176 172
78 176 180
80 178 178
80 182 185
79 180 183
80 181 183
80 179 178
80 181 183
80 177 174
80 180 183
81 182 185
80 183 187
79 178 180
80 181 183
80 178 176
81 181 183
80 179 180
80 181 183
81 179 178
80 182 185
80 181 183
81 180 180
80 181 183
79 181 183
80 180 182
80 181 185
80 180 183
80 180 182
80 182 185
80 181 185
80 181 185
80 181 185
80 182 185
80 179 180
80 181 185
80 179 180
79 182 187
80 181 185
80 182 185
79 179 180
81 180 182
80 181 185
80 180 182
80 181 185
80 182 185
80 182 185
81 180 182
80 182 187
80 180 182
80 182 185
81 182 185
80 182 185
80 181 185
80 179 180
80 180 182
80 178 178
80 181 185
80 181 183
81 177 174
80 180 182
80 182 185
80 181 185
80 182 187
80 180 182
79 182 187
81 178 176
81 180 182
81 181 183
80 180 182
80 181 183
80 183 187
79 179 182
80 180 182
80 182 185
80 180 182
81 182 185
80 180 182
80 179 180
80 181 183
80 180 184
79 180 183
80 178 178
80 181 184
80 183 187
79 181 186
80 181 183
80 181 184
80 181 186
81 179 178
80 181 184
80 180 185
79 179 182
81 178 178
80 182 187
80 181 185
80 180 182
80 182 185
80 181 185
79 176 179
80 178 181
80 180 184
80 182 185
79 178 180
80 182 185
80 179 183
80 180 180
80 180 184
81 177 179
80 180 185
81 178 179
80 179 180
80 177 181
79 180 185
79 178 183
80 180 184
80 182 185
80 176 179
80 180 185
80 178 181
80 180 185
80 182 186
80 177 181
80 178 182
80 177 181
79 174 175
80 178 182
79 177 181
79 177 182
80 175 178
79 177 182
80 176 179
78 176 181
80 179 184
80 179 184
79 174 178
80 174 178
80 177 180
80 177 181
80 180 185
80 175 178
80 178 182
80 177 181
80 175 178
81 174 177
80 178 182
80 174 178
80 180 184
80 177 181
80 179 182
80 176 180
79 177 182
80 176 180
80 176 180
80 175 179
80 174 178
80 176 180
80 171 174
80 175 179
79 173 177
80 169 172
80 174 177
80 173 175
79 169 172
80 175 179
80 178 182
79 174 177
80 175 178
79 169 172
80 171 174
81 172 174
80 174 178
81 175 178
79 175 178
79 167 169
80 179 184
80 168 170
80 180 185
80 172 175
79 177 181
80 177 181
80 172 174
79 176 181
79 175 179
80 176 180
80 174 178
79 174 177
80 176 180
81 171 173
79 172 176
80 174 178
81 175 178
80 169 172
80 173 175
79 174 178
80 175 179
80 176 180
80 171 174
79 174 178
80 178 182
79 177 182
80 169 171
81 171 173
80 171 174
80 171 173
79 171 175
80 177 181
80 168 170
80 178 181
80 171 174
81 175 179
80 177 181
80 172 175
80 170 172
81 175 178
80 177 181
81 168 170
80 175 178
80 172 175
82 173 174
80 179 182
80 171 174
80 172 175
80 176 179
80 175 179
80 173 177
81 175 178
80 172 175
79 174 177
79 171 174
80 174 177
80 174 177
80 173 176
79 175 178
80 176 180
80 173 176
80 176 180
81 171 173
80 172 175
81 173 175
80 172 175
81 175 178
79 174 177
80 173 175
80 173 175
80 173 175
80 183 187
79 179 183
79 180 185
79 181 185
80 182 187
77 176 182
79 181 185
79 180 185
80 182 187
79 179 183
78 179 183
78 177 182
78 179 183
79 180 185
79 180 185
79 181 185
80 183 187
80 183 187
80 182 187
79 181 185
76 175 180
80 182 187
78 180 185
79 180 185
79 179 183
80 182 187
77 175 180
79 180 185
80 182 187
79 181 185
78 178 183
77 176 182
79 181 185
79 180 185
79 181 185
79 182 187
79 180 185
80 183 187
78 179 183
77 177 182
79 180 185
79 180 185
78 178 183
78 178 183
79 179 183
78 179 183
79 180 185
78 179 183
80 182 187
78 178 183
79 180 185
80 182 187
79 182 187
79 180 185
79 181 185
79 182 187
77 176 182
79 180 185
78 179 183
80 182 187
80 182 187
79 181 185
80 182 187
79 182 187
78 177 182
78 179 183
79 181 185
78 178 183
78 179 183
78 180 185
80 182 187
79 180 185
79 181 185
80 182 187
79 181 185
80 181 185
79 179 183
80 182 187
80 182 187
80 182 187
79 180 185
79 181 185
78 178 183
79 180 185
78 179 183
78 178 183
79 181 185
80 182 187
79 181 185
80 182 187
78 179 183
80 182 187
78 178 183
80 182 187
79 180 185
80 181 185
80 182 187
80 182 187
78 179 183
80 182 187
79 180 185
79 180 185
77 177 182
80 182 185
79 180 185
78 178 183
77 177 182
79 181 185
80 182 187
79 180 185
79 181 185
79 181 185
80 182 185
79 180 185
77 177 182
79 179 183
80 182 187
78 178 183
80 182 187
79 180 185
79 178 182
78 179 183
80 182 185
79 179 183
80 182 187
79 181 185
79 180 185
79 180 183
80 183 187
79 178 182
79 181 185
78 179 183
80 182 187
77 174 178
79 180 185
80 181 183
80 181 185
80 182 187
80 181 183
80 182 187
80 179 182
79 180 185
79 180 183
80 180 182
80 182 187
79 180 185
80 182 185
80 182 185
80 181 185
78 179 183
80 182 187
79 181 185
79 180 183
80 182 185
79 180 183
80 180 182
80 180 183
79 180 182
81 180 182
79 180 185
78 178 182
80 181 183
81 179 178
80 182 185
80 181 183
80 181 185
80 182 185
81 181 183
80 182 187
80 182 187
80 181 185
81 181 183
80 182 185
80 181 185
80 180 182
80 182 187
81 179 178
80 182 185
80 181 183
80 180 183
80 181 183
80 181 183
80 182 187
80 182 185
80 181 183
80 182 185
80 181 183
80 181 183
80 182 187
81 181 183
81 180 180
80 181 183
80 182 185
81 180 180
80 182 185
80 181 183
80 180 180
80 181 185
80 181 183
80 182 185
80 182 187
80 181 185
80 181 183
80 180 182
81 180 182
81 178 176
80 181 183
80 179 178
80 181 185
80 180 182
80 178 178
79 179 180
79 181 185
80 181 185
80 180 182
80 181 183
80 181 185
80 181 185
79 181 185
81 181 183
81 180 180
80 181 183
81 180 180
80 181 183
80 182 185
81 178 178
80 180 184
80 181 183
80 182 185
80 180 182
80 180 182
80 181 183
80 182 187
80 177 175
80 182 185
80 182 185
80 181 186
80 179 180
80 181 184
80 183 187
80 182 186
80 181 186
79 181 186
80 182 187
81 180 182
81 179 180
80 182 186
80 180 185
80 181 184
81 181 183
80 180 184
80 181 186
80 180 182
80 180 183
80 180 184
80 181 186
80 182 185
79 180 183
80 180 185
80 181 186
79 179 183
80 181 184
79 180 184
80 178 182
80 179 183
80 180 184
80 180 185
80 179 182
80 179 181
80 182 185
80 180 185
80 182 185
79 181 186
79 180 185
78 174 177
80 179 182
80 179 184
80 182 187
79 174 178
80 175 177
80 178 181
80 177 181
79 177 182
80 180 185
80 180 185
79 179 184
79 178 182
80 183 187
79 176 179
80 178 181
80 178 181
80 174 178
79 177 182
80 178 182
80 175 179
80 175 178
79 177 182
80 177 181
79 175 179
80 179 184
80 177 181
80 180 184
79 176 181
80 175 179
81 175 178
80 181 185
79 174 178
80 179 184
79 176 181
80 180 184
79 178 182
80 175 178
80 177 181
80 177 180
79 177 182
80 174 178
79 171 174
80 175 179
81 175 178
80 172 175
81 176 179
80 175 179
80 170 173
80 178 181
80 174 178
80 175 179
80 176 180
80 179 184
79 169 172
79 171 175
80 178 182
80 175 179
80 179 182
81 178 181
80 174 178
80 176 180
79 166 169
80 176 180
80 171 174
80 174 178
79 174 178
81 170 172
80 178 181
80 176 180
80 177 181
80 178 181
79 177 181
80 175 178
81 174 177
80 175 179
81 175 178
79 172 176
81 170 172
79 167 170
80 176 179
80 169 171
81 173 175
80 173 177
80 177 181
81 175 178
80 174 178
80 170 173
80 170 172
79 171 174
80 177 180
80 175 179
80 174 176
80 171 173
80 175 179
81 168 169
80 178 182
80 175 179
80 170 172
80 177 181
80 171 174
80 172 175
80 174 178
80 175 179
80 174 178
80 176 179
80 175 179
80 171 174
81 169 171
80 171 174
80 173 177
80 178 182
80 176 179
81 171 173
80 173 177
81 174 177
80 175 179
81 173 175
80 176 179
81 171 173
80 173 177
81 170 172
80 179 184
79 174 178
80 178 182
80 173 176
80 182 187
79 181 185
80 182 187
78 178 183
79 181 185
80 182 187
76 175 180
79 179 183
77 177 182
79 181 185
80 182 187
78 180 185
79 181 185
79 180 185
79 179 183
79 180 185
79 179 183
78 179 183
78 179 182
78 180 185
80 182 187
78 178 183
80 182 187
81 183 187
78 179 183
79 180 185
78 177 182
80 182 187
79 181 185
80 183 187
78 178 183
77 177 182
80 183 187
78 177 182
79 180 185
78 179 183
79 182 187
80 183 187
79 180 185
80 181 185
78 178 183
78 178 183
79 180 185
79 182 187
78 179 183
79 181 185
78 178 183
78 179 183
78 179 183
79 180 185
80 183 187
79 180 185
80 182 187
78 177 182
80 182 187
79 180 185
78 179 183
80 181 185
78 179 183
79 180 185
80 182 187
80 182 187
80 182 187
80 182 187
80 182 187
79 181 185
79 180 185
79 181 185
79 180 185
80 182 187
79 181 185
80 182 187
76 173 178
80 182 187
80 182 187
79 180 185
80 182 187
80 183 187
80 182 187
78 178 183
78 177 182
80 182 187
80 182 187
80 182 187
80 182 187
79 179 183
79 180 185
80 182 187
79 180 185
80 182 187
78 179 183
78 178 183
79 179 183
80 182 187
79 180 185
79 180 185
80 183 187
79 181 185
80 182 187
79 180 185
79 180 185
79 180 185
78 179 183
80 182 187
79 182 187
77 177 182
80 182 187
79 180 185
78 177 182
80 182 187
80 182 187
79 181 185
80 183 187
80 182 187
79 180 185
79 182 187
79 180 185
79 181 185
76 174 177
77 177 182
80 182 187
80 183 187
80 181 185
79 180 185
79 180 183
80 181 185
78 178 182
80 182 187
79 180 185
79 180 185
80 181 185
78 177 182
80 183 187
79 180 185
79 179 182
78 178 183
80 182 185
80 182 185
80 181 183
79 180 185
80 183 187
80 181 185
79 182 187
78 176 178
79 182 187
80 182 187
80 181 183
78 178 182
81 179 180
79 179 182
80 179 180
80 181 183
80 180 183
80 182 187
79 179 182
80 182 187
80 181 183
79 180 185
80 180 182
80 181 183
80 181 183
80 181 183
80 181 185
80 182 185
80 181 183
80 182 187
81 180 182
80 181 183
79 181 185
80 182 185
79 181 185
80 182 185
81 180 182
80 180 183
80 182 185
80 182 185
81 179 178
81 180 182
81 180 180
79 178 178
80 180 182
80 180 183
80 180 182
80 180 182
80 180 182
80 181 183
80 179 178
80 179 180
80 181 185
81 181 183
80 183 187
80 182 185
81 179 180
80 181 183
80 181 183
80 180 182
80 180 182
79 181 185
80 182 185
79 180 183
80 182 185
80 181 185
79 179 180
80 181 183
80 182 185
79 179 182
81 181 183
80 180 183
81 180 182
80 182 185
80 180 182
81 182 185
80 180 182
80 181 183
80 181 183
80 181 185
81 180 180
80 182 185
80 181 183
80 181 185
80 181 183
81 181 183
81 181 183
81 182 185
80 180 182
80 181 183
81 180 180
79 181 185
80 181 183
80 177 176
81 180 182
80 181 183
80 182 187
80 181 185
79 181 183
80 181 183
80 182 185
81 181 183
80 181 184
80 182 187
80 181 183
80 179 180
80 180 182
80 181 186
80 182 185
80 181 185
80 179 180
80 182 185
80 179 180
80 181 186
80 181 186
80 182 187
79 180 184
80 179 183
80 183 187
80 179 183
80 181 186
80 181 185
80 183 187
80 181 184
80 181 184
80 182 187
80 179 183
80 182 187
80 181 186
80 181 184
80 179 182
79 181 185
79 179 182
80 180 184
80 180 182
80 178 182
80 179 184
80 179 184
79 177 182
80 180 185
80 181 185
80 179 184
79 176 180
80 179 184
80 180 184
80 180 185
80 178 182
80 178 182
79 174 176
80 178 182
80 180 184
80 180 184
79 175 178
80 181 186
80 180 184
80 178 182
79 173 177
80 177 181
79 178 182
79 180 185
80 176 180
80 180 185
78 174 178
80 178 182
80 174 177
80 180 185
79 175 179
80 180 185
79 174 178
80 177 181
80 175 179
79 174 178
79 174 178
80 175 179
80 172 175
80 178 182
80 176 180
79 176 181
79 177 181
79 178 182
80 178 182
80 177 181
80 174 177
80 174 178
80 172 175
80 176 180
80 173 175
79 176 180
80 177 181
80 169 172
80 174 178
80 172 175
80 176 180
80 177 181
80 178 182
80 176 179
80 179 184
80 172 175
80 171 174
80 172 174
80 178 181
80 176 180
79 170 172
80 176 179
80 169 172
80 174 178
81 173 175
81 176 179
80 173 176
80 177 181
80 173 177
80 168 170
80 176 180
80 175 179
79 176 181
81 175 178
80 175 179
80 178 182
80 176 180
81 173 175
79 173 177
80 173 177
80 167 169
79 170 174
80 176 180
80 173 177
79 166 168
80 175 178
80 171 174
80 180 185
80 175 179
80 173 176
80 173 177
79 169 172
80 176 179
81 171 173
79 174 178
81 175 178
80 175 178
80 172 175
80 177 181
81 172 174
79 177 181
80 177 181
80 174 176
81 172 174
80 176 180
80 175 179
80 175 178
80 175 178
81 171 173
80 177 181
81 173 175
80 174 178
80 173 177
79 176 179
81 178 181
80 171 174
80 175 179
80 173 177
81 175 178
80 178 182
80 170 172
80 174 178
80 183 187
79 180 185
78 179 183
80 181 185
79 182 187
77 175 180
79 180 185
79 180 185
79 181 185
79 180 185
80 183 187
80 183 187
78 179 183
79 180 185
80 182 187
80 182 187
79 180 185
79 181 185
79 179 183
79 180 185
79 180 185
79 181 185
80 182 187
79 179 183
79 180 185
78 179 183
80 182 187
80 183 187
80 182 187
80 182 187
77 177 182
80 182 187
78 180 185
79 181 185
78 178 183
77 176 181
80 181 185
80 182 187
78 179 183
77 177 182
79 180 185
80 182 187
78 179 183
78 179 183
80 182 187
79 179 183
79 181 185
80 182 187
78 179 183
80 182 187
80 182 187
79 180 185
79 180 185
80 182 187
79 181 185
79 180 185
79 179 183
80 182 187
78 178 183
80 182 187
79 182 187
80 182 187
78 178 183
80 183 187
76 173 178
78 178 183
80 183 187
76 175 179
79 182 187
78 178 183
79 181 185
79 181 185
79 182 187
79 180 185
80 182 187
79 181 185
78 178 183
80 182 187
80 182 187
79 180 185
80 182 187
80 182 187
80 182 187
79 180 185
79 181 185
80 183 187
80 182 187
80 182 187
78 179 183
79 179 183
79 181 185
79 181 185
78 179 183
78 177 182
78 180 185
79 180 185
80 182 187
77 177 182
79 180 185
80 182 187
80 182 187
78 179 183
79 181 185
78 179 183
80 182 187
79 181 185
79 181 185
80 181 185
79 182 187
80 182 187
80 182 187
80 182 187
79 181 185
80 182 187
80 183 187
79 182 187
78 178 183
79 180 185
80 182 187
80 182 187
79 180 185
80 182 187
79 179 183
78 179 183
79 181 185
80 183 187
80 182 187
79 181 185
79 181 185
78 179 183
79 180 185
80 182 187
80 182 187
78 179 183
79 182 187
79 181 185
80 182 187
80 182 187
80 181 185
79 181 185
79 180 183
80 181 183
79 177 180
80 182 187
80 182 187
80 182 185
80 182 185
79 181 185
80 183 187
80 182 185
80 182 185
80 182 185
80 177 178
80 182 185
80 182 185
80 181 183
79 179 182
80 182 185
79 178 180
80 183 187
80 182 185
81 179 178
80 182 185
80 181 185
80 181 183
79 180 182
80 182 185
79 179 182
80 181 183
80 181 185
80 180 182
80 181 183
80 182 185
80 181 185
80 183 187
80 180 180
80 182 185
80 183 187
80 182 187
80 182 185
80 180 182
80 181 183
80 182 185
79 180 183
79 180 183
80 180 182
80 181 185
81 181 183
80 182 185
81 180 182
80 181 185
80 180 183
81 179 180
80 181 183
80 181 183
80 182 187
80 181 183
80 182 187
81 181 183
81 181 182
80 182 185
80 180 182
80 180 182
80 182 185
80 182 185
80 180 182
80 183 187
79 179 182
80 181 183
80 181 183
80 180 182
81 181 182
80 182 185
80 181 183
80 182 187
80 182 187
80 182 187
80 182 185
81 181 183
80 181 183
80 181 183
79 181 185
80 181 183
80 182 187
80 182 187
80 180 182
80 180 183
80 182 187
81 180 180
80 182 185
80 179 182
80 181 185
80 181 183
81 181 183
79 181 185
80 179 180
80 180 182
79 177 180
80 181 183
80 180 182
81 180 182
80 182 185
80 181 183
80 179 180
80 181 183
80 182 187
80 182 187
79 180 184
80 180 182
80 181 185
80 179 180
80 182 187
80 181 186
80 182 187
80 181 186
80 182 187
80 181 185
80 181 184
80 180 185
80 181 185
80 181 184
80 180 184
79 180 185
80 182 187
80 180 182
80 181 184
80 180 184
80 181 186
80 181 185
80 180 183
80 182 187
80 179 184
80 180 185
79 181 185
80 181 186
80 180 183
79 177 181
80 178 180
80 179 183
79 177 182
80 180 184
80 178 182
80 177 181
80 179 184
81 181 184
80 178 182
80 175 179
80 179 182
80 181 184
80 177 181
79 178 182
80 181 186
80 181 186
80 177 181
80 179 184
80 177 181
80 181 186
79 177 182
80 180 185
80 178 182
79 174 178
80 177 181
80 179 184
79 178 183
80 178 182
79 180 185
79 178 182
80 178 182
80 180 185
80 177 180
80 180 184
80 180 185
80 179 184
80 177 181
79 174 178
80 177 181
80 181 186
80 178 182
79 180 185
80 176 180
79 176 181
81 174 177
80 176 179
79 175 179
80 173 175
80 175 179
80 176 179
80 175 179
80 173 175
80 178 182
79 169 172
80 178 182
80 177 181
81 173 175
80 178 181
80 178 182
80 175 179
80 175 179
81 173 175
80 178 181
80 175 179
80 174 178
79 176 179
80 175 179
80 176 180
79 169 171
80 178 181
81 174 177
80 175 179
81 173 175
79 173 177
81 172 174
80 176 179
80 179 184
80 174 177
80 167 169
80 178 182
81 174 177
80 175 179
79 174 178
80 176 180
80 181 186
80 176 180
80 174 178
80 176 180
80 174 178
80 177 181
80 170 172
80 175 178
80 177 181
80 176 180
81 175 178
79 176 180
79 166 168
80 177 181
80 177 181
80 174 178
80 171 173
79 175 179
80 171 174
80 173 177
80 173 177
80 172 175
80 177 181
79 174 178
81 173 175
80 180 184
79 171 174
80 172 175
80 176 179
80 177 181
80 175 179
80 174 178
81 176 179
80 173 177
80 174 177
80 174 178
80 178 182
79 175 179
81 175 178
79 181 185
79 179 183
80 182 187
79 180 185
80 183 187
80 182 187
79 180 185
80 182 187
80 182 187
80 182 187
80 182 187
80 182 187
79 180 185
78 178 183
78 179 183
80 182 187
80 182 187
78 179 183
79 180 185
79 180 185
78 177 182
78 180 185
78 178 183
78 180 185
79 180 185
79 180 185
79 180 185
79 180 185
79 182 187
80 183 187
78 179 183
80 182 187
79 181 185
78 178 183
78 178 183
80 182 187
79 182 187
78 180 185
80 183 187
80 182 187
79 180 185
78 179 183
79 181 185
79 180 185
79 180 185
79 180 185
80 182 187
80 183 187
78 179 183
79 181 185
79 180 185
79 181 185
80 182 187
80 182 187
80 182 187
79 181 185
77 176 182
79 181 185
79 181 185
77 176 182
80 182 187
80 182 187
77 177 182
79 180 185
80 183 187
79 180 185
80 182 187
79 180 185
80 183 187
78 179 183
80 182 187
78 179 183
79 180 185
79 180 185
80 182 187
80 182 187
79 180 185
79 180 185
79 181 185
79 180 185
79 180 185
78 179 183
80 182 187
78 178 183
79 180 185
79 180 185
79 180 185
77 176 182
78 178 183
79 182 187
79 180 185
80 183 187
80 181 185
80 182 187
79 182 187
80 182 187
79 181 185
79 180 185
79 180 185
78 179 183
78 179 183
80 182 187
79 179 183
80 182 187
79 180 185
79 181 185
80 182 187
79 180 185
78 179 183
80 182 185
78 177 182
79 179 183
79 180 185
80 183 187
80 182 187
80 182 187
78 178 183
81 183 187
79 181 185
80 182 187
80 181 185
80 181 185
79 181 185
80 182 187
80 181 185
79 181 185
78 177 182
79 180 185
80 183 187
80 181 185
80 182 185
79 181 185
78 178 183
80 182 187
79 180 183
80 182 187
80 181 185
79 179 183
81 181 183
80 181 185
80 182 185
80 182 185
80 181 183
80 182 187
78 178 182
79 177 178
81 182 185
81 180 180
79 180 185
79 180 183
81 182 185
80 182 187
80 181 185
80 181 183
80 182 185
80 182 187
80 181 183
80 182 187
80 182 187
81 180 182
80 180 183
79 180 183
81 181 183
80 181 183
81 182 185
80 182 187
79 181 185
80 179 180
79 181 185
80 182 187
79 181 185
80 181 183
81 181 183
80 182 187
80 182 187
80 182 185
80 182 185
80 181 185
80 183 187
80 182 187
80 181 183
79 181 185
80 182 185
80 182 187
80 182 185
80 183 187
80 182 185
80 181 183
80 181 185
80 179 180
80 182 185
80 180 182
80 181 183
81 183 187
80 182 185
80 181 183
80 182 187
80 182 185
80 182 185
80 182 185
80 182 185
79 181 185
80 180 182
81 179 180
80 181 183
82 179 178
80 182 185
79 181 185
80 181 183
80 180 182
80 182 185
79 181 185
80 182 185
80 182 185
80 181 183
80 182 187
80 180 182
80 179 180
80 180 182
80 183 187
80 180 182
80 180 180
80 183 187
80 181 185
80 181 183
80 182 185
80 182 185
79 180 183
80 182 185
80 181 185
80 182 185
80 181 185
80 181 183
80 180 183
80 180 182
80 182 185
80 183 187
80 182 187
80 182 187
81 181 183
79 182 187
80 182 187
81 181 183
80 181 185
80 181 186
80 180 183
80 182 187
80 182 187
80 182 187
80 182 187
80 178 180
80 180 182
80 182 187
80 181 184
80 180 185
80 181 183
79 180 183
80 180 183
80 181 185
80 179 183
80 181 185
80 181 186
80 181 186
80 183 187
80 180 184
80 179 181
79 182 187
80 182 185
79 180 184
80 182 186
80 180 183
80 179 182
80 183 187
80 182 187
79 179 184
80 180 185
81 180 183
80 179 184
80 179 184
80 182 187
80 178 181
80 179 184
80 179 182
80 179 184
79 178 182
80 178 182
80 178 182
80 181 186
79 180 185
80 175 177
80 179 184
80 181 186
80 178 181
80 179 184
80 179 184
79 177 181
80 182 187
80 177 180
79 178 183
80 174 177
80 176 180
80 177 181
79 179 184
80 177 180
80 179 182
79 175 179
80 178 182
80 178 182
80 177 181
80 179 184
80 179 184
80 181 186
80 178 182
80 180 185
79 175 179
80 178 182
80 177 181
78 175 180
80 174 178
80 180 185
80 179 184
80 177 181
80 180 185
80 179 184
80 179 182
80 176 180
79 177 181
80 174 178
81 176 179
80 179 184
79 178 182
80 177 181
81 176 179
79 179 184
80 175 179
80 179 184
80 182 187
80 178 181
80 173 177
79 175 179
79 178 182
80 175 179
79 173 176
80 177 181
80 179 184
79 176 181
80 178 182
80 174 178
80 171 174
80 173 177
79 175 179
80 175 179
79 178 182
79 172 176
80 175 179
78 172 176
79 176 181
80 176 180
80 173 177
80 175 179
81 179 182
80 176 180
80 173 177
80 173 177
80 176 180
80 176 180
80 176 180
80 173 177
79 174 178
80 174 178
80 173 177
80 179 184
80 176 180
80 175 178
80 178 182
80 175 178
80 177 181
80 177 181
81 176 179
79 171 175
80 177 181
81 176 179
80 173 177
80 179 182
79 174 178
81 172 174
80 179 184
80 175 179
80 178 182
80 174 178
80 173 177
79 174 178
80 177 181
80 179 184
80 177 181
80 177 180
80 178 182
80 182 186
80 173 175
80 173 177
79 180 185
80 182 187
80 182 187
79 180 185
80 183 187
80 182 187
79 181 185
80 182 187
80 182 187
80 182 187
80 182 187
79 179 183
79 180 185
80 182 187
80 182 187
79 180 185
79 180 185
79 179 183
79 180 185
80 182 187
79 181 185
79 180 185
79 180 185
79 180 185
80 183 187
79 182 187
80 181 185
78 177 182
79 179 183
79 180 185
79 180 185
80 183 187
79 180 185
80 182 187
80 182 187
79 180 185
79 182 187
78 178 183
79 180 185
79 180 185
78 179 183
80 182 187
78 178 183
80 182 187
79 180 185
79 182 187
80 182 187
78 179 183
79 180 185
79 181 185
79 180 185
78 177 182
79 180 185
79 180 185
79 180 185
79 180 185
79 181 185
79 180 185
79 180 185
80 182 187
80 182 187
80 182 187
79 180 185
80 182 187
79 181 185
80 182 187
80 182 187
77 177 182
80 182 187
78 179 183
78 179 183
79 181 185
80 182 187
79 180 185
79 182 187
80 182 187
78 178 183
79 180 185
79 179 183
78 180 185
79 181 185
80 182 187
80 182 187
77 177 182
78 178 183
79 181 185
80 182 187
79 181 185
80 182 187
78 178 183
79 181 185
79 180 185
79 180 185
79 180 185
80 183 187
79 180 185
78 178 183
79 180 185
79 181 185
78 179 183
79 180 185
80 182 187
79 180 185
80 182 187
79 182 187
80 182 187
80 182 187
79 181 185
80 182 187
80 182 187
79 181 185
80 183 187
79 181 185
80 182 187
79 181 185
80 183 187
78 179 183
80 182 187
80 181 185
79 180 185
80 182 187
79 178 182
79 181 185
80 182 187
78 177 182
80 182 187
81 183 187
80 183 187
80 182 185
79 181 185
80 182 185
80 183 187
79 179 183
79 178 182
79 180 185
80 182 187
80 182 187
80 180 183
80 183 187
79 181 185
80 182 187
80 183 187
80 182 187
79 180 183
80 182 187
80 182 185
80 182 185
79 181 185
79 179 183
80 182 187
80 182 185
80 182 185
80 182 187
79 180 183
80 182 187
81 179 178
80 181 183
80 182 185
79 182 187
80 182 185
80 182 187
80 182 185
79 180 183
80 182 187
80 182 187
80 181 183
80 181 183
80 182 187
80 182 185
80 183 187
80 181 183
79 181 183
81 179 178
80 183 187
80 182 185
80 180 183
80 181 183
80 182 187
80 182 185
80 182 185
80 182 187
80 181 183
80 182 185
80 182 187
80 181 183
80 181 182
80 181 183
80 182 185
80 181 183
80 181 185
80 181 183
79 181 185
79 182 187
79 180 183
80 181 183
80 182 185
80 181 183
81 183 187
81 181 183
80 181 183
79 182 187
80 182 187
80 180 182
80 182 187
81 180 182
80 183 187
81 181 183
80 181 185
80 182 187
80 183 187
80 182 187
80 182 187
80 180 182
81 181 182
80 182 187
80 182 185
80 183 187
80 181 183
81 180 182
80 182 185
81 180 182
80 181 183
80 183 187
80 181 183
79 181 185
80 181 183
80 182 185
79 181 185
80 182 187
80 181 185
80 182 185
80 179 180
80 181 185
80 183 187
80 181 183
81 182 185
80 178 178
80 181 183
80 182 187
80 182 187
80 182 185
80 182 187
80 181 186
80 181 185
80 180 182
80 181 183
80 182 187
80 181 183
81 182 185
80 180 182
80 180 182
79 181 186
80 180 182
80 180 184
80 181 186
80 181 186
80 182 185
80 182 185
80 182 187
80 182 185
80 180 185
81 182 185
80 180 183
80 182 186
80 181 185
80 182 186
80 182 186
80 182 187
80 183 187
80 182 187
80 181 184
80 182 186
80 183 187
78 179 183
80 182 187
80 182 185
79 180 184
80 181 185
79 178 183
80 180 183
80 179 184
79 182 187
80 178 181
80 178 181
80 179 184
80 177 181
80 179 184
80 179 184
79 180 185
80 180 185
80 180 184
79 180 185
80 181 186
80 182 186
80 181 186
80 177 181
80 182 187
80 180 184
79 177 182
80 179 184
80 180 185
80 179 184
79 179 184
80 175 179
80 180 185
80 179 184
80 178 182
80 178 182
80 174 178
80 177 181
78 178 182
80 178 181
79 178 182
79 177 181
79 179 183
80 180 185
80 180 185
81 180 184
80 180 185
80 177 181
80 175 179
80 179 184
80 177 181
79 176 181
80 175 178
80 178 182
80 180 184
80 177 181
79 174 178
80 177 181
80 178 181
80 177 181
80 175 179
79 174 177
80 178 182
80 177 180
79 174 177
80 177 181
79 175 179
80 175 179
80 178 181
79 178 183
80 179 184
80 178 182
80 176 180
78 173 176
79 174 177
80 177 181
80 178 181
80 176 180
79 176 181
80 171 174
80 172 175
80 179 184
80 177 181
80 176 180
79 175 179
80 179 184
80 174 178
80 175 179
80 178 182
80 177 181
79 175 179
80 178 182
79 176 180
80 178 182
79 171 174
80 176 180
80 177 181
79 170 173
79 176 181
80 178 182
79 175 178
79 173 177
81 177 180
80 175 179
80 174 178
80 177 180
79 176 181
79 181 186
80 175 179
80 173 177
80 174 178
80 174 178
80 175 178
79 172 176
80 178 181
80 177 181
79 178 182
80 174 178
79 172 175
80 177 180
80 174 177
80 172 175
79 174 178
80 178 182
80 177 181
80 177 181
80 171 174
80 169 171
79 180 185
80 182 187
79 180 185
78 179 183
79 181 185
79 182 187
79 180 185
78 179 183
78 178 183
80 182 187
78 178 183
79 181 185
79 181 185
80 182 187
79 180 185
78 178 183
79 181 185
77 176 182
80 182 187
80 183 187
78 179 183
80 182 187
80 182 187
80 182 187
79 180 185
79 182 187
79 181 185
77 176 182
80 183 187
79 179 183
79 179 183
78 178 183
78 178 183
80 182 187
80 183 187
80 182 187
79 179 183
77 177 182
79 180 185
78 178 183
79 181 185
79 180 185
78 179 183
79 180 185
80 183 187
79 181 185
79 180 185
80 181 185
80 183 187
80 183 187
79 180 185
79 180 185
79 181 185
79 181 185
79 179 183
79 180 185
75 172 176
80 182 187
79 181 185
80 182 187
79 180 185
79 181 185
80 182 187
79 181 185
79 181 185
78 178 183
80 182 187
79 180 185
79 181 185
79 180 185
79 180 185
80 183 187
80 182 187
79 180 185
80 182 187
80 182 187
79 180 185
78 179 183
80 182 187
79 181 185
79 180 185
80 182 187
78 179 183
80 182 187
79 180 185
80 182 187
79 181 185
79 181 185
80 182 187
79 182 187
79 181 185
80 182 187
79 180 185
80 182 187
79 180 185
80 182 187
79 182 187
80 182 187
78 179 183
80 183 187
80 183 187
80 182 187
80 182 187
80 182 187
79 181 185
80 182 187
80 183 187
78 177 182
80 183 187
80 182 187
80 182 187
80 182 187
80 182 187
80 182 187
80 183 187
80 183 187
80 182 187
80 182 187
79 180 185
79 180 185
79 182 187
78 178 182
80 182 187
79 179 183
79 182 187
80 183 187
80 183 187
80 182 187
79 180 185
80 182 187
80 182 187
80 183 187
79 180 183
79 181 185
78 179 183
80 182 187
80 182 187
80 182 187
79 181 185
80 182 187
80 182 185
79 180 185
79 182 187
80 182 187
80 182 187
80 182 185
80 181 183
80 183 187
80 182 185
79 182 187
80 182 185
81 181 183
80 183 187
80 181 185
80 180 182
79 181 185
79 180 185
81 183 187
80 182 187
80 183 187
80 182 187
79 182 187
80 182 187
80 181 183
80 181 185
80 182 185
80 181 183
81 182 185
81 182 185
80 181 183
80 182 185
80 181 185
80 181 185
80 181 185
80 181 183
80 181 183
80 182 185
80 182 187
80 182 187
80 182 185
80 182 185
80 182 185
81 182 185
80 183 187
80 181 185
80 181 185
80 183 187
80 182 185
80 182 187
81 182 185
80 181 183
80 180 182
80 182 185
80 181 183
80 181 183
80 182 185
80 181 185
80 182 185
81 181 183
80 182 185
80 182 187
81 181 183
80 181 183
80 182 185
80 182 185
80 182 185
80 183 187
80 182 187
80 181 185
80 182 185
80 182 185
80 182 187
80 181 183
80 182 185
80 182 187
80 181 185
80 182 185
81 179 178
80 182 185
80 182 187
80 180 182
80 182 185
80 183 187
80 182 185
80 181 183
79 181 183
80 182 187
80 180 182
80 182 187
80 182 185
81 180 182
80 182 185
80 182 187
80 181 185
80 182 187
80 181 183
80 180 182
80 182 185
80 183 187
80 182 185
80 182 185
80 181 184
80 181 185
80 180 182
80 182 187
80 183 187
80 182 185
80 182 185
80 182 187
80 182 187
80 182 187
80 181 184
80 182 187
80 181 186
80 181 183
80 181 186
80 183 187
80 181 186
80 182 185
80 181 186
80 183 187
80 182 185
80 181 185
80 181 183
79 178 183
80 180 185
80 182 187
80 182 187
80 182 187
80 182 187
80 180 183
80 181 186
80 183 187
80 182 187
80 182 187
80 177 181
80 182 187
80 180 185
79 180 184
80 181 185
80 181 186
80 178 182
80 183 187
80 179 184
80 181 186
80 180 184
79 180 184
79 180 185
80 180 185
78 179 183
80 181 186
80 181 186
80 177 181
80 180 185
80 178 181
80 179 184
79 177 181
80 183 187
79 178 182
80 181 185
80 180 184
80 181 186
80 178 182
79 177 181
80 178 182
80 181 186
79 179 184
80 177 181
80 181 186
80 178 182
80 178 182
80 175 178
80 176 179
80 178 182
80 176 180
79 176 181
80 180 184
79 178 182
79 177 181
80 179 182
80 179 184
80 179 184
80 177 181
79 176 181
80 175 179
80 175 179
80 179 184
79 178 182
79 176 179
80 175 178
80 178 182
80 176 180
80 173 177
79 179 183
80 180 184
80 177 181
80 177 181
80 175 179
79 176 180
79 177 182
80 180 184
80 174 178
80 178 182
81 175 178
80 177 181
80 176 180
81 172 174
80 175 179
80 181 186
80 177 181
80 173 177
80 174 178
81 175 178
80 177 181
80 179 184
80 175 178
80 175 178
80 172 175
80 175 179
80 173 177
80 180 185
80 178 182
79 176 181
80 175 179
80 177 180
79 177 182
80 177 181
80 172 175
79 180 185
80 178 181
80 174 178
80 176 180
79 176 181
79 171 175
80 175 178
80 178 181
80 180 185
79 177 182
80 176 180
80 175 179
80 177 181
80 172 175
80 173 175
79 175 179
80 178 182
80 175 178
80 175 178
80 177 180
80 174 178
80 176 180
80 178 182
80 173 177
80 177 181
80 178 182
80 177 181
80 178 182
80 178 181
79 179 184
80 177 181
80 174 177
80 182 187
79 180 185
79 181 185
79 181 185
79 180 185
80 181 185
79 181 185
80 183 187
79 180 185
80 182 187
78 180 185
78 179 183
79 181 185
78 177 182
80 182 187
79 182 187
80 183 187
77 177 182
79 180 185
78 178 183
79 180 185
78 178 183
78 178 183
80 182 187
80 182 187
79 181 185
80 182 187
80 182 187
78 179 183
80 182 187
80 182 187
79 180 185
80 182 187
79 179 183
80 182 187
78 179 183
80 182 187
79 181 185
78 178 183
79 180 185
79 180 185
80 182 187
80 182 187
80 183 187
79 180 185
79 182 187
81 183 187
80 182 187
78 178 183
79 180 185
78 178 183
79 181 185
79 179 183
80 182 187
80 183 187
77 177 182
80 182 187
80 183 187
77 177 182
79 180 185
79 179 183
80 182 187
79 182 187
79 181 185
80 182 187
80 182 187
79 181 185
80 183 187
76 175 180
79 180 185
79 180 185
80 182 187
80 182 187
80 182 187
80 182 187
78 179 183
80 182 187
80 183 187
79 180 185
79 180 185
79 182 187
80 182 187
80 182 187
78 178 183
79 181 185
79 180 185
79 181 185
80 182 187
79 180 185
78 179 183
79 181 185
79 181 185
76 174 180
79 180 185
80 182 187
78 179 183
80 182 187
79 181 185
80 182 187
79 180 185
80 182 187
80 182 187
80 182 187
79 180 185
80 182 187
79 180 185
80 182 187
80 183 187
80 182 187
79 180 185
80 183 187
79 181 185
77 177 182
80 183 187
81 183 187
80 183 187
80 182 187
79 181 185
78 179 183
80 183 187
79 179 183
79 181 185
80 183 187
80 182 187
79 182 187
80 183 187
80 183 187
79 181 185
80 182 187
80 182 187
80 182 187
80 181 183
81 183 187
80 183 187
80 182 187
80 183 187
80 182 187
80 182 185
79 179 183
80 182 187
80 182 187
80 182 185
80 182 187
80 183 187
79 180 183
80 182 185
81 182 185
80 182 187
80 183 187
80 183 187
80 181 183
81 182 185
80 182 187
80 181 183
80 182 185
80 182 185
80 182 187
80 182 187
80 182 185
80 182 187
80 182 185
80 181 185
80 181 183
80 182 185
80 182 187
80 182 187
80 183 187
80 182 185
80 182 185
80 182 185
80 182 187
80 182 185
80 182 187
80 182 185
80 182 187
80 181 183
80 182 187
80 182 185
80 182 187
80 183 187
81 182 185
80 183 187
80 183 187
80 182 187
80 182 187
80 182 187
80 182 185
80 183 187
80 182 187
81 181 183
80 182 187
80 181 185
80 182 187
79 181 187
80 183 187
80 182 185
80 183 187
80 183 187
80 183 187
81 181 183
81 182 185
81 180 182
81 180 182
80 181 185
80 181 185
79 181 185
81 181 183
81 181 183
80 182 185
80 182 187
80 181 185
80 180 182
81 180 182
80 181 185
80 182 185
80 182 187
80 183 187
80 181 185
80 183 187
80 182 185
79 181 185
80 181 183
80 182 185
80 182 185
80 182 187
80 182 187
80 182 187
80 182 187
80 180 183
80 182 185
80 182 187
80 182 187
80 182 185
80 181 183
80 182 185
80 181 183
80 180 183
79 182 187
80 182 185
80 183 187
80 181 186
80 182 187
80 182 185
81 183 187
81 182 185
80 182 185
80 182 185
80 182 187
80 180 184
80 182 185
80 183 187
80 183 187
80 182 187
80 181 185
80 182 187
80 180 185
80 180 183
80 181 183
80 181 186
80 181 184
80 181 185
80 180 183
80 183 187
80 181 186
80 183 187
80 182 187
80 182 186
80 183 187
80 181 185
80 181 186
80 182 185
78 177 181
79 180 185
80 183 187
79 179 184
79 180 185
80 181 186
81 182 185
80 180 185
80 182 187
80 181 186
80 181 186
80 181 186
80 182 187
79 180 184
80 181 186
80 182 187
80 178 182
80 181 186
80 181 186
80 179 184
80 183 187
79 177 182
80 180 185
80 182 186
80 181 185
79 180 185
80 181 186
80 180 185
79 177 182
80 179 184
80 182 186
80 180 185
79 179 184
80 180 184
80 180 184
80 180 185
80 181 186
80 180 185
79 178 182
80 178 182
80 181 186
80 177 181
80 178 181
79 182 187
80 180 185
80 179 182
79 173 177
80 179 184
80 181 185
80 183 187
80 177 181
80 179 184
79 176 180
80 181 185
80 175 179
78 174 178
80 180 184
80 180 185
80 179 184
81 174 177
80 180 184
80 181 186
80 173 175
80 175 179
80 178 181
80 177 180
78 174 179
80 179 184
80 176 180
80 181 185
80 178 182
80 172 175
80 179 184
79 176 180
80 179 184
80 174 178
80 178 182
80 178 181
80 179 184
80 179 182
80 178 181
80 170 173
80 178 182
79 172 176
79 180 184
80 178 182
79 177 181
79 175 179
80 178 182
80 179 182
80 179 184
80 179 182
80 178 182
80 175 179
80 175 179
80 180 185
81 174 177
80 173 177
80 175 178
80 176 180
80 176 180
80 174 178
80 177 181
80 176 180
80 175 178
80 171 174
80 177 181
78 174 178
79 179 184
80 176 180
80 176 179
80 173 176
80 175 179
80 176 179
79 174 177
80 178 181
81 177 180
79 177 182
79 177 182
80 177 181
80 177 180
80 169 171
80 177 181
80 177 181
79 175 179
80 170 173
80 173 177
80 177 181
79 179 184
80 182 187
79 180 185
79 180 185
79 181 185
80 182 187
79 181 185
79 181 185
76 174 180
78 178 183
78 180 185
79 182 187
79 180 185
80 182 187
79 180 185
79 181 185
79 182 187
80 182 187
79 182 187
79 181 185
79 180 185
80 182 187
80 181 185
80 182 187
78 180 185
79 180 185
78 180 185
78 179 183
78 177 182
80 182 187
80 182 187
79 181 185
79 179 183
79 182 187
79 180 185
79 180 185
80 182 187
79 180 185
78 178 183
80 182 187
79 180 185
79 179 183
80 182 187
79 182 187
80 182 187
80 182 187
79 181 185
80 182 187
79 180 185
80 183 187
79 180 185
80 181 185
77 176 182
79 181 185
80 182 187
78 178 183
80 183 187
77 177 182
80 182 187
79 182 187
80 182 187
79 180 185
80 181 185
80 182 187
80 183 187
80 182 187
79 182 187
80 183 187
78 179 183
80 183 187
79 181 185
79 181 185
78 178 183
80 182 187
79 182 187
80 182 187
80 182 187
80 182 187
80 182 187
80 182 187
79 180 185
79 180 185
80 183 187
80 182 187
78 178 183
79 180 185
80 182 187
80 182 187
77 176 182
80 182 187
78 178 183
79 180 185
79 181 185
79 181 185
79 181 185
80 182 187
79 180 185
78 177 182
78 179 183
78 178 183
79 181 185
80 182 187
80 182 187
78 178 183
79 180 185
80 182 187
79 181 185
79 180 185
80 181 185
79 180 185
80 182 187
80 182 187
80 182 187
79 180 185
79 180 185
80 181 185
80 183 187
80 182 187
79 181 185
79 181 185
80 183 187
80 182 187
80 182 187
80 182 187
80 182 187
79 182 187
80 183 187
80 182 187
79 182 187
80 182 187
80 182 187
80 182 187
79 180 185
80 182 187
80 182 187
80 182 187
80 182 187
80 182 187
80 183 187
80 182 187
81 182 185
80 182 187
80 182 187
80 183 187
80 181 185
80 183 187
80 182 187
80 182 187
80 181 185
80 181 183
80 183 187
80 183 187
80 183 187
80 183 187
81 182 185
80 183 187
81 183 187
80 181 185
80 182 187
80 182 187
80 181 185
80 182 187
80 182 187
80 182 187
80 182 187
79 182 187
79 182 187
79 181 185
80 183 187
80 182 185
80 181 185
80 181 185
80 182 187
80 182 187
80 182 187
80 182 185
80 180 182
80 182 187
80 182 187
80 183 187
79 181 183
80 183 187
80 181 183
80 182 185
80 182 185
80 182 187
80 182 185
80 182 187
80 182 185
80 181 183
80 181 183
80 182 187
80 182 187
80 182 185
80 183 187
80 181 185
80 181 183
81 181 183
80 182 187
80 181 183
80 182 185
80 182 187
80 181 183
80 182 187
80 181 185
80 182 185
80 182 187
80 181 185
80 183 187
80 182 187
80 182 185
80 181 183
80 182 185
80 181 185
80 180 182
80 182 185
80 183 187
80 183 187
80 182 187
81 183 187
80 182 185
80 182 187
80 182 185
80 183 187
80 181 183
80 183 187
80 182 187
81 180 182
80 180 182
80 182 187
80 183 187
80 181 185
80 182 187
80 181 183
80 182 187
80 182 187
80 182 185
79 182 187
80 182 187
80 182 187
80 181 185
80 182 187
80 182 187
80 182 187
80 183 187
79 182 187
80 182 187
80 181 185
80 182 185
80 182 187
80 181 183
80 182 185
80 182 187
80 181 186
80 182 185
80 182 187
80 183 187
80 182 187
80 182 185
80 180 183
80 182 187
80 181 184
80 182 187
80 181 186
80 182 187
80 179 183
80 181 186
80 182 186
80 180 184
80 181 186
80 182 187
80 181 186
80 181 185
81 183 187
80 182 186
80 181 186
80 180 185
80 180 185
80 182 187
80 180 184
80 182 187
80 181 186
80 180 185
80 183 187
80 182 187
80 181 186
80 181 186
80 180 185
80 182 186
79 179 184
80 181 186
80 181 186
80 178 182
80 183 187
80 180 185
80 181 185
80 179 184
79 180 185
80 179 184
79 179 184
80 178 182
80 181 186
80 181 186
80 180 185
80 177 181
80 183 187
80 180 185
79 177 182
80 180 185
80 183 187
80 178 182
80 178 182
80 181 186
80 178 182
80 177 181
79 177 182
79 178 183
80 179 184
80 180 185
79 177 182
80 178 182
80 180 185
80 175 179
79 180 185
79 175 179
79 175 179
80 178 182
80 179 184
80 176 179
80 177 181
80 179 184
79 175 179
79 173 177
80 178 182
80 179 184
80 179 182
79 179 184
80 180 184
80 179 184
80 178 182
80 176 179
80 178 182
80 181 186
80 179 184
80 177 180
80 179 182
80 178 182
80 180 185
80 176 180
79 176 181
79 176 180
80 175 179
79 175 179
80 179 184
80 179 184
79 178 182
80 178 182
79 173 176
79 174 177
79 177 182
80 180 185
80 173 176
80 176 179
80 175 179
80 175 179
80 174 178
80 177 181
80 180 184
80 176 180
80 178 182
79 174 178
79 175 179
80 178 182
80 174 178
80 175 179
80 179 184
80 178 182
80 178 182
80 174 178
80 177 180
80 178 181
79 176 181
80 177 181
80 180 185
79 177 181
80 176 180
80 178 182
81 181 185
80 179 184
80 176 180
80 178 182
80 175 179
80 178 182
80 177 180
80 178 182
80 180 185
80 174 177
80 175 179
79 177 181
80 174 178
80 175 179
79 181 185
79 180 185
80 182 187
80 182 187
79 181 185
80 182 187
80 182 187
80 182 187
79 180 185
78 178 183
77 177 182
78 179 183
78 179 183
79 179 183
80 182 187
80 182 187
80 182 187
78 177 182
79 180 185
78 179 183
78 178 183
80 182 187
79 182 187
80 182 187
79 180 185
80 181 185
79 182 187
78 179 183
79 182 187
80 182 187
80 182 187
79 180 185
79 181 185
79 181 185
78 177 182
76 175 180
80 183 187
79 181 185
80 182 187
79 180 185
80 182 187
79 181 185
79 180 185
80 182 187
79 181 185
78 178 183
80 183 187
78 179 183
80 182 187
78 178 183
80 182 187
80 181 185
78 179 183
80 182 187
79 179 183
80 183 187
80 182 187
78 178 183
78 179 183
79 180 185
80 183 187
79 182 187
78 179 183
79 180 185
80 182 187
79 180 185
79 180 185
79 180 185
78 178 183
80 182 187
79 180 185
80 182 187
80 182 187
79 180 185
80 183 187
79 180 185
79 182 187
79 181 185
80 182 187
79 180 185
79 180 185
80 182 187
78 179 183
80 183 187
79 181 185
79 180 185
79 180 185
78 178 183
79 180 185
80 182 187
80 183 187
80 183 187
79 181 185
80 182 187
79 180 185
79 180 185
80 183 187
80 183 187
80 182 187
79 179 183
80 182 187
79 181 187
80 182 187
80 182 187
80 182 187
79 180 185
79 181 185
80 182 187
79 181 185
78 179 183
79 181 185
80 183 187
80 182 187
79 180 185
80 182 187
80 182 187
78 179 183
79 179 183
80 183 187
80 183 187
80 182 187
80 183 187
80 182 187
80 182 187
80 182 187
80 183 187
80 182 187
79 180 183
80 181 185
79 181 185
79 181 185
78 179 183
80 182 187
80 182 187
80 183 187
80 182 187
80 182 187
80 182 187
79 180 185
80 181 185
80 183 187
79 182 187
80 183 187
80 181 185
80 182 187
80 182 187
81 182 185
80 183 187
80 183 187
80 183 187
80 182 187
81 181 183
80 182 187
81 183 187
80 181 185
80 182 187
81 182 185
80 182 187
80 182 187
80 182 187
80 182 187
80 182 185
80 180 183
80 182 185
80 181 185
80 182 185
80 181 183
80 182 185
80 182 187
80 183 187
80 181 183
80 181 183
80 181 183
80 182 185
80 181 185
79 182 187
80 183 187
80 181 185
79 182 187
80 180 183
81 183 187
80 181 185
80 182 185
80 183 187
80 182 187
80 181 185
80 182 187
80 182 185
80 182 187
81 181 182
80 181 185
80 182 185
80 182 187
80 182 187
80 182 187
81 181 183
80 182 187
80 182 185
80 182 187
80 181 183
80 182 187
80 182 185
80 182 187
80 182 185
80 181 185
80 181 185
80 182 185
80 182 187
80 182 187
80 182 187
80 182 187
80 182 185
80 181 183
80 182 185
80 182 187
80 182 187
80 182 185
80 181 185
80 182 185
80 182 187
80 182 185
80 182 187
81 182 185
80 182 187
81 182 185
80 182 185
80 182 187
80 182 187
80 182 185
80 181 183
80 183 187
80 182 187
80 182 187
80 181 183
80 182 187
80 182 185
80 182 187
80 182 187
80 182 187
80 182 185
80 181 183
80 183 187
80 182 185
80 183 187
80 183 187
80 181 185
80 181 183
80 182 185
80 183 187
80 182 185
80 182 187
80 182 187
80 182 187
80 182 187
80 182 187
80 182 187
80 182 187
79 181 185
80 182 187
80 182 185
80 182 187
80 181 185
80 182 186
80 182 187
80 183 187
80 180 185
80 181 186
79 180 185
80 183 187
79 180 184
80 183 187
80 182 186
80 183 187
80 181 186
80 182 187
80 182 187
80 182 186
80 179 184
80 181 186
79 181 186
80 180 183
80 181 186
80 181 186
80 181 185
80 181 186
80 183 187
80 182 187
80 181 186
80 179 184
79 179 184
79 180 185
79 180 185
80 182 186
79 179 183
80 181 186
80 180 185
80 181 186
79 181 185
80 179 182
80 182 187
80 181 186
80 183 187
80 179 182
79 178 182
80 183 187
80 179 184
79 178 183
80 181 185
80 178 182
80 179 184
80 179 184
80 182 187
80 180 185
79 176 181
80 178 182
80 177 180
79 176 181
80 179 184
80 181 185
80 178 182
79 177 182
79 180 184
80 177 181
80 179 184
80 178 182
80 178 181
80 179 184
80 177 181
78 179 184
80 180 185
80 176 180
80 180 185
79 178 183
80 181 185
80 179 184
80 178 182
80 175 179
80 177 180
80 178 181
80 178 182
80 179 184
79 179 184
80 175 179
80 178 182
80 180 185
79 180 184
80 176 180
80 176 180
80 181 186
79 173 176
80 176 180
80 176 180
80 174 178
80 178 182
80 179 184
79 177 181
80 177 181
79 178 182
80 177 181
80 178 182
79 178 183
80 179 182
80 182 186
80 179 184
80 177 181
80 180 185
80 178 182
80 177 181
80 177 181
80 177 181
80 178 182
80 177 181
79 178 183
79 173 177
80 177 181
78 174 179
80 180 185
79 176 179
80 177 181
80 179 184
79 176 179
79 180 185
80 178 182
80 180 185
80 174 178
80 171 173
80 178 182
80 179 184
80 179 184
80 180 184
78 178 183
79 177 182
79 175 179
78 174 179
79 174 177
80 177 181
79 175 179
80 176 180
80 177 180
80 175 179
80 182 187
80 183 187
80 182 187
79 180 185
80 182 187
80 182 187
80 182 187
79 180 185
80 182 187
79 181 185
79 180 185
80 182 187
79 182 187
80 182 187
79 181 185
80 183 187
79 180 185
78 177 182
80 182 187
78 179 183
79 180 185
80 182 187
80 182 187
78 178 183
79 180 185
80 183 187
79 180 185
78 179 183
80 182 187
80 182 187
79 181 185
80 182 187
77 177 182
80 182 187
79 180 185
79 180 185
80 183 187
77 176 182
80 182 187
80 182 187
80 182 187
80 182 187
78 178 183
79 180 185
80 182 187
80 182 187
79 181 185
80 182 187
80 182 187
79 180 185
80 182 187
80 182 187
78 179 183
80 183 187
80 182 187
80 182 187
80 182 187
78 178 183
80 182 187
79 180 185
80 182 187
80 182 187
80 182 187
79 181 185
80 182 187
80 182 187
80 182 187
79 182 187
80 182 187
80 182 187
79 182 187
80 182 187
80 182 187
80 183 187
79 180 185
80 182 187
79 179 183
78 179 183
78 179 183
79 180 185
80 182 187
80 183 187
80 182 187
80 181 185
79 179 183
80 182 187
78 179 183
79 180 185
80 182 187
79 180 185
80 182 187
79 180 185
79 180 185
80 182 187
79 180 185
79 181 185
80 182 187
80 183 187
79 181 185
80 182 187
80 182 187
80 182 187
80 183 187
80 182 187
78 178 183
80 182 187
80 182 187
80 182 187
79 180 185
79 180 185
79 180 185
79 182 187
80 182 187
80 183 187
80 182 187
79 181 185
80 182 187
79 182 187
79 182 187
80 183 187
80 183 187
80 181 185
80 183 187
80 182 187
80 182 187
80 182 187
80 182 187
80 182 187
80 183 187
80 183 187
80 182 187
80 183 187
80 182 187
80 183 187
80 182 187
80 183 187
80 183 187
80 183 187
80 182 187
80 182 187
79 180 183
80 182 187
80 181 183
79 182 187
79 182 187
80 181 185
81 182 185
79 182 187
80 182 187
80 183 187
80 181 185
80 182 187
80 183 187
80 183 187
81 183 187
80 183 187
80 182 187
80 181 185
80 182 187
80 182 187
80 182 187
80 182 185
80 182 187
80 182 187
80 182 187
80 182 187
80 182 187
80 182 185
80 182 185
80 183 187
80 182 187
80 182 187
80 182 185
80 183 187
80 183 187
80 182 185
80 182 187
80 182 185
80 181 185
80 182 187
80 183 187
80 182 185
80 182 185
80 183 187
80 183 187
80 182 187
80 182 187
80 183 187
80 183 187
80 182 185
80 182 187
80 182 187
80 183 187
80 181 185
80 182 185
80 183 187
80 181 185
80 183 187
80 182 185
80 181 183
80 182 185
81 182 185
80 182 185
80 182 187
80 181 183
80 182 187
80 180 183
79 181 185
80 181 183
80 180 182
80 182 187
80 182 187
80 182 187
80 182 187
80 182 187
80 182 185
81 183 187
80 183 187
80 181 185
80 182 187
80 181 185
80 183 187
80 181 185
80 183 187
80 182 185
80 182 187
80 182 187
80 181 185
80 181 185
80 183 187
80 182 187
80 183 187
80 183 187
79 182 187
79 182 187
80 182 187
80 181 183
80 182 187
80 182 187
80 183 187
80 182 187
80 182 187
80 182 185
80 182 185
80 182 186
79 182 187
80 182 187
80 182 187
80 183 187
79 181 185
80 182 187
80 182 187
80 182 187
81 183 187
80 181 186
80 182 187
80 182 186
80 182 187
80 182 187
80 182 187
80 182 187
80 182 187
80 182 185
80 183 187
80 183 187
80 183 187
80 181 186
80 182 187
80 182 187
79 181 185
80 182 187
80 182 187
80 183 187
79 181 186
80 182 187
80 183 187
80 180 185
80 180 185
80 180 184
80 182 186
80 182 186
80 182 187
80 180 185
80 180 185
80 182 186
80 180 185
80 182 186
80 182 187
80 180 185
80 181 185
80 181 186
80 182 187
80 181 186
79 178 183
80 180 185
80 181 186
80 180 185
80 179 184
80 179 184
80 180 185
80 180 184
80 181 186
80 179 184
80 180 185
79 179 184
80 179 182
79 175 179
80 181 186
80 181 185
79 180 185
79 180 185
80 180 185
79 179 184
80 180 185
79 180 185
79 175 179
80 179 184
80 178 182
80 182 187
80 181 186
80 179 184
80 177 181
80 183 187
80 181 186
80 177 181
80 177 181
80 181 186
79 177 182
79 175 178
80 180 185
79 177 182
80 177 181
80 181 185
80 181 186
79 177 181
80 181 186
79 178 183
80 182 187
80 178 182
80 177 181
79 182 187
80 177 181
80 178 182
79 179 183
80 177 181
80 179 184
80 178 182
80 174 178
80 176 180
79 175 179
80 176 179
80 176 180
79 171 174
80 180 185
80 176 180
79 178 183
80 178 182
79 176 181
79 176 180
80 174 177
80 182 187
80 179 184
80 175 179
80 176 180
80 175 179
80 179 182
80 179 184
80 177 181
80 181 186
79 175 179
79 176 179
79 175 179
79 174 177
80 178 182
80 176 180
80 179 184
80 174 178
79 175 178
80 177 181
80 175 179
80 178 181
80 180 185
80 179 184
80 181 186
80 177 181
80 177 180
79 178 182
80 178 182
80 179 184
80 178 182
79 178 182
80 176 180
80 179 184
80 177 180
78 173 176
79 178 183
80 180 185
80 180 185
80 177 181
79 173 176
79 182 187
80 182 187
78 179 183
79 181 185
79 182 187
80 182 187
80 182 187
80 182 187
78 178 183
79 182 187
79 182 187
80 182 187
78 178 183
79 180 185
78 180 185
80 182 187
77 176 182
79 180 185
80 183 187
80 182 187
80 182 187
79 180 185
79 180 185
78 177 182
79 180 185
79 179 183
80 182 187
80 182 187
80 182 187
79 182 187
80 182 187
79 181 185
80 182 187
80 182 187
80 182 187
80 182 187
79 181 185
78 179 183
79 181 185
80 182 187
80 182 187
79 181 185
79 180 185
80 182 187
79 180 185
79 180 185
78 179 183
79 180 185
80 183 187
79 180 185
80 182 187
79 180 185
79 180 185
79 180 185
79 180 185
79 180 185
80 182 187
80 182 187
79 182 187
79 181 185
80 182 187
80 182 187
79 180 185
80 182 187
78 178 183
79 182 187
79 181 185
79 181 185
80 183 187
80 181 185
78 179 183
80 181 185
79 181 185
80 182 187
80 183 187
80 182 187
80 182 187
79 180 185
79 180 185
80 182 187
80 182 187
80 182 187
80 182 187
78 177 182
79 180 185
80 182 187
80 182 187
79 181 185
80 182 187
79 181 185
80 182 187
80 182 187
80 182 187
80 182 187
80 182 187
79 180 185
79 182 187
80 183 187
80 183 187
80 182 187
79 182 187
79 180 185
79 181 185
80 182 187
79 181 185
79 181 185
80 183 187
80 182 187
80 182 187
80 181 185
80 183 187
80 182 187
80 182 187
79 180 185
80 182 187
80 182 187
80 182 187
79 180 185
80 183 187
79 180 185
80 183 187
79 181 185
80 182 187
80 182 187
80 182 187
80 182 187
79 181 185
79 180 185
80 182 187
80 183 187
80 183 187
80 182 187
80 182 187
80 182 187
80 182 187
80 183 187
80 182 187
80 182 187
80 182 185
79 180 185
80 182 187
80 183 187
80 182 187
80 182 187
80 182 187
80 182 187
80 182 187
81 183 187
80 183 187
80 182 187
80 183 187
79 180 185
80 181 185
80 183 187
81 182 185
79 182 187
80 181 185
81 182 185
80 182 187
80 182 187
80 182 187
80 182 185
80 182 187
80 182 187
80 183 187
80 182 187
80 182 185
80 182 187
80 183 187
80 182 187
80 182 185
80 182 187
80 182 185
80 182 185
80 182 187
80 182 187
80 182 187
80 180 183
80 182 187
80 182 187
80 182 185
80 182 187
80 183 187
80 183 187
80 183 187
80 181 183
80 182 187
80 182 187
81 182 185
80 182 187
80 182 187
80 181 185
80 182 185
80 181 183
80 182 187
81 182 185
81 183 187
80 182 187
80 183 187
80 182 185
80 182 187
80 183 187
80 182 187
80 182 185
80 182 185
80 182 187
81 180 182
80 180 182
80 181 185
80 182 187
81 183 187
80 183 187
80 182 187
80 183 187
80 182 187
80 182 187
80 183 187
80 183 187
80 182 187
80 183 187
80 182 187
80 182 187
80 182 185
80 181 183
80 182 187
80 182 185
81 182 185
80 183 187
80 181 183
80 182 187
80 181 185
80 181 183
80 182 187
80 182 187
80 182 187
80 182 187
80 182 187
80 182 187
80 183 187
80 182 187
81 182 185
80 182 187
80 183 187
80 183 187
80 182 187
80 182 187
79 182 187
80 181 185
80 183 187
80 181 185
80 183 187
80 182 185
80 182 187
80 182 187
80 182 187
80 182 187
80 183 187
79 182 187
80 182 187
80 183 187
80 183 187
80 183 187
80 182 187
80 182 187
80 181 186
79 181 185
80 181 186
80 182 187
79 181 185
80 183 187
80 182 187
80 181 186
80 182 187
80 182 187
80 181 186
80 182 187
80 183 187
80 181 186
80 183 187
80 182 187
80 182 186
80 182 187
79 181 186
80 181 186
80 179 184
80 182 186
80 180 185
80 183 187
79 178 183
80 182 187
81 183 187
80 181 186
80 182 187
80 182 187
80 181 186
80 182 186
79 180 185
80 179 184
80 179 184
79 177 182
80 182 187
80 181 186
80 180 185
80 180 185
80 181 186
80 182 186
80 178 182
80 181 185
80 179 184
80 180 185
80 178 181
80 181 185
80 179 184
80 180 185
80 181 186
79 179 184
80 182 187
80 179 184
79 180 185
80 182 187
80 179 182
80 180 185
79 177 181
80 178 182
80 178 182
80 181 186
79 176 181
80 182 187
79 178 182
80 179 182
80 180 185
80 181 186
80 179 184
80 179 184
78 177 181
79 177 182
79 176 181
80 177 181
80 178 182
80 180 185
80 182 186
80 180 185
79 181 186
80 176 180
79 177 182
80 179 184
80 179 182
80 180 185
80 178 182
79 177 182
81 178 181
80 179 182
80 178 182
79 175 178
80 176 180
80 178 182
80 178 182
80 176 180
78 173 178
80 178 182
80 182 187
80 177 181
80 180 184
80 177 181
79 177 182
80 179 184
80 178 182
79 172 175
80 175 179
79 176 181
79 177 181
80 176 180
79 176 181
80 178 182
80 181 185
79 177 181
80 179 182
79 176 181
80 179 184
80 179 183
80 176 180
80 176 180
80 181 185
79 179 183
80 179 184
80 182 187
80 177 181
79 179 184
79 181 186
80 179 182
80 182 187
80 176 180
79 177 182
79 174 178
80 176 180
80 178 182
80 173 177
80 177 181
80 179 184
80 180 185
80 182 187
79 180 185
80 182 187
80 183 187
79 182 187
80 182 187
79 181 185
80 182 187
79 180 185
80 182 187
79 180 185
80 182 187
79 180 185
80 182 187
79 180 185
80 182 187
79 179 183
78 178 183
78 179 183
80 182 187
80 182 187
79 180 185
79 182 187
79 181 185
81 183 187
80 182 187
80 182 187
80 182 187
80 182 187
80 182 187
78 179 183
79 180 185
79 181 185
80 182 187
79 182 187
79 182 187
79 180 185
79 182 187
80 182 187
80 182 187
80 182 187
79 180 185
79 182 187
80 182 187
80 182 187
80 182 187
80 182 187
80 182 187
78 179 183
80 182 187
80 182 187
79 181 185
78 179 183
78 179 183
79 182 187
80 182 187
79 180 185
80 182 187
78 179 183
80 182 187
79 180 185
80 182 187
80 182 187
78 178 183
80 183 187
80 182 187
79 180 185
80 182 187
80 182 187
80 182 187
80 182 187
78 178 183
80 183 187
80 182 187
78 179 183
80 182 187
79 182 187
79 180 185
80 182 187
79 181 185
80 183 187
80 182 187
79 181 185
79 180 185
79 180 185
80 182 187
80 182 187
80 183 187
80 182 187
79 180 185
77 175 180
80 183 187
79 181 185
80 182 187
80 182 187
80 182 187
80 183 187
80 182 187
80 182 187
80 183 187
79 179 183
80 182 187
80 182 187
80 182 187
80 182 187
79 181 185
79 180 185
79 181 185
80 182 187
80 182 187
80 182 187
80 183 187
79 181 185
80 182 187
80 183 187
79 181 185
80 183 187
79 180 185
80 182 187
80 182 187
80 182 187
79 180 185
80 182 187
80 182 187
80 182 187
80 183 187
80 182 187
80 182 187
80 183 187
79 182 187
79 181 185
80 183 187
80 182 187
80 182 187
80 183 187
80 182 187
79 181 185
80 182 187
80 183 187
80 182 187
80 182 187
80 182 187
81 183 187
80 182 187
80 182 187
80 182 187
80 182 185
80 181 185
81 183 187
80 182 187
80 182 187
80 182 187
80 182 185
80 182 187
80 182 187
80 183 187
80 182 187
80 182 187
80 182 187
80 183 187
80 183 187
80 183 187
80 183 187
80 182 187
80 182 187
80 182 187
80 182 187
80 183 187
80 182 187
80 182 187
80 183 187
80 182 187
80 183 187
80 182 185
80 183 187
80 182 187
80 181 185
80 182 187
80 182 187
80 182 187
80 182 187
80 182 187
80 182 185
80 183 187
80 183 187
80 183 187
80 183 187
80 181 183
80 182 185
80 182 187
80 181 183
80 182 185
80 182 187
80 182 185
80 182 187
80 182 187
80 181 185
80 181 185
80 182 185
80 182 187
80 182 187
80 182 187
80 182 187
80 182 187
80 182 187
81 183 187
80 182 185
80 182 187
80 182 187
80 183 187
80 181 185
80 182 187
80 182 185
80 182 187
80 182 185
80 182 187
80 182 187
80 183 187
79 182 187
80 182 187
80 182 187
80 182 187
80 181 185
80 182 185
80 183 187
80 183 187
80 183 187
80 182 187
81 183 187
80 182 185
80 182 187
80 183 187
80 183 187
80 182 187
80 183 187
80 181 185
81 183 187
80 182 187
80 182 187
80 183 187
80 182 187
80 182 187
80 183 187
80 182 187
80 182 187
80 183 187
80 182 187
80 182 187
80 182 187
80 183 187
80 183 187
79 182 187
80 182 187
80 183 187
80 182 187
80 182 187
80 182 186
80 181 186
80 183 187
80 182 187
80 182 187
80 181 186
80 183 187
80 183 187
80 182 187
80 182 187
80 182 187
80 183 187
80 182 187
80 183 187
80 182 187
80 181 186
80 182 187
80 181 186
80 182 187
80 182 187
80 181 186
80 182 187
80 182 187
80 181 186
80 182 187
80 182 187
80 182 187
80 180 185
80 182 187
79 182 187
80 183 187
80 182 187
80 180 185
80 181 186
80 183 187
80 181 186
79 179 184
80 182 187
80 182 187
79 180 185
80 182 187
80 181 186
80 181 186
80 181 186
79 181 185
80 183 187
80 179 184
80 179 184
80 181 186
80 181 185
80 181 185
80 180 185
80 180 185
79 178 182
80 181 186
78 179 183
80 180 184
79 179 183
80 182 187
80 180 184
80 180 185
80 181 186
80 182 187
80 181 186
80 181 185
79 179 184
80 181 186
80 181 185
80 179 182
80 181 186
80 182 186
80 180 185
80 179 184
79 181 186
80 176 180
80 179 184
80 177 181
80 181 186
80 182 187
80 180 185
80 180 184
79 179 183
80 181 186
79 174 178
79 179 184
80 179 184
79 174 178
80 180 184
80 179 184
79 179 184
80 181 186
79 176 180
79 181 186
80 180 185
80 181 186
80 179 184
80 180 185
80 181 186
80 180 185
80 178 181
80 182 186
81 179 182
80 178 182
80 178 182
80 181 186
80 179 184
80 180 185
80 180 185
80 174 178
80 178 182
80 177 180
79 173 176
79 176 179
80 181 186
80 179 184
79 176 181
79 178 182
80 178 182
80 176 180
80 174 178
80 178 181
79 177 181
80 178 182
80 178 182
80 180 185
78 177 181
79 175 179
80 176 180
80 180 185
80 183 187
79 175 179
80 174 177
80 178 182
80 179 184
80 176 180
80 179 184
79 178 182
80 179 184
79 180 185
80 178 182
80 178 182
79 178 183
80 180 185
80 181 185
78 178 183
80 182 187
78 178 183
80 182 187
79 181 185
80 183 187
80 182 187
79 180 185
81 183 187
80 182 187
80 182 187
80 182 187
79 180 185
80 182 187
78 180 185
80 183 187
80 182 187
79 182 187
79 180 185
80 183 187
80 183 187
80 182 187
80 183 187
80 182 187
80 183 187
80 182 187
80 182 187
80 182 187
80 182 187
79 181 185
79 180 185
79 180 185
79 181 185
80 182 187
79 180 185
80 182 187
80 182 187
78 178 183
80 183 187
78 178 183
80 182 187
77 177 182
80 182 187
79 182 187
80 182 187
78 179 183
79 180 185
79 182 187
78 179 183
79 181 185
80 183 187
80 182 187
79 181 185
79 180 185
80 182 187
80 181 185
79 180 185
79 181 185
80 182 187
79 181 185
80 182 187
79 180 185
79 180 185
80 182 187
80 182 187
79 180 185
79 181 185
79 180 185
80 183 187
80 182 187
80 182 187
78 179 183
80 182 187
80 182 187
80 182 187
79 181 185
80 182 187
79 180 185
80 182 187
79 180 185
79 182 187
80 182 187
80 182 187
80 182 187
79 182 187
78 178 183
79 179 183
80 182 187
80 182 187
79 181 185
80 182 187
79 182 187
80 182 187
80 182 187
80 183 187
79 179 183
79 181 185
80 183 187
79 180 185
79 180 185
79 180 185
80 182 187
80 182 187
80 182 187
80 182 187
80 182 187
79 181 185
80 183 187
81 183 187
79 180 185
79 181 185
80 182 187
80 182 187
80 182 187
80 183 187
80 182 187
80 182 187
80 182 187
80 182 187
80 183 187
80 182 187
80 182 187
80 182 187
80 182 187
80 182 187
80 182 187
80 182 187
80 182 187
80 182 187
80 182 187
79 182 187
80 182 187
80 182 187
80 182 187
80 182 187
80 182 187
80 182 187
80 183 187
79 181 187
79 182 187
80 182 187
80 182 187
80 182 187
80 183 187
80 182 187
80 182 187
80 182 187
80 182 187
80 183 187
80 183 187
80 182 187
80 182 187
81 183 187
80 183 187
80 182 187
80 182 187
80 183 187
80 182 187
80 183 187
80 183 187
79 182 187
80 182 187
80 183 187
80 182 187
80 182 187
80 182 187
79 182 187
79 182 187
80 182 187
80 183 187
80 182 187
80 182 187
80 182 187
80 182 185
80 182 187
80 183 187
80 182 187
80 182 185
80 183 187
80 183 187
80 182 187
80 182 187
80 182 187
80 182 187
80 182 185
80 182 187
80 183 187
80 182 187
80 182 187
80 182 187
80 181 185
80 182 187
80 182 187
81 182 185
80 182 185
80 182 185
80 182 187
80 182 185
80 182 187
80 182 187
80 183 187
80 182 185
80 182 187
80 182 187
80 182 187
80 183 187
80 183 187
80 182 187
80 182 187
80 182 187
81 183 187
80 182 187
80 182 187
80 182 185
80 183 187
80 182 187
80 182 185
80 182 187
79 182 187
80 182 187
80 182 185
80 183 187
80 182 187
80 182 185
80 181 183
80 181 185
80 183 187
80 182 187
80 182 187
80 182 185
80 183 187
80 182 187
80 182 187
79 182 187
80 182 187
80 183 187
80 183 187
80 182 187
80 182 185
80 182 187
80 182 187
80 182 187
80 182 187
80 182 187
80 182 187
80 183 187
80 183 187
80 183 187
80 182 187
80 182 187
80 182 187
80 183 187
80 182 187
80 182 187
80 182 187
80 183 187
80 183 187
80 183 187
80 183 187
80 182 187
80 182 187
79 181 185
80 182 187
80 183 187
80 182 187
80 183 187
80 182 187
80 182 187
80 182 187
79 180 185
80 182 187
80 183 187
80 183 187
79 181 185
80 183 187
80 181 186
80 182 187
80 181 186
80 182 187
80 182 187
79 179 184
80 182 187
80 182 187
80 182 187
80 182 187
80 182 187
80 181 186
79 182 187
80 182 187
80 180 185
80 183 187
80 181 186
80 183 187
80 181 186
80 181 186
80 182 187
80 182 187
80 182 187
80 181 186
80 183 187
80 182 187
80 182 187
79 180 185
80 182 187
80 181 185
79 179 184
80 181 186
80 181 186
80 181 186
80 182 187
79 180 184
80 181 186
80 182 187
79 177 182
79 177 182
79 179 184
80 179 184
80 182 187
80 182 187
80 177 181
79 179 184
80 182 186
80 179 184
80 178 181
80 180 185
78 176 181
80 179 182
80 181 186
80 180 185
80 178 182
80 181 185
80 180 184
79 180 184
80 183 187
80 180 185
79 179 183
80 175 179
79 176 181
79 179 183
80 179 182
79 177 181
80 178 181
80 179 184
80 181 186
80 179 182
80 179 184
79 178 182
80 181 186
80 180 184
80 182 186
79 177 182
79 181 186
80 180 185
80 178 182
80 177 181
80 176 180
80 180 185
80 176 180
79 178 182
80 181 186
78 178 183
80 180 185
79 177 182
80 179 184
80 179 184
79 176 181
80 181 186
79 178 182
80 178 182
80 180 185
78 173 177
80 180 185
80 182 186
80 181 185
79 175 179
80 177 181
80 180 184
80 181 186
80 176 180
80 178 182
79 176 181
79 173 177
80 178 182
80 181 186
80 178 182
80 179 184
80 180 184
80 179 184
80 180 185
80 177 181
80 182 187
79 179 184
80 179 184
78 175 179
80 178 181
79 176 180
80 179 184
80 180 185
79 175 178
79 179 184
79 180 185
80 183 187
79 180 185
80 182 187
80 182 187
80 182 187
80 183 187
79 181 185
79 181 185
80 182 187
79 180 185
77 175 180
79 180 185
80 182 187
80 182 187
79 180 185
80 182 187
80 182 187
79 181 185
80 182 187
79 182 187
79 181 185
79 180 185
79 180 185
80 182 187
80 182 187
79 182 187
80 182 187
80 182 187
80 182 187
79 180 185
80 182 187
79 180 185
80 182 187
78 179 183
80 182 187
79 180 185
80 182 187
79 180 185
80 182 187
79 180 185
80 182 187
80 182 187
79 180 185
76 175 180
79 180 185
80 182 187
79 181 185
78 179 183
80 182 187
79 180 185
79 182 187
79 179 183
80 182 187
79 182 187
80 182 187
79 180 185
79 180 185
79 180 185
80 182 187
80 182 187
79 181 185
80 182 187
78 179 183
80 182 187
80 182 187
80 182 187
79 181 185
80 183 187
79 181 185
80 182 187
80 182 187
79 180 185
79 181 185
79 181 185
79 182 187
80 182 187
79 181 185
79 181 185
79 180 185
80 182 187
79 181 185
78 178 183
79 180 185
79 181 185
80 182 187
78 179 183
80 182 187
80 182 187
80 183 187
80 182 187
79 181 185
80 183 187
80 182 187
80 182 187
80 182 187
80 182 187
80 182 187
80 181 185
80 182 187
79 181 185
80 181 185
79 181 185
80 182 187
80 182 187
81 183 187
79 180 185
80 182 187
79 181 185
79 182 187
78 178 183
80 183 187
79 181 185
79 179 183
80 183 187
80 182 187
80 182 187
79 182 187
80 182 187
80 182 187
80 182 187
80 183 187
80 182 187
80 182 187
80 183 187
80 182 187
80 183 187
80 182 187
80 183 187
78 178 183
80 182 187
80 182 187
80 182 187
80 183 187
80 183 187
80 183 187
80 183 187
80 183 187
80 182 187
80 182 187
81 183 187
80 182 187
80 182 187
80 182 187
80 183 187
80 182 187
80 182 187
80 182 187
80 183 187
80 182 187
80 182 187
80 182 187
80 183 187
80 182 187
80 182 187
80 182 187
79 182 187
80 182 187
80 182 187
81 183 187
80 182 187
80 183 187
80 183 187
81 183 187
80 182 187
80 183 187
80 182 187
80 182 187
80 182 187
80 182 187
80 182 187
80 183 187
80 183 187
80 182 187
80 182 187
80 182 187
80 183 187
80 182 187
80 183 187
80 183 187
80 182 187
80 182 187
80 182 187
80 182 187
80 182 187
80 182 187
80 182 187
80 182 187
80 182 187
80 182 185
80 183 187
80 182 187
80 183 187
79 182 187
80 182 187
80 183 187
80 183 187
80 183 187
80 182 187
80 182 187
80 182 187
79 182 187
81 183 187
80 183 187
79 182 187
80 182 187
80 182 187
80 181 185
80 182 187
80 182 187
80 182 187
80 182 187
80 182 187
80 182 187
80 183 187
80 182 187
80 183 187
80 183 187
80 183 187
80 182 187
80 182 187
80 182 187
80 183 187
80 182 187
80 182 185
80 182 187
80 182 187
80 182 187
80 182 187
80 182 187
79 182 187
80 183 187
80 182 187
81 181 183
80 183 187
80 183 187
80 183 187
80 182 187
80 182 187
80 182 187
80 182 187
80 182 187
80 182 187
80 182 187
80 182 187
80 182 187
80 183 187
80 183 187
80 183 187
80 182 187
80 182 187
80 182 187
80 182 187
80 183 187
80 183 187
80 182 187
80 182 187
80 182 187
80 183 187
80 183 187
80 182 187
80 182 187
79 182 187
80 182 187
80 183 187
80 182 187
80 183 187
80 183 187
80 182 187
80 183 187
80 182 187
80 182 187
80 182 187
80 182 187
79 182 187
80 182 186
80 182 187
80 182 186
80 181 186
80 182 187
80 183 187
80 182 187
80 183 187
80 182 187
80 182 187
80 182 187
80 182 187
80 183 187
80 183 187
80 182 186
80 181 186
80 183 187
80 181 186
80 180 184
79 180 185
80 182 187
80 182 187
80 182 187
80 182 187
80 182 187
80 182 186
80 182 187
80 182 187
80 183 187
80 177 181
80 180 185
80 182 187
79 181 185
80 183 187
79 179 184
79 179 183
80 179 184
80 182 186
80 181 186
79 182 187
80 181 186
79 178 182
79 181 186
80 182 187
80 179 184
80 181 186
80 182 186
80 180 185
80 181 186
80 181 185
80 182 187
80 182 187
80 180 185
80 181 185
80 182 186
80 182 187
80 182 187
80 181 186
79 177 181
80 181 185
79 179 184
80 179 184
80 182 186
80 180 185
80 181 185
80 180 185
79 180 185
79 177 182
80 181 185
79 178 182
80 179 184
80 179 184
80 180 185
80 178 182
80 180 185
80 179 184
80 179 184
80 180 185
79 175 179
80 180 185
80 182 186
80 180 185
80 181 186
80 180 184
79 178 182
80 181 186
80 181 186
80 177 180
80 180 185
80 180 184
79 178 183
80 178 182
80 178 182
80 180 185
80 180 184
80 176 180
79 177 182
79 176 181
80 180 184
80 180 184
80 179 184
79 176 179
80 178 182
80 181 186
80 179 182
80 179 184
80 176 180
80 176 180
80 179 184
78 176 181
80 180 185
80 177 181
80 180 184
79 176 181
79 177 182
80 176 180
80 181 186
80 178 182
80 176 180
80 174 178
80 180 185
80 180 185
80 181 186
80 181 186
79 178 183
80 182 187
80 182 187
79 180 185
79 180 185
78 179 183
80 182 187
80 183 187
80 182 187
80 182 187
80 182 187
80 182 187
79 180 185
79 181 185
79 180 185
80 183 187
80 182 187
80 182 187
79 181 185
80 182 187
78 177 182
79 181 185
80 183 187
79 182 187
79 180 185
80 182 187
79 180 185
80 182 187
80 182 187
79 180 185
79 180 185
79 180 185
79 181 185
79 180 185
79 180 185
79 179 183
80 182 187
80 182 187
79 182 187
80 182 187
80 182 187
80 182 187
79 181 185
78 179 183
80 182 187
79 180 185
79 180 185
80 182 187
80 182 187
80 182 187
80 182 187
79 181 185
79 181 185
79 180 185
80 182 187
80 182 187
79 180 185
80 183 187
80 183 187
79 180 185
80 183 187
80 183 187
78 179 183
78 179 183
80 182 187
78 179 183
80 183 187
79 182 187
79 179 183
80 182 187
79 182 187
79 181 185
78 179 183
79 181 185
80 182 187
79 180 185
80 182 187
80 182 187
80 182 187
80 182 187
80 182 187
80 182 187
80 182 187
79 181 185
79 181 185
80 182 187
79 182 187
80 183 187
79 182 187
79 182 187
80 182 187
79 180 185
80 182 187
79 181 185
81 183 187
80 183 187
80 183 187
80 182 187
79 180 185
80 182 187
80 182 187
80 183 187
80 182 187
80 182 187
80 183 187
80 183 187
80 183 187
80 183 187
79 181 185
80 182 187
80 182 187
80 182 187
80 182 187
79 181 185
80 183 187
79 180 185
80 183 187
80 183 187
80 183 187
80 181 185
80 182 187
79 182 187
80 182 187
80 183 187
80 183 187
80 182 185
80 182 187
80 182 187
80 182 187
80 183 187
80 182 187
79 182 187
80 182 187
80 182 187
80 182 187
80 183 187
80 183 187
80 182 187
79 182 187
80 182 187
80 182 187
80 182 187
80 182 187
80 183 187
80 182 187
80 183 187
80 182 187
80 182 187
80 183 187
80 182 187
80 182 187
80 182 187
80 182 187
80 183 187
80 182 187
80 182 187
80 182 187
80 182 187
80 183 187
80 182 187
80 182 187
80 183 187
80 182 187
80 182 187
80 182 187
80 182 187
80 182 187
80 182 185
80 182 187
80 182 187
80 182 187
80 182 187
80 183 187
80 183 187
80 183 187
80 183 187
80 182 187
80 183 187
80 183 187
80 182 187
80 182 187
80 183 187
80 183 187
80 183 187
80 182 187
80 183 187
80 183 187
80 182 187
80 183 187
80 182 187
80 182 187
80 182 187
80 183 187
80 182 187
80 182 187
80 182 187
81 183 187
80 182 187
80 182 187
80 182 187
79 182 187
80 182 187
80 182 187
80 182 187
80 182 187
80 182 187
80 182 187
80 182 187
80 182 187
80 182 187
80 183 187
80 182 185
80 183 187
80 182 187
80 182 187
80 182 187
80 183 187
80 183 187
80 182 187
80 180 182
80 182 187
80 182 187
80 183 187
80 182 187
80 182 187
80 182 187
80 183 187
80 182 187
80 182 187
80 183 187
80 182 187
80 183 187
80 182 187
80 183 187
80 183 187
80 182 187
80 182 187
80 182 187
80 182 187
80 182 187
80 183 187
80 182 187
80 183 187
80 182 187
80 182 187
80 182 187
80 182 187
80 183 187
80 183 187
80 182 187
80 182 187
80 182 187
80 182 187
80 182 187
80 182 187
80 183 187
80 183 187
80 182 187
80 182 187
80 182 187
80 183 187
80 182 187
80 182 187
80 183 187
79 182 187
80 182 187
80 183 187
80 182 187
80 182 187
80 182 187
80 183 187
80 183 187
79 179 184
80 182 187
80 181 186
80 181 186
80 182 187
80 182 187
80 182 187
80 181 186
80 181 186
80 182 187
80 181 186
80 181 186
80 182 187
80 182 186
80 182 187
80 182 187
80 181 186
80 182 187
80 180 185
80 182 186
80 181 186
80 181 186
80 181 186
80 182 187
80 182 187
80 181 186
80 182 187
80 181 186
80 182 186
80 182 186
80 183 187
80 181 186
80 181 186
79 180 184
80 182 187
80 179 184
80 181 186
79 181 186
80 181 186
80 179 184
80 179 184
80 181 186
80 181 186
80 181 186
80 182 186
80 181 186
80 180 184
80 182 186
80 182 187
80 182 187
80 180 185
80 183 187
80 182 187
80 180 185
80 181 186
80 180 185
80 181 186
80 181 185
80 179 184
79 177 182
80 182 187
80 180 185
79 180 185
80 175 179
80 178 181
80 180 185
79 176 180
80 180 185
80 177 180
80 180 185
79 178 182
79 177 181
80 180 185
80 180 185
80 180 185
79 177 182
80 181 186
80 177 181
80 180 185
79 176 181
80 179 184
80 181 185
79 180 184
80 179 182
80 182 187
80 181 186
79 179 184
79 178 182
80 178 182
80 176 180
80 182 186
80 180 185
80 180 185
80 178 182
79 179 184
80 179 184
79 178 183
80 180 184
79 178 183
80 179 184
79 177 181
78 177 181
79 179 183
79 177 181
80 176 180
79 181 186
80 181 186
80 181 186
80 179 184
80 179 184
80 181 186
80 179 184
80 179 184
79 182 187
80 179 184
80 181 186
79 178 182
80 178 181
79 179 184
80 178 182
80 179 182
80 179 184
80 178 182
80 182 187
80 181 185
80 180 185
79 177 182
80 180 185
80 179 184
80 182 187
79 182 187
80 182 187
80 182 187
79 181 185
78 179 183
79 181 185
80 182 187
79 180 185
79 180 185
79 182 187
80 183 187
79 181 185
78 178 183
80 182 187
80 182 187
80 182 187
79 180 185
80 182 187
80 182 187
79 181 185
80 183 187
79 181 185
79 181 185
79 180 185
79 181 185
80 182 187
80 182 187
80 183 187
79 181 185
79 181 185
79 181 185
79 180 185
80 182 187
80 182 187
79 180 185
80 182 187
79 180 185
79 180 185
80 182 187
79 180 185
80 182 187
79 180 185
80 183 187
78 177 182
78 179 183
79 180 185
79 180 185
80 182 187
80 182 187
80 182 187
79 182 187
79 182 187
80 183 187
80 183 187
80 182 187
80 182 187
78 178 183
79 182 187
79 181 185
80 182 187
80 182 187
80 182 187
80 182 187
80 182 187
79 182 187
80 182 187
79 181 185
80 182 187
80 183 187
79 180 185
79 181 185
79 181 185
80 183 187
80 182 187
80 183 187
80 182 187
80 181 185
80 182 187
80 183 187
80 182 187
79 180 185
80 183 187
80 182 187
80 182 187
79 181 185
80 182 187
80 182 187
80 182 187
80 182 187
79 180 185
80 183 187
80 183 187
80 182 187
80 182 187
80 182 187
80 182 187
79 180 185
80 183 187
80 182 187
80 182 187
80 182 187
80 182 187
80 182 187
79 181 185
79 181 185
80 183 187
78 179 183
79 181 185
80 182 187
80 182 187
80 183 187
80 182 187
80 183 187
79 182 187
80 183 187
80 182 187
80 182 187
80 183 187
80 182 187
80 182 187
80 183 187
79 182 187
80 182 187
80 182 187
80 182 187
80 183 187
80 183 187
80 182 187
80 182 187
80 183 187
80 182 187
80 182 187
80 183 187
80 182 187
80 183 187
80 182 187
80 182 187
80 182 187
80 182 187
80 183 187
80 182 187
80 182 187
80 182 187
80 183 187
80 183 187
80 182 187
80 182 187
80 182 187
80 183 187
80 183 187
80 182 187
80 182 187
80 182 187
80 183 187
80 182 187
80 182 187
80 182 187
80 183 187
80 183 187
80 182 187
80 182 187
80 182 187
80 183 187
80 183 187
80 183 187
80 182 187
80 183 187
80 182 187
80 182 187
80 182 187
80 182 187
80 182 187
80 183 187
80 183 187
81 183 187
80 182 187
80 182 185
79 182 187
80 183 187
80 182 187
80 182 187
80 182 187
80 183 187
81 183 187
80 182 185
80 182 187
80 182 187
80 183 187
80 183 187
80 182 185
80 182 187
80 182 187
80 182 185
80 183 187
80 182 187
80 183 187
80 183 187
80 182 187
80 182 187
80 182 187
80 182 187
81 183 187
80 182 187
80 182 187
80 182 187
80 182 187
80 183 187
80 182 187
80 182 187
80 183 187
80 181 185
80 182 187
79 182 187
80 183 187
80 182 187
80 183 187
80 183 187
80 183 187
80 182 187
80 182 187
80 182 187
80 182 187
80 183 187
80 183 187
80 182 187
80 182 187
80 183 187
80 183 187
80 183 187
80 182 187
80 182 187
80 183 187
80 183 187
80 182 187
80 182 187
80 182 187
80 182 187
79 182 187
80 182 187
80 182 187
80 182 187
80 183 187
80 182 187
80 182 187
80 183 187
80 182 187
80 182 187
80 182 187
81 183 187
80 182 187
80 183 187
80 182 187
80 182 187
80 183 187
80 182 187
80 182 187
80 182 187
80 183 187
80 182 187
80 182 187
80 181 186
80 182 187
80 183 187
80 182 187
80 182 187
80 182 187
80 182 187
80 183 187
80 182 187
80 182 187
80 182 187
80 183 187
80 182 187
80 182 187
79 182 187
80 182 187
80 182 187
80 183 187
80 181 186
80 182 187
80 182 187
81 183 187
80 183 187
80 183 187
79 182 187
80 182 187
79 180 185
80 183 187
80 183 187
80 183 187
80 182 187
80 183 187
80 182 187
80 182 187
80 182 187
80 183 187
80 181 186
80 183 187
80 182 187
80 183 187
80 182 186
80 182 187
81 182 186
80 182 186
79 180 184
80 181 186
80 181 186
79 181 185
80 183 187
80 180 185
80 182 186
79 180 185
80 179 184
79 180 185
80 181 186
80 183 187
81 181 185
80 183 187
79 180 185
80 183 187
80 179 182
80 181 186
79 180 185
80 181 186
80 181 186
80 180 185
80 179 184
79 180 185
80 178 182
80 181 186
79 177 182
80 180 185
80 181 186
80 180 185
80 180 184
79 179 184
80 181 186
79 179 184
80 180 185
80 182 186
80 182 186
80 182 187
80 181 185
80 180 184
80 181 186
80 180 185
80 181 186
80 180 185
80 182 187
80 180 185
80 181 186
80 180 185
80 181 185
79 179 184
80 179 184
80 182 186
80 180 184
80 180 185
80 181 186
79 178 182
79 179 183
80 180 185
80 181 186
79 177 182
80 179 182
79 177 182
79 179 184
80 180 185
80 180 185
80 180 185
80 181 186
80 180 185
80 177 181
79 182 187
80 181 186
80 177 181
80 178 182
80 177 181
80 177 181
80 178 182
79 180 185
79 180 185
79 179 184
80 179 184
79 178 183
80 182 186
80 182 187
80 182 187
79 181 185
80 181 185
80 178 182
79 179 184
80 180 184
80 174 178
78 175 180
80 182 186
80 179 184
80 178 182
80 181 186
80 182 187
79 180 185
80 183 187
79 180 185
80 182 187
80 183 187
79 181 185
80 182 187
79 180 185
80 182 187
80 182 187
80 183 187
79 181 185
78 180 185
79 179 183
80 182 187
80 182 187
79 180 185
80 182 187
80 182 187
80 182 187
80 182 187
79 180 185
80 182 187
78 179 183
80 182 187
80 182 187
80 182 187
80 183 187
79 181 185
80 182 187
79 179 183
78 179 183
80 182 187
79 181 185
80 182 187
79 181 185
80 182 187
79 181 185
79 181 185
79 179 183
79 180 185
79 181 185
80 182 187
80 182 187
80 183 187
80 182 187
80 182 187
80 182 187
79 180 185
80 182 187
80 183 187
80 182 187
79 181 185
79 180 185
80 182 187
79 181 185
80 182 187
79 181 185
81 183 187
80 183 187
79 181 185
80 183 187
79 180 185
80 182 187
79 182 187
80 182 187
80 182 187
80 182 187
80 182 187
80 182 187
80 182 187
80 183 187
80 182 187
80 181 185
80 182 187
80 182 187
80 182 187
80 182 187
80 182 187
80 182 187
80 182 187
80 182 187
80 182 187
80 182 187
80 182 187
80 182 187
80 182 187
79 179 183
79 181 185
80 182 187
78 179 183
80 181 185
80 182 187
79 180 185
80 182 187
79 181 185
80 182 187
80 182 187
80 183 187
80 181 185
79 180 185
79 181 185
79 181 185
80 182 187
80 182 187
80 183 187
80 183 187
80 182 187
80 183 187
80 182 187
79 182 187
80 182 187
79 181 185
80 182 187
80 182 187
80 183 187
79 180 185
80 182 187
80 182 187
80 183 187
80 182 187
79 181 185
80 182 187
80 182 187
80 182 187
80 182 187
80 183 187
80 182 187
80 182 187
80 182 187
80 182 187
80 182 187
80 182 187
80 182 187
80 182 187
80 182 187
80 182 187
80 182 187
80 182 187
80 182 187
80 182 187
80 182 187
80 182 187
80 182 187
80 182 187
80 183 187
80 182 187
80 182 187
80 182 187
80 182 187
80 182 187
81 183 187
80 183 187
80 182 187
80 182 187
80 183 187
80 183 187
80 182 187
80 183 187
79 182 187
80 182 187
80 182 187
80 182 187
80 182 187
80 182 187
80 182 187
80 182 187
80 183 187
80 182 187
80 183 187
80 183 187
80 182 187
80 182 187
80 183 187
80 182 187
79 182 187
80 182 187
80 182 187
80 183 187
80 182 187
80 182 187
79 182 187
80 182 187
80 182 187
80 182 187
80 182 187
80 182 187
80 182 187
80 182 187
81 183 187
79 182 187
80 183 187
80 183 187
79 182 187
80 182 187
80 182 187
80 182 187
80 182 187
80 183 187
81 183 187
80 182 187
79 182 187
80 182 187
80 182 187
80 181 185
80 182 187
80 182 187
80 182 187
80 182 187
80 183 187
81 183 187
80 183 187
80 182 187
81 183 187
80 182 187
80 182 187
79 182 187
80 182 187
80 182 187
80 182 187
80 182 187
80 182 187
81 183 187
80 183 187
80 183 187
80 182 187
80 182 187
80 182 187
80 182 187
80 182 187
80 183 187
80 182 187
80 182 187
80 182 187
80 183 187
80 182 187
80 182 187
80 182 187
80 182 187
80 183 187
80 182 187
80 183 187
80 182 187
80 183 187
80 183 187
80 182 187
80 182 187
80 182 187
80 182 187
80 182 187
80 182 187
80 183 187
81 183 187
80 182 187
80 182 187
80 182 187
80 183 187
80 182 187
80 182 187
80 183 187
80 182 187
80 183 187
80 183 187
80 183 187
80 182 187
80 182 187
80 182 187
80 182 187
80 182 187
80 182 187
80 182 187
80 182 187
80 182 187
80 182 187
80 182 187
80 183 187
80 182 187
80 182 187
80 183 187
80 182 187
80 182 187
80 182 187
80 182 187
80 183 187
80 183 187
80 182 187
80 181 186
80 183 187
79 180 185
80 183 187
80 183 187
80 182 187
80 182 187
80 182 187
80 181 186
80 182 186
80 182 187
80 183 187
80 182 187
80 182 187
80 181 186
80 181 186
81 182 186
80 182 187
80 181 186
80 182 186
79 179 184
80 182 187
80 181 186
80 183 187
79 181 185
80 183 187
80 183 187
79 181 185
80 182 187
80 182 186
80 182 186
80 181 186
80 181 185
80 182 186
80 183 187
80 182 187
80 181 186
80 180 184
80 180 185
80 181 185
80 183 187
80 183 187
80 181 185
80 182 187
80 180 185
80 182 187
80 180 185
80 180 185
80 181 186
80 178 182
80 180 184
80 182 187
79 182 187
80 182 187
80 181 186
79 179 184
79 179 183
80 180 185
80 182 187
80 182 187
80 182 186
80 180 184
79 176 180
80 181 185
79 180 185
80 182 187
80 180 184
80 180 185
80 180 185
80 181 186
79 182 187
80 180 185
80 180 185
79 180 185
79 180 185
80 182 186
80 181 186
80 179 184
79 176 179
80 181 186
79 178 183
79 177 182
79 178 182
80 178 182
80 179 184
80 181 185
80 181 186
80 182 187
78 175 180
80 182 187
80 181 186
80 181 186
80 181 186
80 179 184
80 180 184
80 183 187
79 178 182
80 180 185
80 181 186
80 181 186
80 180 185
80 180 184
80 180 185
80 181 186
80 178 182
80 180 185
79 176 181
80 179 184
80 178 182
80 181 186
80 181 186
80 181 186
80 180 185
80 182 187
79 181 185
79 180 185
78 178 183
78 179 183
79 182 187
80 182 187
80 182 187
78 178 183
80 182 187
80 182 187
80 182 187
80 182 187
80 182 187
79 180 185
79 180 185
79 180 185
78 180 185
80 181 185
78 178 183
79 181 185
79 181 185
79 180 185
79 182 187
78 179 183
80 182 187
79 180 185
80 182 187
80 182 187
80 183 187
80 182 187
80 182 187
80 182 187
80 183 187
80 183 187
80 182 187
78 179 183
80 182 187
80 183 187
80 182 187
79 180 185
80 182 187
79 180 185
79 180 185
80 182 187
80 182 187
80 182 187
80 183 187
80 182 187
81 183 187
79 181 185
79 180 185
78 178 183
79 180 185
80 183 187
80 183 187
79 181 185
80 182 187
80 182 187
80 182 187
80 182 187
80 183 187
80 183 187
80 182 187
79 181 185
80 183 187
80 183 187
80 182 187
80 182 187
80 183 187
80 183 187
80 183 187
80 182 187
81 183 187
79 181 185
80 183 187
80 183 187
80 182 187
79 181 185
79 181 185
80 182 187
79 182 187
80 183 187
79 181 185
80 182 187
80 182 187
80 182 187
79 179 183
79 181 185
80 182 187
80 182 187
80 182 187
80 182 187
80 183 187
80 182 187
80 182 187
80 182 187
79 182 187
80 183 187
79 180 185
80 182 187
80 183 187
80 183 187
80 182 187
80 182 187
80 182 187
79 181 185
80 182 187
80 182 187
80 182 187
80 183 187
78 179 183
80 183 187
79 180 185
80 182 187
80 182 187
80 183 187
80 182 187
80 182 187
80 183 187
80 183 187
80 183 187
80 183 187
80 182 187
80 183 187
81 183 187
80 183 187
80 183 187
80 182 187
80 183 187
80 182 187
80 182 187
80 182 187
80 183 187
80 182 187
81 183 187
80 183 187
80 183 187
80 182 187
80 183 187
80 182 187
80 183 187
80 182 187
80 182 187
81 183 187
80 183 187
80 182 187
80 182 187
80 183 187
80 183 187
80 182 187
80 183 187
80 182 187
80 182 187
80 182 187
80 182 187
80 182 187
79 182 187
80 182 187
80 182 187
80 183 187
80 183 187
80 182 187
81 183 187
80 182 187
80 182 187
80 182 187
80 183 187
80 182 187
80 182 187
80 182 187
80 182 187
80 182 187
80 183 187
80 183 187
80 183 187
80 182 187
80 182 187
80 182 187
80 182 187
80 182 187
79 182 187
80 183 187
80 182 187
80 182 187
80 182 187
80 183 187
79 182 187
80 182 187
80 182 187
80 182 187
80 182 187
80 182 187
80 182 187
79 182 187
80 182 187
80 183 187
80 182 187
80 182 187
80 182 187
80 182 187
80 182 187
80 182 187
80 182 187
80 182 187
80 182 187
80 182 187
81 183 187
80 182 187
80 183 187
80 182 187
80 182 187
80 182 187
80 182 187
80 182 187
80 183 187
80 182 187
80 183 187
80 183 187
80 182 187
80 182 187
80 182 187
80 182 187
80 182 187
80 182 187
80 182 187
80 182 187
80 183 187
80 182 187
80 182 187
80 182 187
80 182 187
80 182 187
80 182 187
80 182 187
80 182 187
80 182 187
80 182 187
80 182 187
80 183 187
80 183 187
80 182 187
80 182 187
80 182 187
80 182 187
80 182 187
80 182 187
80 183 187
80 182 187
80 183 187
80 182 187
80 182 187
80 182 187
80 183 187
79 182 187
80 182 187
80 183 187
80 183 187
80 183 187
80 182 187
79 182 187
80 183 187
80 182 187
80 182 187
80 182 187
80 182 187
80 182 187
80 183 187
80 182 187
80 183 187
79 182 187
80 183 187
80 183 187
80 182 187
80 182 187
80 182 187
80 182 187
80 182 187
80 182 187
80 182 187
81 183 187
80 182 186
80 182 187
80 182 187
80 182 187
80 182 187
80 183 187
80 183 187
80 182 187
80 182 187
79 182 187
80 183 187
80 183 187
80 183 187
79 182 187
80 182 187
81 183 187
80 182 187
80 181 186
80 182 187
80 182 187
80 182 187
80 182 187
80 182 187
80 182 187
80 182 187
80 182 187
80 182 187
79 182 187
80 182 187
80 183 187
80 183 187
80 182 187
79 181 186
80 181 186
80 181 186
80 182 187
80 182 187
80 181 185
80 181 186
79 181 185
80 182 187
81 182 186
80 182 187
80 180 185
80 181 185
80 179 184
80 182 187
79 181 185
80 181 186
80 182 187
79 182 187
80 182 186
80 182 187
80 180 185
79 179 184
80 179 184
79 178 183
80 182 186
80 181 186
80 180 185
80 181 186
80 182 187
80 180 185
79 180 185
80 181 185
80 181 186
80 182 186
80 180 184
80 181 186
79 181 186
80 180 185
79 182 187
79 182 187
80 182 187
80 179 184
80 180 184
80 181 186
80 182 187
78 176 180
80 181 186
80 179 184
80 182 187
80 179 184
80 182 186
80 182 186
78 178 183
80 181 186
80 182 186
80 180 184
80 181 185
80 181 186
80 180 185
79 176 179
80 180 185
79 179 184
81 183 187
80 181 186
79 178 182
80 180 185
80 181 186
80 180 185
80 181 186
80 181 186
80 180 185
80 177 181
80 180 184
80 177 181
80 179 184
80 181 186
80 182 186
80 181 186
79 178 183
80 181 185
80 181 186
79 179 184
80 183 187
80 180 185
80 180 184
80 180 185
79 180 185
78 179 183
79 180 185
78 177 182
80 181 185
80 182 187
78 179 183
80 182 187
80 182 187
80 182 187
79 182 187
79 181 185
80 183 187
80 182 187
79 182 187
80 182 187
80 182 187
80 183 187
79 180 185
80 182 187
80 182 187
80 183 187
80 182 187
80 182 187
80 182 187
80 183 187
80 182 187
79 180 185
80 182 187
78 179 183
80 182 187
78 179 183
80 182 187
79 182 187
79 182 187
80 183 187
79 181 185
80 182 187
80 182 187
80 183 187
79 181 185
80 182 187
80 182 187
80 183 187
80 183 187
79 180 185
80 182 187
79 180 185
80 182 187
80 182 187
80 182 187
77 176 182
79 182 187
80 183 187
80 182 187
80 182 187
79 180 185
80 182 187
80 182 187
79 181 185
79 181 185
79 179 183
80 182 187
80 182 187
80 183 187
80 182 187
80 182 187
79 182 187
80 183 187
79 180 185
80 183 187
80 183 187
80 183 187
79 181 185
80 183 187
80 182 187
80 182 187
80 182 187
80 182 187
79 180 185
80 182 187
80 182 187
79 181 185
80 182 187
78 179 183
80 183 187
80 182 187
80 182 187
80 182 187
79 182 187
79 181 185
80 182 187
80 182 187
80 182 187
80 182 187
79 180 185
79 180 185
79 181 185
80 182 187
80 182 187
80 182 187
80 182 187
80 183 187
80 182 187
79 182 187
80 182 187
80 183 187
80 182 187
80 183 187
80 182 187
79 180 185
80 183 187
80 182 187
80 182 187
80 182 187
80 182 187
80 182 187
80 182 187
80 183 187
80 183 187
80 182 187
80 183 187
80 182 187
80 182 187
80 183 187
80 182 187
80 183 187
80 182 187
80 182 187
80 182 187
80 182 187
80 182 187
80 183 187
80 182 187
80 182 187
80 182 187
80 183 187
80 182 187
80 182 187
80 182 187
80 183 187
80 183 187
80 183 187
80 183 187
80 182 187
80 182 187
80 182 187
80 182 187
80 182 187
80 182 187
80 183 187
80 182 187
80 182 187
80 182 187
80 183 187
80 182 187
80 183 187
80 182 187
80 183 187
80 183 187
80 182 187
80 182 187
80 182 187
80 182 187
80 182 187
80 182 187
80 182 187
80 183 187
80 182 187
80 182 187
80 182 187
80 182 187
80 182 187
80 183 187
79 182 187
80 182 187
80 182 187
80 182 187
80 183 187
81 183 187
79 182 187
80 182 187
80 183 187
80 182 187
80 182 187
80 182 187
80 182 187
80 183 187
80 182 187
80 182 187
80 182 187
80 182 187
80 182 187
80 182 187
80 182 187
80 182 187
80 182 187
80 183 187
80 182 187
80 183 187
80 183 187
80 183 187
81 183 187
80 182 187
80 182 187
80 182 187
80 183 187
80 182 187
80 182 187
80 182 187
80 182 187
80 183 187
80 182 187
80 182 187
80 182 187
80 182 187
80 182 187
80 183 187
81 183 187
80 182 187
80 182 187
80 182 187
80 182 187
80 182 187
80 183 187
80 182 187
79 182 187
80 182 187
80 182 187
80 182 187
80 182 187
80 182 187
80 183 187
80 183 187
80 183 187
80 183 187
81 183 187
80 182 187
80 182 187
80 183 187
79 182 187
80 182 187
80 182 187
80 183 187
80 183 187
80 182 187
80 182 187
80 183 187
80 182 187
80 182 187
80 183 187
80 183 187
80 183 187
80 182 187
80 183 187
80 182 187
80 182 187
80 182 187
80 183 187
80 182 187
80 183 187
80 182 187
80 182 187
80 183 187
80 182 187
80 182 187
80 183 187
80 183 187
80 183 187
81 183 187
80 182 187
80 182 187
79 182 187
80 182 187
80 182 187
80 182 187
80 182 187
80 182 187
80 182 187
80 182 187
80 183 187
80 182 187
80 182 186
80 182 187
80 181 186
80 183 187
80 182 187
80 182 187
80 182 187
80 182 187
80 182 187
80 183 187
80 183 187
80 182 187
80 181 186
80 182 187
81 183 187
80 183 187
80 182 187
80 182 187
80 182 187
80 182 187
80 181 186
80 182 187
80 183 187
80 182 187
80 180 185
80 182 187
80 182 187
80 182 187
80 182 187
79 182 187
80 181 186
80 182 187
80 183 187
80 180 185
79 180 184
80 181 186
80 181 186
80 182 186
80 181 186
80 182 187
79 182 187
80 182 187
80 183 187
79 180 184
80 183 187
80 181 186
80 182 186
80 182 187
80 182 186
80 180 185
80 181 186
80 181 186
80 182 187
80 181 186
80 183 187
80 183 187
80 179 184
80 182 187
80 182 186
80 182 186
80 181 185
80 181 186
79 182 187
80 182 187
80 181 186
79 180 185
80 180 185
79 181 186
80 180 185
80 180 185
80 181 185
80 182 187
80 182 187
80 181 186
80 182 187
80 182 187
79 181 186
80 179 184
79 181 186
80 179 184
80 179 184
80 182 187
80 182 187
80 182 187
80 180 185
80 180 185
80 181 186
80 179 184
79 178 183
79 180 185
79 181 186
79 177 181
80 179 184
79 181 186
79 176 181
80 179 182
80 182 187
79 178 182
80 181 186
80 183 187
79 178 183
80 179 184
80 180 185
80 181 185
79 181 185
80 181 185
79 180 184
79 179 184
80 180 185
79 179 184
80 181 186
79 178 183
80 182 186
79 177 182
79 179 184
80 179 184
80 182 186
80 182 187
80 182 187
79 180 185
80 182 187
80 182 187
79 181 185
80 182 187
80 182 187
79 182 187
80 181 185
80 183 187
80 182 187
77 177 182
79 180 185
79 180 185
79 180 185
79 181 185
80 182 187
79 182 187
80 182 187
79 180 185
79 181 185
80 182 187
80 183 187
79 180 185
80 182 187
80 182 187
80 181 185
80 183 187
78 178 183
80 182 187
78 179 183
80 182 187
80 182 187
79 180 185
80 182 187
80 182 187
80 182 187
80 182 187
78 179 183
80 182 187
80 183 187
80 182 187
81 183 187
79 180 185
79 181 185
80 182 187
79 181 185
79 182 187
80 182 187
80 182 187
80 182 187
80 181 185
80 182 187
79 180 185
80 182 187
80 182 187
80 182 187
80 182 187
80 182 187
79 181 185
80 182 187
79 180 185
80 182 187
80 183 187
80 183 187
79 181 185
80 183 187
79 180 185
80 182 187
80 182 187
80 183 187
80 182 187
80 182 187
80 183 187
79 180 185
80 182 187
80 182 187
80 183 187
80 182 187
80 182 187
79 180 185
79 180 185
80 182 187
80 182 187
80 182 187
79 181 185
80 182 187
80 182 187
80 183 187
79 180 185
80 182 187
80 183 187
80 182 187
80 183 187
80 182 187
80 183 187
79 180 185
78 178 183
80 182 187
80 182 187
79 181 185
80 182 187
80 183 187
80 182 187
80 183 187
79 182 187
80 182 187
80 182 187
80 183 187
80 182 187
80 183 187
80 182 187
80 182 187
80 183 187
80 182 187
80 181 185
80 182 187
80 182 187
80 183 187
80 182 187
80 183 187
80 182 187
80 183 187
80 183 187
80 182 187
80 183 187
80 182 187
80 182 187
80 183 187
80 182 187
80 182 187
80 183 187
80 183 187
80 182 187
80 183 187
80 182 187
80 182 187
80 182 187
80 182 187
79 182 187
80 182 187
80 182 187
80 182 187
80 183 187
80 182 187
80 182 187
80 182 187
80 182 187
80 183 187
80 183 187
80 182 187
81 183 187
80 182 187
80 182 187
80 183 187
80 182 187
80 182 187
80 183 187
80 182 187
80 183 187
80 183 187
80 182 187
80 183 187
80 182 187
80 182 187
80 183 187
80 182 187
80 182 187
80 182 187
80 182 187
80 182 187
80 182 187
80 183 187
80 182 187
80 182 187
80 182 187
80 183 187
80 182 187
80 183 187
80 182 187
80 182 187
80 182 187
80 182 187
80 182 187
80 182 187
80 182 187
80 182 187
80 182 187
80 182 187
80 183 187
80 182 187
80 182 187
80 183 187
80 182 187
80 182 187
80 182 187
80 183 187
80 182 187
80 182 187
80 182 187
80 182 187
80 182 187
79 182 187
81 183 187
80 182 187
80 182 187
81 183 187
80 182 187
80 182 187
80 182 187
80 182 187
81 183 187
80 182 187
80 183 187
80 182 187
80 183 187
80 182 187
80 182 187
80 183 187
80 182 187
80 182 187
80 182 187
80 183 187
80 182 187
80 182 187
80 183 187
80 183 187
80 182 187
80 182 187
80 183 187
80 182 187
80 182 187
80 183 187
80 182 187
80 182 187
80 182 187
80 182 187
80 182 187
80 183 187
80 182 187
80 182 187
80 182 187
80 182 187
80 182 187
80 182 187
80 182 187
80 182 187
80 182 187
80 182 187
80 182 187
80 182 187
80 182 187
80 182 187
80 182 187
80 182 187
80 183 187
80 182 187
80 182 187
80 182 187
80 182 187
80 183 187
80 183 187
80 182 187
80 183 187
80 182 187
80 182 187
80 183 187
80 182 187
80 182 187
80 182 187
80 182 187
80 182 187
80 182 187
80 183 187
80 182 187
80 182 187
80 182 187
80 182 187
80 182 187
80 182 187
80 182 187
80 182 187
80 182 187
80 183 187
80 182 187
79 180 185
80 183 187
80 182 187
80 183 187
80 183 187
80 182 187
79 182 187
80 182 187
80 182 187
80 182 187
80 183 187
80 182 187
80 182 187
80 181 186
80 183 187
80 182 187
79 182 187
80 182 187
80 182 186
80 182 186
80 182 187
80 181 186
80 182 187
80 181 185
80 183 187
79 179 184
79 182 187
80 181 186
80 181 186
80 180 185
80 183 187
80 182 187
80 181 186
79 180 185
80 182 187
80 183 187
80 182 187
80 182 187
80 181 185
80 181 186
80 182 187
80 180 185
80 183 187
80 181 186
79 178 183
79 181 185
80 181 186
80 180 185
80 182 186
80 180 185
80 181 186
81 182 186
80 181 186
79 180 185
80 182 186
80 181 186
80 182 186
79 181 185
79 182 187
79 178 183
79 179 183
80 183 187
80 181 186
80 180 185
80 181 186
79 178 182
80 182 187
80 181 186
80 182 187
80 178 182
80 183 187
80 180 185
80 182 187
80 180 185
80 180 185
80 179 184
80 182 187
80 181 186
80 181 186
80 181 186
80 181 186
80 179 184
80 181 186
80 182 186
80 180 185
80 182 187
80 181 186
79 182 187
80 181 186
80 180 185
80 179 182
80 179 184
80 181 186
79 181 186
80 177 181
80 182 187
79 179 184
80 180 185
80 182 187
80 181 186
80 180 185
80 181 186
80 181 186
80 181 185
80 180 185
80 181 185
80 182 187
80 180 184
79 179 184
79 180 185
80 181 186
79 179 183
79 181 185
80 179 184
80 179 184
81 183 187
79 181 185
80 182 187
80 183 187
79 180 185
80 182 187
80 182 187
80 182 187
79 181 185
80 182 187
80 182 187
79 181 185
80 182 187
79 180 183
80 182 187
80 182 187
80 182 187
79 181 185
78 178 183
79 179 183
79 182 187
80 182 187
79 180 185
80 182 187
79 182 187
79 182 187
79 181 185
80 182 187
79 180 185
80 183 187
80 182 187
80 182 187
80 182 187
78 179 183
79 180 185
80 182 187
80 182 187
79 179 183
79 180 185
79 181 185
79 181 185
80 182 187
79 180 185
79 181 185
80 182 187
80 182 187
79 179 183
81 183 187
79 182 187
80 182 187
80 182 187
80 183 187
79 181 185
80 182 187
79 180 185
80 182 187
80 182 187
80 182 187
80 182 187
80 183 187
79 181 185
80 182 187
80 182 187
80 182 187
79 180 185
81 183 187
80 183 187
80 182 187
79 181 185
80 182 187
79 180 185
80 182 187
80 182 187
79 180 185
80 182 187
80 182 187
79 180 185
80 182 187
80 182 187
79 181 185
80 182 187
80 182 187
80 182 187
80 183 187
80 183 187
80 182 187
80 182 187
80 183 187
79 181 185
80 183 187
80 182 187
80 182 187
80 182 187
80 182 187
80 183 187
80 182 187
80 183 187
80 183 187
80 182 187
80 182 187
80 182 187
80 182 187
80 182 187
80 183 187
80 182 187
80 183 187
80 183 187
80 182 187
80 182 187
80 182 187
79 180 185
80 182 187
80 182 187
80 183 187
80 183 187
80 182 187
80 182 187
80 183 187
80 183 187
80 182 187
80 182 187
80 182 187
80 182 187
80 182 187
80 182 187
80 182 187
80 183 187
80 182 187
80 182 187
80 183 187
80 182 187
80 182 187
80 183 187
80 182 187
80 183 187
80 182 187
80 182 187
80 183 187
80 183 187
80 182 187
80 182 187
80 182 187
80 182 187
81 183 187
80 183 187
80 182 187
80 182 187
80 182 187
80 182 187
81 183 187
80 183 187
80 182 187
80 182 187
80 182 187
80 182 187
80 182 187
80 183 187
80 182 187
80 182 187
80 183 187
81 183 187
80 183 187
80 182 187
80 182 187
80 183 187
80 183 187
80 183 187
80 182 187
80 183 187
80 182 187
80 182 187
80 182 187
80 183 187
80 182 187
80 182 187
80 182 187
80 182 187
80 183 187
80 183 187
80 182 187
80 182 187
80 183 187
80 182 187
80 182 187
80 182 187
80 183 187
80 182 187
80 182 187
79 182 187
80 183 187
80 182 187
80 182 187
80 182 187
80 183 187
80 182 187
80 182 187
80 182 187
80 182 187
80 182 187
80 182 187
80 182 187
80 182 187
80 182 187
80 182 187
79 182 187
80 182 187
80 182 187
80 182 187
80 183 187
80 182 187
80 183 187
80 182 187
80 183 187
80 182 187
80 182 187
80 182 187
80 183 187
80 182 187
80 182 187
80 182 187
80 182 187
80 182 187
80 182 187
80 182 187
80 183 187
80 183 187
80 183 187
80 182 187
80 183 187
80 183 187
80 182 187
80 182 187
80 182 187
80 183 187
80 183 187
80 182 187
80 182 187
80 183 187
80 182 187
80 182 187
80 182 187
80 182 187
80 183 187
80 182 187
80 183 187
80 182 187
80 182 187
80 182 187
80 183 187
80 183 187
80 182 187
80 182 187
80 182 187
80 182 187
80 182 187
80 182 187
80 182 187
80 182 187
80 182 187
80 182 187
80 182 187
79 182 187
80 183 187
80 182 187
80 182 187
80 183 187
80 183 187
80 183 187
80 182 187
80 182 187
79 182 187
80 183 187
80 182 187
80 182 187
80 183 187
80 183 187
80 182 187
80 182 187
80 183 187
80 183 187
80 183 187
80 183 187
80 182 187
80 182 187
80 183 187
79 182 187
81 183 187
80 182 187
80 182 187
80 183 187
80 183 187
80 183 187
80 183 187
80 182 187
80 182 187
80 181 185
80 182 186
80 182 187
80 182 187
80 183 187
81 183 187
80 182 187
80 182 187
79 180 185
80 182 187
80 182 187
80 182 187
80 182 187
80 182 187
80 182 187
79 181 186
80 183 187
80 182 187
80 183 187
80 183 187
80 183 187
79 179 184
80 181 185
79 180 184
80 182 187
79 181 185
80 181 186
80 183 187
80 181 186
80 182 187
80 181 186
79 182 187
79 181 186
80 182 187
80 180 185
80 182 187
80 182 187
80 182 187
80 180 185
80 182 187
80 180 185
80 181 186
80 181 186
80 183 187
80 181 185
80 182 187
80 181 186
80 182 187
80 180 185
80 181 185
79 179 183
80 183 187
80 182 187
80 182 186
80 181 186
80 181 186
79 179 184
79 177 182
80 181 186
80 181 186
80 181 186
80 181 186
80 181 186
80 179 184
80 183 187
80 181 186
80 181 186
80 183 187
80 182 187
80 182 186
80 182 187
80 182 187
80 183 187
80 180 185
80 181 186
80 179 184
80 180 185
80 179 184
80 181 186
80 179 184
80 181 186
80 180 185
80 182 187
79 180 185
80 181 185
80 181 185
80 182 187
80 181 185
80 180 185
80 181 186
79 178 182
80 180 185
80 180 185
80 179 184
80 181 186
80 180 185
80 179 184
80 179 184
80 179 184
80 181 186
80 179 184
80 180 185
80 180 185
80 180 184
80 180 185
80 182 187
80 182 187
79 181 185
80 182 187
79 180 185
80 182 187
80 182 187
79 182 187
80 183 187
80 183 187
79 179 183
79 180 185
80 182 187
80 182 187
80 182 187
80 183 187
79 181 185
80 182 187
79 180 185
80 183 187
79 181 185
80 183 187
79 181 185
80 183 187
80 182 187
80 182 187
80 182 187
79 180 185
79 181 185
80 182 187
80 182 187
80 183 187
80 183 187
79 181 185
78 178 183
80 182 187
80 182 187
81 183 187
80 182 187
79 180 185
79 181 185
81 183 187
80 182 187
80 182 187
80 182 187
80 182 187
80 182 187
78 177 182
80 181 185
80 182 187
78 179 183
80 182 187
79 180 185
80 183 187
80 182 187
80 183 187
80 182 187
79 182 187
80 181 185
80 183 187
80 182 187
80 182 187
79 180 185
77 177 182
80 182 187
79 182 187
80 182 187
80 183 187
80 183 187
79 181 185
80 182 187
80 183 187
79 181 185
81 183 187
80 182 187
80 182 187
80 183 187
80 182 187
80 182 187
80 182 187
80 182 187
79 181 185
80 183 187
80 183 187
80 182 187
80 182 187
80 182 187
80 183 187
80 183 187
80 182 187
79 182 187
79 181 185
80 181 185
80 182 187
80 183 187
80 182 187
80 183 187
80 182 187
80 183 187
81 183 187
80 182 187
80 182 187
80 183 187
80 182 187
80 183 187
80 183 187
79 181 185
80 183 187
79 182 187
80 182 187
80 183 187
80 183 187
80 183 187
80 182 187
80 182 187
80 182 187
80 182 187
80 183 187
80 182 187
79 182 187
80 182 187
80 182 187
80 183 187
80 183 187
80 182 187
80 182 187
80 183 187
79 182 187
80 182 187
80 182 187
80 183 187
80 182 187
80 182 187
80 183 187
80 182 187
80 183 187
80 182 187
80 182 187
80 183 187
80 182 187
80 183 187
80 182 187
80 182 187
80 182 187
80 182 187
80 183 187
80 183 187
80 182 187
80 183 187
81 183 187
80 182 187
81 183 187
80 183 187
80 182 187
80 182 187
80 182 187
80 182 187
80 182 187
80 182 187
80 183 187
80 182 187
80 182 187
80 182 187
80 182 187
80 183 187
80 182 187
80 182 187
80 182 187
80 182 187
80 182 187
80 182 187
80 182 187
80 182 187
80 183 187
80 183 187
80 183 187
80 182 187
80 182 187
80 182 187
80 182 187
81 183 187
80 183 187
81 183 187
80 183 187
80 182 187
80 183 187
80 183 187
80 183 187
80 182 187
80 183 187
80 182 187
80 183 187
80 182 187
80 182 187
80 182 187
80 182 187
80 182 187
80 182 187
80 183 187
80 182 187
81 183 187
80 182 187
80 182 187
80 182 187
80 182 187
80 182 187
80 183 187
80 182 187
80 183 187
80 182 187
80 183 187
80 183 187
80 182 187
80 183 187
80 182 187
80 183 187
80 182 187
80 183 187
80 183 187
81 183 187
80 182 187
80 183 187
80 182 187
80 182 187
80 182 187
80 182 187
80 182 187
80 183 187
80 183 187
80 182 187
80 182 187
80 182 187
80 182 187
80 183 187
80 183 187
80 183 187
80 183 187
80 182 187
80 183 187
80 182 187
80 182 187
80 182 187
80 183 187
80 182 187
80 183 187
80 182 187
80 183 187
80 182 187
80 182 187
80 183 187
80 183 187
80 182 187
80 183 187
80 182 187
80 183 187
80 182 187
80 182 187
80 182 187
80 182 187
80 182 187
80 182 187
80 182 187
80 183 187
80 183 187
80 182 187
81 183 187
80 182 187
80 183 187
80 183 187
80 182 187
80 182 187
80 183 187
80 182 187
80 182 187
80 182 187
80 182 187
80 182 187
80 182 187
81 183 187
80 183 187
80 183 187
80 182 187
80 182 187
80 183 187
80 183 187
80 183 187
80 182 187
80 182 187
80 182 187
80 182 187
80 182 187
80 183 187
80 183 187
80 182 187
80 182 187
80 182 187
80 182 187
80 182 187
80 182 187
80 182 187
80 183 187
79 181 186
79 179 184
80 183 187
80 183 187
80 182 187
80 183 187
80 182 187
80 182 186
80 181 186
80 182 187
80 182 187
80 182 187
80 182 187
80 182 187
80 182 187
80 181 186
80 183 187
80 183 187
80 180 185
80 182 187
80 182 187
80 182 187
80 182 186
80 182 187
79 180 185
80 183 187
79 182 187
80 179 184
80 182 187
80 181 186
79 181 185
79 181 185
80 180 185
81 183 187
79 179 184
80 182 187
80 180 185
80 181 185
80 182 186
80 182 186
80 183 187
80 180 185
80 181 185
80 183 187
80 180 185
80 182 187
80 180 185
80 181 186
80 182 187
80 180 185
80 182 186
80 183 187
80 182 187
80 181 186
79 180 185
80 181 186
80 182 187
80 182 187
80 182 187
80 182 187
80 182 187
80 182 187
80 181 186
81 183 187
80 181 186
80 181 186
80 181 186
80 181 186
80 182 187
80 181 185
79 179 184
80 183 187
80 182 187
80 180 185
80 182 186
80 180 185
80 181 186
80 180 185
80 182 187
80 182 187
80 180 185
80 183 187
79 180 185
80 180 185
80 182 186
80 179 184
80 181 186
80 177 181
80 181 185
80 180 185
80 180 185
80 183 187
80 180 185
80 180 185
80 181 186
80 181 186
80 181 186
80 182 186
79 181 186
80 183 187
80 182 187
79 180 185
80 182 187
79 180 185
79 181 185
79 182 187
80 183 187
80 182 187
80 182 187
79 180 185
80 182 187
80 182 187
79 181 185
80 182 187
80 182 187
79 180 185
80 182 187
80 183 187
80 182 187
80 182 187
80 182 187
79 181 185
80 183 187
79 179 183
80 183 187
80 182 187
79 180 185
79 179 183
80 182 187
80 182 187
80 183 187
80 182 187
80 181 185
79 180 185
80 183 187
80 182 187
79 180 185
80 182 187
80 183 187
80 183 187
80 182 187
80 182 187
80 182 187
80 182 187
80 182 187
80 182 187
79 181 185
80 182 187
79 181 185
80 183 187
80 182 187
80 183 187
80 182 187
80 182 187
80 182 187
80 183 187
79 180 185
79 181 185
80 183 187
80 183 187
80 182 187
80 183 187
80 181 185
80 182 187
80 182 187
80 182 187
80 182 187
80 181 185
80 182 187
80 183 187
80 183 187
80 182 187
80 183 187
80 182 187
78 179 183
80 182 187
80 182 187
80 183 187
80 182 187
80 182 187
80 182 187
80 182 187
80 182 187
80 182 187
79 180 185
80 182 187
80 182 187
80 182 187
81 183 187
80 182 187
80 182 187
80 182 187
80 183 187
80 182 187
80 183 187
80 182 187
80 182 187
80 182 187
80 182 187
80 183 187
80 182 187
80 182 187
80 183 187
80 183 187
80 182 187
80 182 187
80 183 187
80 182 187
80 182 187
80 182 187
81 183 187
80 182 187
80 182 187
80 182 187
80 183 187
80 182 187
80 182 187
80 182 187
80 182 187
80 182 187
80 183 187
80 183 187
80 182 187
80 183 187
80 182 187
80 182 187
80 182 187
79 182 187
80 182 187
80 182 187
80 182 187
80 182 187
80 183 187
81 183 187
80 182 187
80 183 187
80 183 187
80 183 187
80 182 187
80 182 187
80 183 187
80 182 187
80 183 187
80 182 187
80 182 187
80 182 187
80 183 187
80 182 187
80 182 187
80 182 187
80 182 187
80 182 187
80 182 187
80 182 187
80 182 187
80 183 187
80 182 187
80 182 187
80 183 187
80 182 187
80 183 187
79 182 187
80 183 187
80 183 187
80 182 187
80 182 187
80 182 187
81 183 187
80 182 187
80 183 187
80 182 187
80 182 187
80 182 187
80 182 187
80 182 187
80 182 187
80 183 187
80 183 187
80 182 187
80 182 187
80 182 187
80 182 187
80 182 187
80 182 187
80 183 187
80 183 187
80 182 187
80 182 187
80 182 187
80 182 187
80 182 187
79 182 187
80 182 187
80 183 187
80 182 187
80 183 187
80 182 187
80 182 187
80 183 187
80 182 187
80 182 187
80 182 187
80 183 187
80 183 187
80 182 187
80 182 187
80 182 187
80 183 187
80 182 187
79 182 187
80 182 187
80 182 187
80 182 187
80 183 187
80 182 187
80 182 187
80 182 187
80 182 187
80 182 187
80 183 187
81 183 187
80 183 187
80 182 187
80 182 187
80 183 187
80 182 187
80 182 187
80 182 187
80 182 187
80 182 187
80 182 187
80 182 187
80 182 187
80 182 187
80 182 187
80 182 187
80 183 187
80 182 187
80 182 187
80 183 187
80 182 187
80 182 187
80 182 187
80 183 187
80 183 187
80 183 187
80 182 187
80 182 187
80 183 187
79 182 187
80 182 187
80 182 187
80 182 187
80 182 187
80 183 187
80 183 187
80 182 187
80 183 187
80 182 187
80 183 187
80 182 187
80 182 187
81 183 187
80 183 187
80 182 187
80 182 187
80 183 187
80 182 187
80 182 187
80 182 187
80 183 187
81 183 187
80 182 187
80 183 187
80 182 187
80 182 187
80 182 187
80 182 187
80 182 187
80 183 187
81 183 187
80 182 187
80 183 187
80 183 187
80 182 187
80 183 187
80 182 187
80 182 187
80 182 187
80 182 187
80 182 187
80 183 187
80 182 187
80 182 187
80 183 187
80 182 187
80 182 187
80 182 187
80 182 187
78 180 185
80 183 187
80 181 186
80 182 187
80 183 187
80 182 187
80 181 186
80 182 187
80 183 187
80 182 187
79 179 183
80 182 187
80 182 187
80 182 187
80 182 187
80 182 187
80 182 187
80 182 187
80 182 186
80 182 187
80 180 185
80 181 185
80 182 186
80 182 187
80 183 187
80 182 187
80 182 187
80 182 187
80 181 186
80 182 187
80 183 187
80 182 187
80 182 187
79 181 185
80 181 186
80 183 187
80 181 185
80 181 186
80 181 186
80 181 186
80 182 187
79 177 182
80 182 187
80 182 186
80 182 186
79 182 187
80 182 187
79 178 182
80 182 187
80 181 186
80 182 187
80 182 187
79 178 183
80 182 186
80 182 187
80 183 187
79 180 184
80 182 187
80 182 187
80 181 186
80 181 186
80 180 185
80 180 185
79 180 185
80 181 186
80 179 184
80 182 187
80 180 185
79 180 184
79 180 184
80 181 186
79 180 184
79 179 184
80 183 187
80 178 182
80 183 187
80 180 185
80 181 186
81 182 186
80 180 185
80 182 186
80 181 186
80 180 185
80 182 187
80 180 185
80 181 186
80 180 184
80 181 186
80 179 184
80 181 185
79 179 184
80 181 186
80 181 186
79 180 185
79 179 184
80 181 186
79 178 184
80 182 187
80 180 185
80 177 181
78 179 183
79 180 185
80 183 187
80 182 187
80 182 187
79 180 185
79 181 185
80 182 187
78 179 183
80 183 187
80 182 187
79 182 187
80 182 187
79 180 185
79 180 185
80 182 187
80 182 187
79 182 187
80 182 187
80 183 187
80 182 187
79 181 185
80 182 187
80 182 187
80 183 187
79 181 185
80 183 187
79 180 185
80 182 187
80 183 187
79 181 185
80 182 187
80 183 187
80 181 185
80 182 187
80 182 187
79 180 185
80 182 187
80 182 187
80 183 187
80 182 187
80 183 187
79 181 185
80 183 187
79 181 185
80 182 187
80 183 187
80 183 187
79 181 185
80 182 187
80 183 187
80 183 187
80 182 187
80 182 187
80 182 187
80 182 187
79 180 185
80 182 187
79 180 185
80 183 187
80 182 187
80 181 185
80 181 185
80 183 187
79 180 185
79 182 187
78 179 183
80 183 187
80 182 187
80 183 187
80 183 187
79 181 185
80 182 187
80 183 187
80 183 187
80 182 187
80 183 187
80 182 187
80 182 187
80 182 187
80 182 187
80 183 187
80 182 187
80 182 187
79 181 185
79 181 185
80 182 187
80 183 187
80 182 187
80 183 187
80 182 187
80 183 187
80 182 187
80 183 187
80 182 187
79 182 187
80 182 187
80 183 187
80 183 187
80 182 187
79 182 187
80 183 187
80 183 187
80 182 187
80 182 187
80 182 187
80 183 187
80 182 187
80 182 187
79 182 187
80 182 187
80 183 187
80 183 187
80 183 187
80 182 187
81 183 187
80 182 187
80 183 187
80 182 187
80 183 187
80 182 187
80 182 187
80 183 187
80 183 187
80 182 187
80 183 187
80 183 187
80 182 187
80 182 187
80 183 187
80 183 187
80 182 187
80 182 187
80 182 187
80 182 187
80 183 187
80 182 187
80 182 187
80 182 187
81 183 187
80 183 187
80 182 187
80 182 187
80 183 187
80 182 187
80 183 187
80 183 187
80 182 187
80 182 187
80 182 187
80 183 187
80 182 187
80 183 187
80 183 187
80 182 187
80 182 187
80 182 187
80 182 187
80 182 187
80 182 187
80 183 187
80 183 187
80 182 187
80 182 187
80 182 187
80 183 187
80 182 187
80 182 187
80 183 187
80 183 187
80 182 187
80 182 187
80 182 187
80 183 187
80 182 187
80 182 187
80 183 187
80 183 187
80 183 187
80 182 187
80 182 187
80 182 187
80 183 187
80 183 187
80 183 187
80 183 187
80 183 187
80 183 187
80 182 187
80 183 187
80 182 187
80 182 187
80 182 187
80 182 187
80 183 187
80 183 187
80 182 187
80 182 187
80 182 187
80 182 187
80 182 187
80 183 187
80 183 187
80 182 187
80 182 187
79 182 187
80 183 187
80 182 187
80 182 187
80 183 187
80 182 187
80 182 187
80 182 187
80 183 187
80 182 187
80 183 187
80 182 187
80 182 187
80 182 187
80 183 187
80 182 187
80 182 187
80 182 187
80 182 187
80 182 187
80 182 187
79 182 187
80 182 187
80 183 187
80 183 187
80 182 187
80 182 187
80 182 187
80 182 187
80 182 187
80 182 187
80 183 187
80 182 187
80 183 187
80 183 187
80 182 187
80 182 187
80 183 187
80 182 187
81 183 187
80 182 187
80 182 187
80 183 187
80 183 187
80 183 187
80 183 187
80 182 187
80 182 187
81 183 187
80 183 187
80 182 187
81 183 187
81 183 187
80 182 187
80 182 187
80 182 187
80 183 187
80 182 187
80 182 187
80 183 187
80 182 187
79 182 187
80 183 187
80 182 187
79 182 187
80 182 187
80 182 187
80 183 187
80 182 187
80 182 187
80 182 187
80 183 187
80 182 187
80 182 187
80 182 187
80 182 187
80 183 187
80 183 187
79 182 187
80 182 187
80 183 187
80 183 187
80 182 187
80 182 187
80 182 187
79 182 187
80 182 187
80 183 187
80 182 187
81 183 187
80 182 187
80 182 187
80 182 187
80 182 187
80 182 187
80 182 187
80 182 187
80 182 187
80 182 187
80 182 187
80 183 187
80 183 187
80 182 187
80 182 187
80 181 186
80 182 187
80 183 187
79 180 185
80 182 187
80 182 187
80 181 186
80 182 187
80 182 186
81 182 186
79 181 185
80 182 187
80 182 187
79 180 184
80 182 187
79 180 185
80 182 187
80 181 186
80 182 187
80 182 187
80 182 187
80 182 187
80 183 187
80 183 187
80 181 185
80 182 187
80 182 187
79 179 184
80 183 187
80 182 187
80 182 187
80 180 185
80 183 187
80 180 185
80 181 186
79 181 185
80 182 187
79 179 184
80 181 186
80 182 187
80 181 186
80 182 186
80 182 187
80 181 186
79 181 186
80 182 187
80 182 187
80 179 184
80 180 185
80 181 186
80 179 184
79 180 185
79 180 185
79 181 185
79 178 183
79 178 182
80 180 185
80 181 186
80 182 186
80 181 186
80 182 187
80 182 187
80 182 187
79 181 186
80 180 185
80 183 187
80 181 186
80 180 185
80 181 186
80 178 182
80 182 186
80 182 187
80 180 185
80 182 187
80 180 185
80 182 187
80 179 184
80 180 185
80 181 186
80 183 187
80 179 184
80 181 186
79 181 185
80 182 187
80 182 187
80 183 187
79 180 185
80 180 185
80 178 182
80 178 182
79 180 185
80 182 187
78 177 182
79 181 185
80 182 187
80 182 187
79 181 185
78 178 183
80 182 187
80 181 185
79 180 185
80 182 187
80 182 187
80 182 187
80 182 187
79 181 185
79 180 185
79 181 185
80 182 187
80 182 187
80 182 187
80 182 187
80 182 187
80 182 187
80 182 187
79 181 185
80 182 187
80 182 187
78 179 183
80 183 187
80 182 187
80 182 187
79 180 185
80 183 187
80 182 187
80 182 187
80 183 187
80 182 187
80 183 187
80 181 185
80 182 187
80 182 187
80 182 187
79 181 185
79 180 185
79 182 187
78 179 183
79 181 185
80 183 187
79 180 185
80 183 187
80 182 187
79 181 185
80 183 187
80 183 187
80 183 187
80 183 187
80 182 187
80 183 187
80 182 187
80 182 187
80 182 187
80 182 187
81 183 187
80 182 187
79 182 187
80 182 187
80 182 187
80 182 187
80 182 187
80 182 187
80 182 187
79 181 185
80 182 187
80 182 187
80 182 187
80 182 187
80 182 187
80 183 187
79 180 185
80 182 187
80 182 187
79 181 185
80 182 187
80 183 187
79 181 185
80 182 187
79 181 185
80 183 187
80 182 187
80 182 187
80 182 187
80 183 187
79 181 185
80 182 187
79 181 185
80 183 187
81 183 187
80 182 187
80 183 187
80 182 187
80 182 187
80 182 187
80 182 187
80 182 187
80 182 187
80 183 187
80 182 187
80 182 187
80 182 187
80 182 187
80 182 187
80 183 187
80 183 187
80 182 187
81 183 187
80 182 187
80 182 187
80 182 187
80 182 187
80 183 187
80 182 187
80 183 187
80 183 187
80 182 187
80 183 187
79 182 187
80 183 187
80 182 187
80 182 187
80 182 187
80 183 187
80 182 187
80 182 187
81 183 187
80 183 187
80 182 187
80 183 187
80 182 187
80 182 187
80 183 187
81 183 187
80 183 187
80 183 187
80 182 187
80 182 187
80 182 187
80 182 187
80 183 187
80 182 187
80 182 187
80 183 187
80 183 187
80 183 187
80 182 187
80 182 187
80 182 187
80 183 187
80 182 187
80 182 187
80 182 187
80 182 187
80 182 187
80 183 187
80 183 187
80 182 187
80 183 187
80 182 187
80 182 187
79 182 187
80 182 187
79 182 187
80 182 187
80 183 187
80 182 187
80 182 187
80 182 187
80 182 187
80 182 187
80 183 187
81 183 187
81 183 187
80 182 187
80 182 187
80 183 187
80 182 187
80 183 187
80 182 187
81 183 187
80 183 187
80 183 187
80 182 187
81 183 187
80 182 187
80 182 187
80 182 187
80 183 187
80 182 187
80 182 187
80 182 187
80 182 187
80 182 187
80 182 187
80 182 187
80 182 187
80 183 187
81 183 187
80 182 187
80 182 187
80 183 187
80 182 187
80 183 187
80 183 187
80 182 187
80 182 187
80 182 187
80 183 187
80 182 187
80 182 187
80 183 187
80 183 187
80 182 187
80 182 187
80 182 187
80 183 187
80 182 187
80 182 187
80 182 187
80 182 187
80 183 187
80 182 187
80 183 187
80 182 187
80 182 187
79 182 187
80 183 187
80 182 187
79 182 187
80 183 187
80 183 187
80 182 187
80 182 187
80 182 187
80 183 187
80 182 187
80 183 187
80 183 187
80 183 187
80 182 187
80 182 187
80 183 187
80 183 187
80 182 187
80 183 187
80 182 187
80 182 187
80 183 187
80 182 187
80 182 187
80 182 187
80 183 187
80 183 187
81 183 187
80 182 187
80 183 187
80 183 187
80 182 187
80 182 187
80 182 187
80 182 187
80 182 187
80 182 187
79 182 187
80 183 187
80 183 187
80 182 187
80 183 187
80 183 187
80 182 187
80 182 187
80 182 187
79 182 187
80 182 187
80 182 187
80 183 187
80 183 187
80 183 187
80 182 187
80 183 187
80 182 187
80 182 187
80 182 187
80 183 187
80 182 187
80 182 187
81 183 187
80 182 187
80 182 187
80 183 187
80 182 187
80 183 187
80 182 187
80 182 187
80 182 187
80 182 187
80 182 187
80 182 187
80 182 187
80 182 187
80 183 187
80 182 187
80 182 187
80 182 187
80 182 187
80 183 187
80 182 187
80 182 187
80 181 186
80 182 187
79 182 187
80 182 187
80 182 187
80 182 187
79 182 187
80 181 186
80 181 186
80 182 187
80 183 187
80 183 187
81 183 187
80 182 187
80 182 187
80 182 187
80 182 187
80 183 187
80 182 186
80 182 187
80 181 186
80 181 186
81 183 187
80 182 187
80 182 187
80 182 187
79 181 185
80 181 186
79 182 187
80 183 187
80 182 187
80 182 187
80 182 187
80 182 186
80 181 185
80 181 185
80 182 187
80 183 187
79 182 187
80 182 186
80 182 187
79 180 185
80 183 187
80 181 186
80 182 187
80 179 184
80 180 184
80 182 187
80 181 186
79 179 184
80 183 187
80 179 182
80 180 185
78 178 183
80 182 187
80 179 184
81 183 187
80 181 186
79 181 185
80 180 185
80 182 186
79 182 187
80 182 187
80 181 186
80 182 186
80 182 187
80 181 186
80 181 186
80 183 187
80 179 184
80 179 184
79 181 186
80 179 184
80 182 187
80 181 186
80 182 187
80 182 187
80 182 186
80 180 185
80 181 186
80 180 185
80 182 187
79 180 185
80 181 186
79 180 185
79 180 185
79 181 185
79 181 185
80 182 187
80 182 187
80 182 187
80 182 187
81 183 187
80 183 187
79 182 187
80 182 187
80 182 187
80 182 187
80 182 187
80 182 187
80 182 187
80 182 187
80 183 187
80 183 187
79 182 187
80 183 187
80 182 187
80 182 187
80 182 187
80 183 187
79 181 185
81 183 187
80 183 187
79 181 185
80 183 187
80 182 187
80 182 187
80 182 187
80 182 187
78 179 183
80 183 187
79 181 185
80 183 187
79 181 185
80 183 187
80 182 187
81 183 187
80 182 187
80 182 187
80 182 187
80 183 187
80 183 187
80 182 187
80 182 187
80 183 187
79 180 185
80 182 187
80 182 187
80 183 187
80 182 187
79 180 185
80 183 187
80 182 187
80 182 187
80 182 187
80 182 187
80 182 187
79 182 187
80 183 187
80 182 187
80 182 187
80 182 187
80 181 185
80 183 187
80 182 187
80 182 187
79 181 185
80 182 187
80 182 187
80 181 185
80 182 187
80 182 187
80 182 187
80 182 187
80 182 187
80 182 187
80 183 187
79 182 187
80 182 187
80 182 187
79 181 185
80 182 187
79 180 185
80 183 187
80 182 187
80 183 187
80 183 187
79 181 185
80 182 187
80 183 187
80 182 187
80 182 187
80 182 187
80 182 187
80 182 187
80 182 187
80 182 187
80 182 187
80 183 187
80 182 187
81 183 187
80 182 187
80 182 187
80 182 187
80 182 187
80 183 187
80 182 187
80 183 187
80 182 187
80 182 187
80 183 187
80 183 187
80 183 187
80 182 187
80 183 187
80 182 187
79 182 187
79 182 187
80 182 187
80 182 187
80 182 187
80 182 187
80 182 187
80 183 187
79 182 187
80 182 187
80 183 187
80 182 187
80 183 187
80 182 187
80 182 187
80 183 187
80 182 187
80 182 187
80 182 187
80 182 187
80 183 187
80 182 187
80 182 187
80 182 187
80 183 187
80 182 187
80 183 187
80 183 187
80 182 187
80 183 187
81 183 187
80 183 187
80 182 187
80 182 187
80 183 187
80 182 187
80 183 187
80 182 187
80 182 187
80 183 187
80 182 187
80 182 187
80 182 187
80 182 187
81 183 187
80 182 187
80 183 187
80 183 187
80 182 187
80 182 187
80 183 187
80 183 187
80 182 187
80 182 187
80 183 187
80 183 187
80 183 187
80 182 187
80 183 187
80 182 187
80 182 187
80 182 187
80 183 187
80 182 187
80 182 187
80 182 187
80 182 187
80 182 187
80 182 187
80 182 187
80 182 187
79 182 187
80 183 187
80 183 187
80 183 187
80 182 187
80 182 187
80 183 187
80 183 187
80 182 187
80 182 187
80 182 187
81 183 187
80 182 187
80 183 187
81 183 187
80 182 187
80 182 187
80 183 187
79 182 187
80 182 187
80 183 187
80 183 187
80 182 187
80 182 187
80 183 187
80 182 187
80 182 187
80 182 187
80 183 187
80 182 187
80 182 187
80 182 187
80 182 187
80 183 187
80 183 187
79 182 187
80 182 187
80 183 187
80 182 187
80 182 187
80 182 187
80 182 187
80 182 187
80 183 187
80 183 187
80 182 187
80 182 187
80 183 187
80 182 187
80 182 187
80 182 187
80 182 187
80 182 187
80 182 187
80 182 187
81 183 187
80 182 187
80 182 187
80 183 187
80 182 187
80 182 187
80 182 187
80 183 187
80 183 187
80 182 187
80 183 187
80 182 187
80 183 187
80 182 187
80 182 187
80 183 187
80 182 187
80 182 187
80 182 187
80 182 187
80 182 187
80 182 187
80 182 187
80 182 187
80 182 187
80 182 187
80 182 187
80 182 187
80 182 187
80 182 187
80 183 187
80 182 187
80 182 187
80 182 187
80 182 187
80 182 187
80 183 187
80 182 187
80 183 187
80 182 187
80 182 187
80 183 187
80 182 187
80 183 187
80 183 187
80 183 187
80 183 187
80 182 187
80 183 187
80 182 187
80 183 187
80 182 187
80 182 187
80 182 187
80 183 187
80 181 186
80 182 187
80 183 187
80 182 187
80 182 187
80 182 187
80 182 187
80 182 187
80 182 187
80 183 187
80 182 187
80 182 187
80 182 187
80 182 187
80 182 187
80 182 187
80 183 187
80 182 187
80 182 187
80 182 187
80 182 187
80 183 187
79 182 187
80 182 187
80 182 187
80 182 187
80 181 186
80 182 187
81 183 187
80 182 187
80 181 185
80 183 187
80 182 187
80 182 187
80 181 186
80 183 187
80 182 187
81 183 187
80 182 187
80 182 187
80 183 187
80 181 186
80 182 187
80 181 186
80 182 187
80 182 187
79 182 187
80 183 187
80 182 187
80 182 187
79 180 185
80 180 185
79 180 184
80 180 185
80 181 186
80 179 184
80 181 186
80 182 186
79 181 186
80 181 186
80 182 187
80 182 187
80 181 186
80 180 185
79 180 184
80 182 187
80 183 187
80 182 187
80 182 187
81 183 187
80 182 186
80 182 186
79 180 184
80 182 187
80 180 185
80 180 185
80 182 186
79 181 186
80 182 186
80 182 186
81 181 185
80 183 187
80 181 186
80 181 186
80 181 186
80 182 186
80 181 185
80 181 186
80 181 186
80 181 185
80 181 185
80 181 186
80 180 185
80 182 187
80 182 187
80 182 187
80 182 187
79 180 185
80 182 187
80 182 187
80 183 187
80 182 187
80 182 187
80 183 187
80 182 187
80 183 187
80 181 185
80 182 187
80 182 187
79 181 185
81 183 187
80 182 187
80 182 187
80 182 187
80 183 187
80 182 187
80 181 185
81 183 187
80 182 187
80 183 187
80 183 187
80 182 187
80 182 187
79 180 185
80 183 187
80 183 187
79 181 185
80 183 187
80 182 187
80 182 187
80 183 187
79 181 185
80 182 187
80 181 185
79 181 185
80 182 187
81 183 187
80 183 187
80 182 187
80 182 187
80 182 187
80 181 185
80 182 187
79 180 185
80 183 187
79 182 187
80 183 187
79 181 185
80 182 187
79 181 185
80 182 187
80 182 187
80 182 187
79 181 185
80 182 187
80 182 187
80 182 187
80 183 187
80 183 187
80 182 187
80 183 187
80 183 187
80 183 187
80 183 187
79 180 185
80 182 187
80 183 187
80 182 187
80 182 187
80 183 187
80 183 187
79 180 185
80 182 187
80 182 187
80 182 187
80 182 187
80 182 187
80 182 187
80 183 187
79 182 187
80 182 187
80 183 187
80 182 187
80 183 187
79 182 187
80 183 187
80 183 187
80 182 187
80 182 187
80 182 187
81 183 187
80 182 187
81 183 187
80 183 187
80 182 187
80 182 187
80 182 187
80 182 187
80 183 187
80 182 187
80 182 187
80 183 187
80 183 187
80 183 187
80 182 187
79 182 187
80 182 187
80 183 187
80 183 187
79 182 187
80 183 187
80 182 187
80 183 187
80 183 187
80 182 187
80 182 187
80 182 187
80 182 187
80 182 187
80 182 187
80 182 187
80 182 187
80 182 187
80 182 187
80 183 187
80 183 187
81 183 187
80 183 187
80 183 187
80 182 187
80 182 187
80 183 187
79 182 187
80 183 187
80 182 187
80 182 187
80 183 187
80 183 187
80 182 187
80 183 187
80 183 187
80 183 187
80 182 187
81 183 187
80 183 187
81 183 187
80 182 187
80 182 187
80 182 187
80 182 187
80 182 187
81 183 187
80 183 187
80 182 187
80 182 187
80 183 187
81 183 187
80 182 187
80 182 187
80 183 187
80 183 187
80 182 187
80 183 187
80 182 187
80 183 187
80 183 187
80 182 187
80 183 187
80 183 187
80 182 187
80 183 187
81 183 187
80 182 187
80 183 187
80 182 187
80 182 187
80 183 187
80 182 187
80 182 187
80 183 187
80 182 187
80 182 187
80 183 187
79 182 187
80 182 187
80 183 187
80 182 187
80 182 187
80 182 187
80 183 187
80 183 187
80 182 187
80 182 187
80 182 187
80 183 187
80 182 187
80 182 187
80 182 187
80 183 187
81 183 187
80 182 187
80 182 187
79 182 187
80 183 187
80 183 187
80 183 187
80 183 187
80 182 187
80 183 187
80 183 187
80 182 187
80 182 187
80 182 187
80 182 187
80 182 187
80 183 187
80 182 187
80 182 187
80 182 187
80 182 187
80 182 187
80 182 187
80 183 187
80 182 187
80 182 187
80 182 187
80 182 187
80 183 187
80 183 187
80 183 187
81 183 187
80 182 187
80 182 187
80 183 187
80 183 187
80 183 187
80 182 187
80 183 187
80 182 187
81 183 187
80 182 187
80 183 187
80 182 187
80 182 187
80 183 187
80 183 187
80 182 187
80 182 187
80 183 187
80 183 187
80 182 187
80 183 187
80 182 187
80 182 187
80 182 187
79 182 187
81 183 187
80 182 187
80 182 187
80 183 187
80 182 187
80 183 187
80 182 187
80 183 187
81 183 187
80 182 187
80 182 187
80 183 187
80 182 187
80 182 187
80 182 187
79 182 187
80 182 187
81 183 187
80 182 187
81 183 187
80 183 187
80 182 187
80 182 187
80 182 187
80 182 187
80 182 187
80 182 187
80 182 187
80 183 187
80 182 187
80 182 187
80 182 187
80 183 187
80 182 187
80 183 187
80 183 187
80 183 187
80 183 187
80 182 187
80 183 187
80 182 187
80 182 187
81 183 187
80 182 187
80 182 187
80 182 187
80 182 187
79 181 186
80 183 187
80 182 187
80 182 187
80 182 187
80 182 187
80 183 187
80 183 187
80 183 187
80 182 187
80 182 187
80 183 187
80 182 186
80 183 187
80 183 187
80 183 187
80 182 187
80 182 187
79 182 187
80 181 186
80 182 187
79 182 187
80 183 187
80 182 187
80 182 187
80 183 187
80 183 187
80 183 187
80 182 187
80 183 187
80 183 187
80 183 187
80 182 187
80 182 187
80 182 187
80 183 187
79 180 185
80 182 187
80 182 187
80 181 186
80 182 187
80 183 187
80 182 187
80 183 187
80 182 187
80 182 187
79 178 182
80 182 187
80 182 187
79 179 183
80 181 185
80 183 187
80 182 187
80 182 187
80 181 186
80 182 186
80 182 186
80 183 187
80 182 187
79 180 185
80 181 185
79 181 185
80 182 187
79 179 184
80 182 186
80 183 187
80 182 187
80 182 187
80 182 187
80 182 187
80 183 187
80 183 187
79 178 183
80 183 187
80 181 186
79 180 184
80 182 186
79 180 185
80 182 187
80 181 186
80 181 186
80 181 185
79 178 183
80 181 186
80 182 186
80 183 187
79 179 184
79 181 185
79 180 185
80 181 186
80 182 187
80 180 185
80 183 187
80 181 186
80 182 187
80 182 187
79 180 185
80 183 187
80 183 187
80 182 187
79 180 185
80 183 187
80 183 187
78 178 183
80 182 187
80 182 187
80 182 187
80 183 187
79 181 185
78 178 183
80 182 187
80 182 187
79 180 185
80 182 187
80 182 187
79 181 185
79 180 185
80 182 187
80 182 187
80 182 187
80 183 187
80 182 187
80 182 187
80 182 187
80 182 187
80 182 187
80 181 185
80 182 187
80 182 187
80 182 187
80 182 187
80 183 187
80 183 187
80 182 187
80 182 187
80 183 187
80 182 187
80 183 187
80 182 187
80 183 187
80 182 187
80 182 187
80 182 187
80 182 187
80 182 187
80 182 187
80 183 187
80 182 187
79 182 187
80 183 187
80 183 187
80 182 187
80 183 187
80 182 187
80 182 187
80 182 187
79 180 185
80 182 187
80 182 187
80 183 187
80 183 187
80 182 187
80 182 187
80 182 187
80 182 187
80 182 187
80 183 187
80 182 187
80 182 187
80 183 187
80 182 187
80 183 187
80 182 187
79 180 185
80 183 187
80 183 187
80 182 187
80 182 187
80 182 187
80 183 187
80 183 187
79 182 187
80 182 187
80 182 187
80 182 187
80 183 187
80 183 187
80 182 187
80 182 187
81 183 187
80 182 187
80 182 187
80 182 187
80 182 187
80 183 187
80 183 187
80 183 187
80 182 187
80 183 187
80 182 187
80 183 187
80 182 187
80 182 187
80 182 187
80 182 187
80 183 187
80 183 187
80 183 187
79 182 187
80 183 187
80 182 187
79 182 187
81 183 187
80 182 187
79 182 187
80 182 187
80 182 187
80 182 187
80 183 187
80 182 187
80 183 187
80 183 187
79 182 187
80 182 187
80 183 187
80 182 187
80 182 187
81 183 187
80 182 187
80 182 187
80 182 187
80 183 187
80 182 187
80 182 187
80 183 187
80 182 187
80 182 187
80 182 187
80 182 187
80 182 187
80 182 187
81 183 187
80 182 187
80 183 187
80 182 187
80 182 187
80 182 187
80 183 187
80 182 187
80 182 187
80 183 187
80 182 187
80 182 187
80 183 187
80 182 187
80 182 187
80 182 187
80 183 187
80 182 187
80 182 187
80 183 187
80 182 187
80 182 187
80 182 187
81 183 187
80 183 187
80 182 187
80 183 187
80 182 187
80 182 187
80 182 187
80 182 187
80 182 187
80 183 187
80 182 187
80 182 187
80 182 187
80 182 187
80 183 187
80 182 187
80 182 187
80 182 187
80 182 187
80 182 187
80 183 187
80 182 187
80 183 187
80 183 187
79 182 187
80 182 187
80 182 187
81 183 187
80 183 187
80 182 187
80 183 187
80 182 187
80 182 187
80 183 187
79 182 187
80 182 187
80 183 187
80 182 187
80 183 187
80 182 187
80 182 187
80 182 187
80 183 187
80 183 187
80 182 187
80 182 187
80 182 187
80 182 187
80 182 187
80 182 187
80 182 187
80 182 187
80 183 187
80 183 187
80 183 187
80 182 187
80 182 187
80 183 187
79 182 187
80 182 187
80 182 187
80 182 187
80 183 187
80 182 187
80 182 187
80 183 187
80 182 187
80 183 187
80 182 187
80 182 187
80 182 187
79 182 187
80 182 187
80 182 187
81 183 187
80 182 187
80 182 187
80 182 187
80 183 187
80 182 187
80 183 187
80 182 187
80 183 187
80 182 187
81 183 187
80 183 187
80 182 187
80 183 187
80 182 187
80 182 187
80 182 187
79 182 187
80 183 187
80 183 187
80 182 187
80 182 187
81 183 187
80 183 187
80 182 187
80 182 187
80 182 187
80 183 187
80 183 187
80 183 187
80 182 187
80 182 187
80 182 187
80 182 187
81 183 187
80 182 187
80 182 187
80 183 187
80 182 187
80 182 187
80 182 187
80 182 187
80 182 187
80 183 187
80 183 187
80 183 187
80 182 187
80 182 187
80 182 187
80 182 187
80 182 187
80 182 187
80 183 187
80 182 187
80 182 187
80 183 187
80 182 187
80 182 187
80 183 187
80 183 187
80 182 187
80 182 187
79 182 187
80 182 187
80 183 187
80 182 187
80 183 187
80 183 187
80 182 187
80 182 187
80 183 187
80 183 187
80 182 187
80 182 187
80 182 187
80 182 187
80 183 187
80 182 187
80 182 187
80 182 187
80 182 187
80 183 187
80 183 187
80 183 187
80 182 187
80 182 186
79 182 187
80 182 187
80 182 187
80 183 187
80 182 187
80 182 187
80 182 187
80 182 187
80 182 187
80 181 186
80 181 186
80 182 187
80 183 187
80 182 187
79 182 187
80 182 187
80 182 187
80 181 186
80 181 186
80 181 186
80 182 187
80 182 187
80 181 186
80 182 187
80 182 187
80 182 187
80 183 187
80 182 187
80 181 186
79 180 185
80 182 187
80 182 187
80 180 185
80 182 187
80 183 187
79 180 185
80 182 187
79 180 185
80 180 185
80 180 185
80 182 186
80 181 186
80 183 187
80 181 186
80 182 186
80 183 187
80 180 185
80 182 187
79 180 185
80 182 187
80 182 187
80 182 187
80 182 187
79 178 183
79 180 185
80 181 186
79 181 185
80 181 185
80 180 185
79 182 187
80 182 186
80 182 186
80 182 187
80 181 186
80 183 187
80 181 186
80 181 186
80 182 186
80 181 186
80 181 185
79 180 185
79 179 183
79 181 185
80 182 187
80 182 187
79 181 185
80 182 187
80 183 187
79 181 185
79 181 185
80 183 187
80 183 187
80 182 187
80 182 187
80 182 187
80 182 187
79 182 187
79 182 187
80 182 187
79 180 185
79 181 185
80 182 187
79 182 187
80 182 187
80 182 187
80 182 187
80 182 187
80 182 187
80 183 187
80 183 187
80 182 187
80 182 187
80 182 187
80 182 187
80 182 187
80 182 187
79 180 185
80 182 187
80 182 187
79 181 185
80 183 187
80 183 187
80 182 187
80 182 187
80 182 187
80 182 187
80 182 187
80 182 187
80 183 187
80 182 187
80 183 187
80 183 187
80 183 187
80 183 187
80 182 187
80 182 187
80 182 187
80 182 187
80 182 187
80 183 187
80 183 187
80 182 187
80 182 187
80 182 187
80 182 187
80 182 187
80 182 187
80 182 187
80 182 187
80 182 187
80 183 187
80 182 187
80 182 187
80 183 187
80 182 187
80 182 187
80 182 187
80 182 187
80 182 187
80 182 187
80 182 187
80 182 187
80 183 187
80 182 187
80 183 187
80 182 187
80 183 187
80 183 187
80 183 187
80 182 187
80 182 187
80 183 187
80 182 187
80 182 187
80 183 187
80 182 187
80 183 187
80 182 187
80 182 187
80 182 187
80 182 187
80 182 187
80 182 187
80 182 187
80 182 187
80 183 187
80 183 187
80 182 187
80 183 187
80 183 187
79 182 187
80 182 187
80 183 187
80 182 187
80 182 187
80 183 187
80 183 187
80 182 187
80 183 187
80 182 187
80 182 187
79 182 187
80 182 187
80 182 187
80 182 187
80 182 187
80 182 187
80 182 187
80 182 187
81 183 187
80 182 187
80 182 187
80 182 187
80 182 187
80 182 187
80 183 187
80 182 187
80 182 187
80 182 187
80 182 187
80 182 187
80 183 187
80 182 187
80 183 187
80 183 187
80 183 187
80 183 187
80 182 187
80 182 187
80 183 187
80 182 187
80 183 187
80 182 187
80 183 187
80 182 187
80 182 187
80 182 187
80 182 187
80 182 187
80 182 187
80 182 187
80 182 187
80 183 187
80 182 187
80 182 187
80 182 187
80 182 187
80 183 187
80 182 187
79 182 187
80 183 187
80 183 187
80 182 187
80 182 187
80 182 187
80 182 187
80 182 187
80 183 187
80 182 187
80 182 187
80 182 187
80 182 187
80 183 187
80 182 187
79 182 187
80 182 187
81 183 187
80 182 187
80 182 187
80 183 187
80 182 187
80 182 187
79 182 187
80 183 187
80 183 187
80 182 187
80 182 187
81 183 187
80 182 187
80 182 187
80 182 187
81 183 187
81 183 187
80 182 187
80 182 187
80 183 187
80 182 187
80 182 187
80 183 187
80 182 187
80 182 187
80 182 187
80 182 187
80 182 187
80 182 187
80 182 187
80 182 187
80 182 187
80 182 187
80 183 187
80 183 187
80 182 187
81 183 187
80 182 187
80 182 187
80 183 187
80 182 187
80 183 187
80 183 187
81 183 187
80 183 187
80 182 187
80 182 187
79 182 187
79 182 187
80 183 187
80 183 187
80 182 187
80 182 187
80 182 187
80 182 187
80 182 187
80 182 187
80 182 187
80 183 187
80 182 187
80 182 187
80 182 187
80 182 187
80 183 187
80 182 187
80 182 187
80 182 187
80 182 187
80 183 187
80 183 187
80 183 187
81 183 187
80 182 187
80 182 187
80 182 187
80 182 187
80 182 187
80 182 187
80 182 187
80 182 187
80 182 187
80 182 187
80 183 187
80 183 187
80 182 187
80 183 187
80 182 187
80 182 187
80 183 187
80 183 187
80 183 187
80 182 187
81 183 187
80 182 187
80 183 187
79 182 187
80 183 187
80 182 187
80 182 187
80 182 187
81 183 187
80 183 187
80 182 187
80 182 187
81 183 187
79 182 187
80 182 187
80 182 187
80 182 187
80 182 187
80 182 187
80 183 187
80 182 187
80 182 187
80 182 187
80 182 187
80 183 187
80 182 187
80 182 187
80 182 187
80 182 187
80 183 187
80 182 187
80 182 187
80 182 187
80 182 187
80 182 187
80 182 187
80 182 187
80 182 187
81 183 187
80 182 187
80 183 187
80 183 187
80 183 187
80 182 187
80 183 187
80 182 187
79 182 187
80 182 187
80 182 187
80 182 187
80 183 187
80 182 187
80 182 187
80 181 186
80 182 187
80 183 187
80 182 187
80 182 187
79 180 185
80 183 187
80 182 187
80 182 187
80 182 187
80 183 187
80 183 187
79 182 187
80 182 187
80 182 187
80 181 186
80 182 187
80 182 187
80 182 187
80 183 187
80 181 186
80 181 186
80 181 186
80 183 187
80 182 187
80 183 187
80 183 187
79 181 186
80 183 187
80 182 187
80 183 187
80 182 187
80 183 187
80 181 186
80 182 187
80 182 187
80 182 187
80 182 187
80 180 185
80 182 187
80 181 186
80 181 186
80 181 186
80 180 184
80 182 187
79 181 186
80 182 187
80 182 187
80 182 187
79 182 187
80 183 187
80 178 182
80 183 187
80 182 187
80 182 187
80 182 187
80 182 186
80 180 185
80 182 187
80 182 187
80 181 185
80 181 186
80 181 186
80 182 186
80 180 185
80 181 186
80 181 185
80 183 187
80 182 186
79 180 185
80 182 187
80 182 187
79 179 183
79 181 185
80 182 187
80 183 187
79 182 187
80 183 187
80 183 187
80 182 187
79 181 185
80 183 187
80 183 187
80 182 187
80 183 187
80 183 187
80 183 187
79 181 185
80 182 187
80 182 187
80 182 187
80 182 187
79 182 187
80 183 187
80 182 187
79 180 185
79 181 185
79 180 185
80 182 187
80 182 187
80 183 187
80 183 187
80 182 187
79 180 185
80 183 187
80 182 187
79 181 185
80 182 187
80 182 187
80 182 187
80 182 187
80 182 187
80 182 187
80 182 187
80 182 187
80 182 187
80 183 187
80 182 187
80 183 187
79 180 185
80 182 187
80 182 187
80 183 187
80 182 187
80 182 187
80 183 187
80 182 187
80 182 187
80 183 187
80 183 187
80 182 187
80 183 187
80 182 187
80 182 187
80 182 187
80 182 187
80 183 187
80 182 187
80 182 187
79 181 185
80 183 187
80 182 187
80 182 187
80 182 187
80 182 187
80 182 187
80 182 187
80 183 187
79 182 187
80 182 187
80 182 187
80 182 187
80 183 187
80 183 187
80 182 187
80 183 187
80 182 187
80 183 187
80 183 187
80 183 187
80 183 187
80 183 187
80 182 187
80 182 187
80 183 187
80 182 187
80 182 187
80 182 187
80 182 187
80 182 187
80 183 187
80 182 187
80 182 187
80 183 187
80 182 187
80 183 187
80 182 187
80 183 187
80 183 187
80 182 187
80 182 187
80 182 187
80 183 187
80 183 187
80 182 187
80 182 187
80 183 187
80 182 187
80 182 187
80 182 187
80 182 187
80 182 187
80 182 187
80 182 187
80 182 187
80 183 187
80 182 187
80 182 187
80 182 187
80 182 187
80 183 187
81 183 187
80 183 187
80 182 187
80 182 187
80 182 187
80 182 187
80 182 187
80 183 187
81 183 187
80 183 187
80 182 187
80 182 187
80 183 187
80 182 187
80 182 187
80 183 187
80 182 187
80 183 187
80 182 187
80 182 187
80 182 187
80 182 187
79 182 187
80 182 187
80 182 187
80 182 187
80 182 187
80 183 187
80 182 187
80 183 187
80 182 187
81 183 187
80 183 187
80 182 187
80 182 187
80 182 187
80 182 187
80 182 187
80 183 187
80 183 187
80 183 187
80 182 187
79 182 187
80 182 187
80 182 187
80 182 187
80 182 187
80 183 187
80 182 187
80 182 187
80 183 187
80 182 187
80 182 187
80 182 187
80 182 187
80 182 187
80 182 187
80 182 187
80 183 187
80 183 187
80 182 187
80 182 187
80 182 187
80 182 187
80 182 187
80 182 187
80 183 187
80 182 187
80 182 187
80 183 187
80 182 187
80 183 187
80 182 187
80 182 187
80 183 187
80 183 187
80 182 187
80 182 187
80 182 187
80 182 187
80 182 187
80 183 187
80 183 187
80 182 187
80 183 187
80 183 187
80 182 187
81 183 187
80 182 187
80 182 187
80 183 187
80 183 187
80 182 187
80 182 187
80 182 187
80 182 187
80 182 187
80 182 187
80 183 187
80 182 187
80 182 187
80 182 187
80 182 187
80 183 187
80 182 187
80 183 187
80 183 187
80 183 187
80 182 187
81 183 187
80 182 187
80 182 187
80 182 187
80 182 187
80 183 187
80 182 187
80 182 187
80 182 187
80 183 187
80 183 187
80 182 187
80 183 187
80 182 187
80 183 187
80 182 187
80 183 187
80 182 187
80 182 187
80 183 187
80 183 187
80 182 187
80 182 187
80 182 187
80 182 187
79 182 187
80 182 187
80 183 187
80 182 187
80 182 187
81 183 187
80 182 187
80 182 187
80 183 187
80 183 187
80 182 187
80 182 187
80 183 187
80 183 187
80 182 187
80 182 187
80 183 187
80 182 187
80 182 187
80 183 187
80 183 187
80 182 187
80 182 187
80 182 187
80 182 187
80 183 187
80 182 187
80 182 187
80 182 187
80 182 187
79 182 187
80 183 187
80 182 187
80 182 187
80 183 187
80 182 187
80 183 187
80 182 187
80 182 187
80 183 187
80 183 187
80 183 187
80 183 187
80 182 187
80 182 187
80 183 187
80 183 187
80 182 187
80 183 187
80 183 187
80 182 187
80 183 187
80 183 187
80 183 187
80 183 187
80 183 187
80 182 187
80 183 187
80 183 187
80 183 187
80 182 187
80 183 187
80 183 187
80 182 187
80 182 187
80 182 187
80 183 187
80 182 187
80 183 187
79 182 187
79 182 187
79 180 185
80 182 187
80 182 187
80 183 187
80 182 187
80 181 186
80 182 187
80 182 187
80 182 187
80 181 186
80 181 186
80 182 187
80 182 187
80 182 187
80 182 187
80 183 187
79 180 185
80 182 187
80 183 187
81 183 187
80 182 187
80 183 187
80 181 186
80 181 186
80 181 186
80 181 186
80 182 187
80 182 187
80 182 187
80 180 184
80 182 187
80 181 186
80 182 187
80 181 186
80 181 185
80 182 187
81 183 187
80 182 187
80 183 187
80 180 185
80 181 185
80 181 185
80 181 186
80 181 186
80 182 187
80 183 187
80 182 187
80 183 187
79 181 186
80 182 187
80 181 186
79 181 186
80 182 187
80 182 186
80 180 185
80 182 186
80 183 187
80 182 187
80 180 185
80 181 186
80 180 185
80 181 186
79 181 185
